luts/Arrakis-SLog2.cube
TITLE "Generated by Resolve"
LUT_3D_SIZE 33
0 0.0122377 0.0149538
0 0.0122377 0.0136721
0.0201724 0.0106661 0.0148318
0.0645304 0.00808728 0.0196384
0.125246 0.00503548 0.0148013
0.187396 0.00131228 0.00653086
0.24799 0.0016022 0.000244144
0.306783 0.00798047 0
0.366506 0.0172274 0
0.426596 0.0297398 0
0.486519 0.0450141 0
0.545266 0.061265 0.00222782
0.602609 0.0788281 0.00668345
0.658106 0.0976577 0.0124971
0.711421 0.117678 0.019913
0.762173 0.139071 0.0291142
0.810544 0.161837 0.0394751
0.856535 0.184604 0.0502327
0.899687 0.207889 0.0615396
0.939879 0.232197 0.0738842
0.977722 0.257542 0.0872816
1 0.283299 0.100908
1 0.309224 0.114687
1 0.334264 0.12781
1 0.359091 0.14081
1 0.383536 0.153292
1 0.407446 0.165682
1 0.430243 0.177432
1 0.452491 0.188952
1 0.473762 0.199893
1 0.493996 0.209934
1 0.512825 0.219471
1 0.530694 0.228733
0 0.0146334 0.0170443
0 0.0146181 0.0158236
0.0205997 0.0129244 0.015259
0.0642863 0.0108492 0.0193637
0.124239 0.00788891 0.0142672
0.18587 0.0043946 0.00616464
0.243809 0.00784314 0.00250248
0.302419 0.014313 0.000213626
0.36202 0.0237583 0
0.422324 0.0367285 0
0.482429 0.0512551 0.00141909
0.541329 0.0669871 0.0043946
0.598993 0.0839551 0.00868238
0.654643 0.102358 0.0145113
0.707851 0.122072 0.0216373
0.759167 0.14255 0.0303502
0.807874 0.16347 0.0396124
0.854292 0.185763 0.0501869
0.897551 0.20885 0.0614481
0.937972 0.232975 0.0736553
0.975692 0.258228 0.0869001
1 0.283818 0.10045
1 0.309667 0.114214
1 0.33463 0.127306
1 0.359442 0.140337
1 0.383703 0.152819
1 0.407599 0.165133
1 0.430335 0.176867
1 0.452537 0.188403
1 0.473762 0.199329
1 0.493965 0.209354
1 0.512886 0.219028
1 0.530587 0.22826
0 0.0333562 0.0288243
0 0.0331731 0.0276799
0.0279088 0.0319371 0.0211795
0.062623 0.0328374 0.0231327
0.1122 0.0326085 0.0185397
0.165408 0.0349737 0.0151064
0.222004 0.0393378 0.0124361
0.28072 0.0461738 0.0102083
0.341176 0.0543069 0.00885023
0.401999 0.063859 0.00816358
0.462715 0.0747845 0.00881972
0.522377 0.0871748 0.0102998
0.580926 0.101183 0.0133822
0.637308 0.116579 0.0176699
0.691691 0.133394 0.0234531
0.744015 0.151873 0.0311284
0.793408 0.171542 0.0397955
0.840192 0.192813 0.0497292
0.884153 0.214832 0.0603342
0.925185 0.237964 0.0719615
0.963607 0.262287 0.0847639
0.999039 0.286992 0.0977951
1 0.312428 0.111559
1 0.336843 0.124437
1 0.361273 0.137469
1 0.384924 0.149798
1 0.408377 0.162112
1 0.431098 0.173754
1 0.452735 0.184985
1 0.473655 0.195865
1 0.493538 0.206088
1 0.512337 0.215763
1 0.529824 0.224781
0.00102235 0.0589609 0.0442969
0.00640879 0.0581216 0.0427253
0.0387732 0.0545815 0.0349584
0.0611276 0.0599985 0.0318761
0.101503 0.0609598 0.0302739
0.154879 0.0611124 0.024506
0.210101 0.0634012 0.0201114
0.267536 0.0679179 0.016907
0.326436 0.0741131 0.0146181
0.386358 0.0819867 0.0136568
0.446296 0.0914015 0.0134585
0.505745 0.10222 0.014435
0.564385 0.114778 0.0168307
0.620981 0.128664 0.0204013
0.675944 0.144488 0.0259403
0.728237 0.16144 0.0324865
0.778485 0.180163 0.0407568
0.825666 0.199969 0.0496986
0.870558 0.22118 0.0599985
0.912123 0.243305 0.0710155
0.951446 0.26659 0.0832227
0.987472 0.290425 0.0957656
1 0.315221 0.1093
1 0.339254 0.121828
1 0.363165 0.134646
1 0.386435 0.146899
1 0.409369 0.158999
1 0.431678 0.170794
1 0.453315 0.18204
1 0.47361 0.192645
1 0.493248 0.202899
1 0.511833 0.212253
1 0.529152 0.221271
0.0167697 0.0890822 0.0630808
0.0220188 0.0883497 0.061799
0.0541848 0.0851453 0.0530556
0.0746624 0.0890516 0.0431525
0.0974289 0.0930953 0.0435187
0.143206 0.0931258 0.0406958
0.198032 0.0926223 0.0339818
0.254643 0.0939803 0.0283665
0.31284 0.0975357 0.0246433
0.371817 0.102831 0.0219577
0.431464 0.110002 0.0207523
0.490181 0.1187 0.0204318
0.548562 0.129503 0.0221103
0.605615 0.141894 0.0247807
0.660456 0.15584 0.0290227
0.713451 0.171633 0.0353704
0.763867 0.188769 0.0422217
0.81181 0.207568 0.0506752
0.857343 0.227634 0.0602274
0.89955 0.248722 0.070634
0.939254 0.271214 0.0821088
0.975906 0.294148 0.0940871
1 0.31809 0.107118
1 0.341726 0.119814
1 0.365103 0.132464
1 0.38822 0.144533
1 0.410498 0.156237
1 0.432395 0.168093
1 0.45362 0.1794
1 0.474037 0.189914
1 0.493431 0.200076
1 0.511711 0.209293
1 0.528939 0.218357
0.0385901 0.12134 0.0845502
0.044831 0.120333 0.0831159
0.0754711 0.1178 0.0736095
0.0930648 0.120195 0.063447
0.113893 0.121752 0.0602579
0.136889 0.127962 0.0565652
0.186282 0.12694 0.0550546
0.242634 0.126436 0.0480354
0.30045 0.127062 0.0411688
0.359335 0.129976 0.0367285
0.418051 0.134646 0.0334478
0.476905 0.141222 0.0321202
0.534829 0.149752 0.0319982
0.591516 0.16022 0.0338445
0.646571 0.17203 0.0367437
0.699748 0.186038 0.0413977
0.750607 0.201602 0.0473487
0.799023 0.218631 0.0543221
0.844511 0.237049 0.0628977
0.887755 0.256886 0.0725414
0.927779 0.277684 0.082826
0.965209 0.299626 0.0943008
1 0.322408 0.106554
1 0.345449 0.118746
1 0.368063 0.130983
1 0.390433 0.142977
1 0.412116 0.154498
1 0.433631 0.165805
1 0.454444 0.176928
1 0.474464 0.187289
1 0.493553 0.197345
1 0.511559 0.206668
1 0.528557 0.215427
0.0707103 0.154604 0.107698
0.0774853 0.153674 0.106264
0.0993668 0.152224 0.0960098
0.115465 0.153048 0.0862593
0.130098 0.155108 0.0780499
0.152026 0.156863 0.0788891
0.179004 0.163912 0.0724041
0.231266 0.162356 0.071397
0.288182 0.161517 0.0643626
0.346777 0.162219 0.0577707
0.405615 0.164523 0.0525368
0.464302 0.168978 0.0491646
0.522026 0.175235 0.0473182
0.578851 0.183368 0.0470588
0.634012 0.193439 0.0486915
0.687221 0.205417 0.0516823
0.738399 0.21912 0.0561379
0.787045 0.234424 0.062211
0.832975 0.251041 0.0691539
0.876509 0.269261 0.0776989
0.917144 0.288853 0.0870375
0.955322 0.309377 0.097734
0.990326 0.33051 0.108797
1 0.352804 0.120729
1 0.374563 0.132464
1 0.395972 0.143664
1 0.417029 0.15465
1 0.43772 0.16582
1 0.457938 0.17644
1 0.477272 0.186694
1 0.495903 0.196231
1 0.51342 0.205432
1 0.530053 0.213962
0.10251 0.190433 0.132174
0.10602 0.190005 0.130617
0.124575 0.188098 0.120287
0.139467 0.188052 0.110582
0.14757 0.190784 0.100328
0.171237 0.189746 0.0960555
0.192233 0.193942 0.0972152
0.223178 0.200595 0.090425
0.276783 0.198779 0.0889754
0.33463 0.198184 0.0823224
0.393668 0.198825 0.0757153
0.452354 0.200931 0.0704356
0.510414 0.205173 0.0668956
0.566934 0.211215 0.0647135
0.622324 0.219104 0.0643778
0.675502 0.228977 0.0657206
0.726818 0.240711 0.0686503
0.775876 0.254078 0.073228
0.822126 0.269245 0.079057
0.86598 0.285786 0.0860914
0.907271 0.303624 0.0944381
0.945434 0.322744 0.103868
0.981277 0.342763 0.11426
1 0.363333 0.124865
1 0.384222 0.136034
1 0.404715 0.14696
1 0.42504 0.157595
1 0.444892 0.168124
1 0.464332 0.17821
1 0.482994 0.18793
1 0.500969 0.197482
1 0.518013 0.206165
1 0.534035 0.214633
0.13196 0.228016 0.1579
0.13492 0.227558 0.156207
0.151385 0.22504 0.146227
0.164645 0.224338 0.136461
0.173465 0.225422 0.126635
0.186664 0.226276 0.118883
0.211368 0.226551 0.117403
0.234104 0.232181 0.115908
0.268513 0.237949 0.109026
0.323201 0.2365 0.107851
0.381399 0.235996 0.101686
0.440406 0.236698 0.0951247
0.498451 0.238804 0.0897078
0.555795 0.242954 0.0860151
0.611063 0.248814 0.083711
0.664561 0.256626 0.08336
0.716365 0.26656 0.0848707
0.765423 0.278096 0.0877699
0.812116 0.291234 0.092134
0.856077 0.30605 0.0978103
0.897734 0.322133 0.105013
0.936446 0.33959 0.113024
0.972381 0.358114 0.122225
1 0.377493 0.13225
1 0.39733 0.142458
1 0.416434 0.152544
1 0.435721 0.162387
1 0.454658 0.172381
1 0.473182 0.182071
1 0.491112 0.191226
1 0.508339 0.200198
1 0.524804 0.208667
1 0.54049 0.217014
0.161929 0.266545 0.185168
0.164508 0.266026 0.183474
0.179141 0.26305 0.173175
0.191073 0.261692 0.163653
0.199924 0.26186 0.154284
0.205325 0.264225 0.144121
0.229099 0.26247 0.13933
0.252323 0.264576 0.13904
0.277455 0.271015 0.135241
0.314687 0.276478 0.129076
0.369955 0.275135 0.127901
0.428107 0.274784 0.121935
0.486961 0.275517 0.115908
0.544121 0.277745 0.110307
0.59997 0.281956 0.106813
0.653971 0.287678 0.104509
0.705974 0.295674 0.104433
0.755428 0.305119 0.105577
0.802289 0.316426 0.108385
0.846662 0.329305 0.112581
0.888304 0.343725 0.118059
0.927321 0.359442 0.12488
0.963821 0.376593 0.132784
0.997467 0.394232 0.141756
1 0.413046 0.151339
1 0.431128 0.16051
1 0.449348 0.169986
1 0.467201 0.178866
1 0.485008 0.188128
1 0.501991 0.196933
1 0.518441 0.205234
1 0.534112 0.213413
1 0.548898 0.22089
0.19234 0.305852 0.213825
0.19469 0.305257 0.212085
0.207599 0.3019 0.201694
0.218494 0.299992 0.191836
0.226902 0.299336 0.182589
0.232731 0.300099 0.173281
0.24509 0.301396 0.165148
0.272084 0.300114 0.160571
0.294759 0.303716 0.161318
0.321538 0.310979 0.155123
0.361273 0.315694 0.14995
0.417014 0.314412 0.148791
0.474754 0.314244 0.143236
0.53254 0.315236 0.137575
0.5888 0.317479 0.132204
0.643153 0.321843 0.128496
0.695476 0.327779 0.126513
0.745495 0.335439 0.126131
0.792493 0.344839 0.127123
0.837507 0.356176 0.130053
0.87953 0.368719 0.134173
0.918807 0.382666 0.13962
0.955352 0.397879 0.146258
0.989441 0.414084 0.153857
1 0.431235 0.162432
1 0.448402 0.170764
1 0.465385 0.179202
1 0.482444 0.187823
1 0.498909 0.196277
1 0.515038 0.204288
1 0.530556 0.211978
1 0.545419 0.219745
1 0.559701 0.22707
0.223499 0.345632 0.243595
0.225406 0.345052 0.241901
0.236957 0.34139 0.231525
0.246983 0.339071 0.221714
0.254917 0.337728 0.212543
0.260624 0.337362 0.203403
0.265568 0.339818 0.193088
0.288258 0.338613 0.188174
0.314595 0.338918 0.1841
0.338079 0.343587 0.183841
0.366354 0.351385 0.175982
0.408179 0.355337 0.171695
0.463539 0.354284 0.170672
0.520592 0.354284 0.165682
0.577356 0.355505 0.15993
0.63212 0.358053 0.155062
0.684916 0.362325 0.151293
0.735424 0.368368 0.149737
0.782986 0.375906 0.14902
0.828168 0.385336 0.150393
0.87068 0.396094 0.153002
0.910323 0.40824 0.156924
0.947478 0.421988 0.162387
0.981689 0.436683 0.168521
1 0.452262 0.175814
1 0.468193 0.18352
1 0.483925 0.19086
1 0.499489 0.198459
1 0.515221 0.206149
1 0.530205 0.21387
1 0.544793 0.220874
1 0.558862 0.227985
1 0.572366 0.234607
0.255268 0.38616 0.274556
0.257115 0.385473 0.273014
0.267231 0.381491 0.262486
0.276265 0.378668 0.252781
0.283726 0.376791 0.243641
0.289525 0.375845 0.234714
0.294362 0.376684 0.225162
0.304265 0.378668 0.215671
0.331701 0.376761 0.212009
0.357321 0.378424 0.208698
0.381811 0.384039 0.206912
0.411139 0.392172 0.197284
0.454582 0.395346 0.194476
0.509682 0.394385 0.1935
0.56556 0.394659 0.188708
0.620691 0.396155 0.18349
0.674296 0.398978 0.178943
0.724804 0.403189 0.175418
0.773465 0.409216 0.173632
0.818799 0.416632 0.172854
0.861753 0.425925 0.174228
0.901701 0.436347 0.176501
0.939162 0.448432 0.180468
0.973678 0.461402 0.185443
1 0.475334 0.191394
1 0.490288 0.198444
1 0.504677 0.204761
1 0.519051 0.211444
1 0.533303 0.218173
1 0.547555 0.224887
1 0.561151 0.231662
1 0.574136 0.237873
1 0.586908 0.244343
0.287327 0.426413 0.306416
0.288991 0.425696 0.304646
0.297826 0.421515 0.294026
0.306081 0.418326 0.284367
0.312978 0.416022 0.275288
0.318563 0.414496 0.26659
0.323079 0.414191 0.257847
0.328481 0.416709 0.247227
0.348302 0.416327 0.241367
0.375555 0.415442 0.236271
0.40058 0.418494 0.233997
0.426139 0.42472 0.230701
0.456046 0.432944 0.219562
0.50071 0.435355 0.217823
0.554711 0.434638 0.217044
0.609491 0.43508 0.212604
0.662867 0.436805 0.207721
0.714534 0.43978 0.20354
0.763088 0.444144 0.200015
0.809293 0.450187 0.197986
0.852857 0.457694 0.197986
0.893065 0.466468 0.198856
0.930953 0.476875 0.201312
0.965789 0.488121 0.204822
0.998108 0.500679 0.209674
1 0.514061 0.215427
1 0.527123 0.220829
1 0.540612 0.226535
1 0.553613 0.23238
1 0.566491 0.238331
1 0.579278 0.244205
1 0.591424 0.249836
1 0.603311 0.255406
0.319677 0.46656 0.339086
0.321172 0.465812 0.337346
0.329 0.461402 0.326696
0.336446 0.457938 0.317052
0.343023 0.455604 0.308324
0.348196 0.453712 0.299672
0.35227 0.452628 0.291249
0.357794 0.453635 0.281712
0.364401 0.456748 0.270436
0.391913 0.454276 0.267262
0.419333 0.45449 0.261311
0.443717 0.458564 0.259815
0.470192 0.465126 0.254536
0.50071 0.473732 0.24239
0.546044 0.475578 0.242222
0.598917 0.474769 0.241291
0.651743 0.475395 0.2374
0.703471 0.477272 0.232532
0.75285 0.480476 0.228458
0.799649 0.4851 0.225528
0.84329 0.490837 0.223621
0.88452 0.498222 0.223377
0.922515 0.507088 0.224308
0.957855 0.516747 0.226429
0.990387 0.527886 0.229755
1 0.53962 0.234104
1 0.551797 0.239002
1 0.563531 0.24361
1 0.575387 0.248508
1 0.58735 0.253773
1 0.59884 0.258518
1 0.610315 0.263661
1 0.62092 0.268345
0.352224 0.506371 0.372305
0.353201 0.505699 0.37052
0.360815 0.50132 0.360357
0.367498 0.497642 0.350759
0.373022 0.494804 0.341451
0.377981 0.492485 0.332891
0.381811 0.490822 0.324788
0.386725 0.490791 0.315816
0.392309 0.493278 0.305211
0.408255 0.494133 0.297734
0.435187 0.492409 0.293492
0.462806 0.493828 0.287114
0.486748 0.498283 0.285557
0.513787 0.505165 0.279026
0.544335 0.514183 0.266041
0.59028 0.515099 0.26717
0.641871 0.514687 0.266545
0.692821 0.515496 0.262745
0.742229 0.517357 0.258305
0.789197 0.520775 0.254307
0.833646 0.525414 0.251499
0.875486 0.53135 0.249912
0.913802 0.538338 0.249165
0.949584 0.546777 0.250355
0.982483 0.556313 0.252216
1 0.566598 0.255283
1 0.577554 0.259174
1 0.588174 0.262608
1 0.599008 0.266728
1 0.609537 0.270787
1 0.620264 0.274998
1 0.630289 0.279149
1 0.64036 0.283436
0.384833 0.546044 0.405951
0.385977 0.545251 0.404318
0.392477 0.540398 0.393988
0.398215 0.536645 0.384115
0.403525 0.533501 0.375296
0.408301 0.531212 0.367269
0.41207 0.529107 0.359289
0.41622 0.528267 0.350942
0.421836 0.529442 0.341176
0.426841 0.532982 0.329335
0.451621 0.531075 0.325292
0.47837 0.530388 0.320577
0.504982 0.532647 0.314031
0.529335 0.53756 0.311452
0.556451 0.544762 0.303655
0.586999 0.553841 0.289784
0.632929 0.554131 0.292195
0.682567 0.553979 0.291737
0.731914 0.55494 0.288716
0.779431 0.557153 0.284642
0.823865 0.56051 0.28098
0.865782 0.564996 0.277852
0.905074 0.570871 0.276478
0.94139 0.57792 0.27602
0.974411 0.585779 0.27631
1 0.594858 0.278294
1 0.604669 0.281163
1 0.613962 0.283391
1 0.623636 0.286549
1 0.633051 0.289693
1 0.642603 0.292927
1 0.652018 0.29659
1 0.660777 0.299962
0.417472 0.584482 0.439872
0.418494 0.583673 0.438163
0.424231 0.578927 0.428046
0.429587 0.575174 0.418616
0.434485 0.571771 0.409827
0.438422 0.569039 0.401663
0.441733 0.566796 0.393439
0.445243 0.565316 0.385412
0.450492 0.565484 0.37644
0.456291 0.567803 0.366217
0.46775 0.570153 0.356786
0.494423 0.567712 0.353094
0.521019 0.568109 0.347875
0.546654 0.570886 0.341421
0.571221 0.576165 0.33785
0.59823 0.583612 0.32871
0.628641 0.59263 0.314229
0.673976 0.592371 0.318181
0.721981 0.59234 0.3178
0.769009 0.593515 0.314641
0.814023 0.59588 0.31104
0.856458 0.59939 0.307744
0.896071 0.603998 0.304936
0.932464 0.609476 0.303166
0.966506 0.616251 0.302815
0.997406 0.624018 0.303471
1 0.632364 0.305028
1 0.640787 0.306508
1 0.649241 0.308537
1 0.657679 0.310521
1 0.666087 0.313085
1 0.674372 0.315831
1 0.682536 0.318471
0.450263 0.622263 0.474189
0.451164 0.621454 0.472496
0.455863 0.616602 0.462181
0.460594 0.612528 0.452903
0.464958 0.609033 0.44419
0.46865 0.606546 0.436011
0.471916 0.604013 0.428305
0.475074 0.602029 0.420706
0.479561 0.601495 0.41239
0.485298 0.602686 0.402808
0.4907 0.605966 0.391379
0.510002 0.605554 0.385138
0.53637 0.604273 0.381399
0.562402 0.605066 0.374914
0.587488 0.608347 0.369177
0.612268 0.614343 0.364157
0.63917 0.621607 0.353994
0.668788 0.630259 0.339788
0.713603 0.629602 0.344167
0.759548 0.629755 0.343908
0.804242 0.631067 0.341039
0.846693 0.633555 0.337774
0.886534 0.637156 0.334462
0.923796 0.641642 0.332219
0.958114 0.647196 0.330526
0.989212 0.653529 0.3299
1 0.660807 0.330388
1 0.668254 0.330953
1 0.675639 0.332006
1 0.683101 0.333257
1 0.690303 0.334798
1 0.697749 0.336507
1 0.704921 0.338552
0.482338 0.658656 0.507866
0.482994 0.657908 0.506127
0.487327 0.652949 0.496193
0.491691 0.64918 0.487358
0.495445 0.645701 0.47837
0.498634 0.64268 0.470542
0.501595 0.640009 0.462989
0.504234 0.63798 0.455451
0.508247 0.637018 0.447593
0.513466 0.63714 0.43856
0.519249 0.639155 0.428534
0.525933 0.643046 0.416907
0.551949 0.640497 0.414099
0.577356 0.639658 0.409537
0.603006 0.641154 0.402365
0.627451 0.645258 0.396628
0.652049 0.651041 0.390661
0.678782 0.658518 0.379812
0.707668 0.666972 0.366339
0.751675 0.666026 0.37084
0.795438 0.666316 0.37084
0.83769 0.667735 0.368261
0.87747 0.670161 0.364797
0.914656 0.673609 0.361837
0.949279 0.678096 0.359258
0.981094 0.683406 0.357855
1 0.689632 0.357259
1 0.696223 0.357046
1 0.702464 0.357336
1 0.70869 0.357259
1 0.715206 0.358053
1 0.72166 0.358831
1 0.727886 0.359991
0.514214 0.694087 0.541192
0.514931 0.693324 0.539788
0.5187 0.688411 0.529946
0.522042 0.684398 0.52079
0.525628 0.680934 0.512596
0.528725 0.678004 0.504952
0.53109 0.675334 0.497398
0.533471 0.672877 0.49012
0.536873 0.67126 0.482628
0.541573 0.670954 0.474464
0.547341 0.672099 0.465126
0.552972 0.675181 0.454322
0.566979 0.676204 0.445747
0.592294 0.674357 0.442679
0.617227 0.674372 0.437354
0.642573 0.676387 0.43003
0.666102 0.680629 0.423789
0.690455 0.686564 0.416815
0.716701 0.694026 0.405234
0.745052 0.701854 0.392676
0.787289 0.700938 0.397177
0.828794 0.701381 0.397162
0.868574 0.702922 0.394766
0.906157 0.705394 0.392142
0.940948 0.708965 0.389258
0.973053 0.713329 0.387121
1 0.718456 0.385367
1 0.723903 0.384222
1 0.729305 0.383551
1 0.734844 0.382818
1 0.740322 0.382605
1 0.745937 0.382681
1 0.751415 0.383154
0.545434 0.72784 0.574166
0.546029 0.727062 0.572595
0.549172 0.722423 0.563043
0.552392 0.718486 0.554513
0.555215 0.714946 0.546151
0.557916 0.711772 0.538567
0.560174 0.708995 0.531121
0.562509 0.706752 0.524529
0.565118 0.704814 0.517372
0.569299 0.704021 0.509285
0.574655 0.704417 0.500771
0.58027 0.706157 0.490944
0.58587 0.709895 0.479271
0.607279 0.708598 0.475044
0.631769 0.707256 0.471061
0.656107 0.707881 0.465156
0.680323 0.710307 0.456886
0.703365 0.714702 0.45098
0.727214 0.720775 0.442939
0.752712 0.728191 0.430686
0.78085 0.735164 0.419562
0.821118 0.734386 0.42356
0.860243 0.734966 0.423651
0.89752 0.736568 0.421775
0.932418 0.739116 0.418875
0.964706 0.742565 0.416403
0.994522 0.746777 0.414237
1 0.751614 0.412879
1 0.756207 0.411002
1 0.760937 0.409491
1 0.765606 0.40882
1 0.770306 0.407919
1 0.774975 0.40734
0.575967 0.760418 0.606485
0.576471 0.759655 0.604944
0.579187 0.754864 0.595697
0.581598 0.750896 0.58703
0.584543 0.747555 0.579355
0.586954 0.744396 0.571694
0.588952 0.741558 0.564584
0.590539 0.73904 0.557885
0.592737 0.736843 0.550881
0.596567 0.735698 0.543694
0.601236 0.735454 0.535668
0.606897 0.736507 0.526635
0.612512 0.739239 0.516365
0.621775 0.742123 0.506493
0.645853 0.73962 0.503151
0.669718 0.739101 0.498833
0.693431 0.739956 0.492683
0.717083 0.743099 0.484199
0.739193 0.747753 0.477516
0.762646 0.753796 0.468788
0.787442 0.76109 0.456168
0.815137 0.767239 0.446448
0.853132 0.766583 0.450385
0.88983 0.7673 0.450492
0.92462 0.768978 0.448569
0.95697 0.771466 0.44622
0.98677 0.774807 0.44358
1 0.778866 0.441688
1 0.782879 0.439399
1 0.786664 0.437278
1 0.790509 0.435538
1 0.794446 0.433875
1 0.798566 0.432761
0.605615 0.791012 0.637797
0.606043 0.790249 0.636301
0.608362 0.785916 0.627375
0.610803 0.781857 0.619058
0.612863 0.778363 0.611276
0.614847 0.775341 0.603906
0.616922 0.772671 0.597345
0.618616 0.770062 0.59057
0.620035 0.767819 0.583963
0.623056 0.766262 0.577127
0.627512 0.765606 0.569604
0.632685 0.76611 0.56109
0.63859 0.767803 0.551812
0.644129 0.77116 0.54107
0.659724 0.771282 0.534401
0.683436 0.769619 0.531136
0.706172 0.76936 0.526375
0.729183 0.771084 0.519509
0.751965 0.774182 0.510445
0.773465 0.778881 0.503716
0.796094 0.784924 0.494301
0.820005 0.792081 0.481346
0.846922 0.797513 0.472953
0.882612 0.79704 0.476402
0.916838 0.797803 0.476631
0.949142 0.799527 0.474952
0.979019 0.802029 0.472526
1 0.805173 0.470344
1 0.80856 0.46804
1 0.811795 0.465385
1 0.81503 0.463035
1 0.818265 0.460716
1 0.8215 0.458976
0.634379 0.820233 0.668101
0.634745 0.819501 0.666636
0.636591 0.814923 0.657893
0.638849 0.811261 0.650065
0.640742 0.807813 0.642252
0.642298 0.804746 0.635416
0.643748 0.801984 0.628687
0.645533 0.799664 0.62237
0.646922 0.797253 0.616236
0.64947 0.795468 0.609766
0.653132 0.794553 0.602502
0.658106 0.794446 0.594827
0.663432 0.795514 0.586252
0.668986 0.797894 0.576501
0.674189 0.801526 0.564843
0.696422 0.799405 0.561883
0.71902 0.798062 0.558297
0.741131 0.798566 0.553002
0.76318 0.800336 0.545892
0.78529 0.804028 0.536538
0.806241 0.808743 0.52929
0.827817 0.814771 0.519081
0.850629 0.821683 0.50605
0.877089 0.826383 0.499107
0.91043 0.826032 0.502388
0.942184 0.826841 0.502495
0.972 0.828565 0.501015
0.999435 0.830991 0.499123
1 0.83386 0.496651
1 0.836362 0.493889
1 0.839033 0.490944
1 0.841718 0.488182
1 0.844251 0.486107
0.662104 0.847547 0.69723
0.662531 0.846952 0.695964
0.663874 0.842588 0.687388
0.665644 0.838727 0.679683
0.667567 0.835615 0.672435
0.669001 0.832609 0.665629
0.670192 0.829877 0.659358
0.671473 0.827344 0.652949
0.672724 0.825223 0.647196
0.674723 0.823285 0.64097
0.678096 0.822019 0.634195
0.682307 0.821607 0.627039
0.687541 0.822065 0.619089
0.692927 0.823682 0.610239
0.698131 0.826337 0.599924
0.709606 0.828 0.591516
0.731899 0.826001 0.588907
0.753277 0.825208 0.584573
0.774609 0.826032 0.57879
0.795575 0.828397 0.571191
0.816709 0.831952 0.561715
0.836744 0.836759 0.554055
0.857603 0.842603 0.543465
0.879362 0.849363 0.529992
0.904707 0.853346 0.52462
0.93576 0.853147 0.527642
0.965042 0.853971 0.527749
0.992401 0.855665 0.52636
1 0.858015 0.524392
1 0.860105 0.521843
1 0.862196 0.5187
1 0.864256 0.51577
1 0.866377 0.513161
0.688792 0.873091 0.724895
0.689052 0.872404 0.723568
0.690379 0.868421 0.715801
0.6916 0.864805 0.708034
0.693095 0.86157 0.70106
0.694484 0.858793 0.694682
0.695613 0.856077 0.688518
0.696712 0.853544 0.682368
0.697627 0.851179 0.676646
0.699031 0.849485 0.670756
0.701869 0.848005 0.6645
0.705852 0.847227 0.657725
0.710521 0.847303 0.650309
0.715801 0.848173 0.641901
0.72108 0.850126 0.632685
0.726284 0.85359 0.622171
0.743923 0.852766 0.61767
0.765026 0.851087 0.614206
0.785733 0.850996 0.609751
0.805982 0.852033 0.603601
0.82591 0.854536 0.595605
0.84651 0.858442 0.586419
0.865797 0.863264 0.578256
0.885557 0.869032 0.567147
0.906126 0.875517 0.553582
0.930632 0.878737 0.549584
0.959289 0.878752 0.552224
0.986267 0.879591 0.552331
1 0.881178 0.551354
1 0.882765 0.549065
1 0.884321 0.546014
1 0.885863 0.543038
1 0.887465 0.539818
0.714397 0.897002 0.751598
0.714595 0.896345 0.750286
0.715618 0.892546 0.74258
0.716777 0.88896 0.735332
0.717739 0.885817 0.728222
0.718822 0.883131 0.722271
0.719707 0.880537 0.716274
0.720607 0.878065 0.710323
0.721447 0.8757 0.704814
