luts/Arrakis-SLog.cube
TITLE "Generated by Resolve"
LUT_3D_SIZE 9
0 0.0122377 0.0149538
0.105562 0.0062562 0.0170443
0.303243 0.0075227 0
0.520241 0.0542611 0.000610361
0.733471 0.126757 0.0237736
0.916884 0.218082 0.066743
1 0.323201 0.121889
1 0.429297 0.176928
1 0.530694 0.228733
0.0110628 0.0792248 0.0567178
0.0855268 0.0823529 0.0398566
0.255177 0.0846723 0.0241703
0.470146 0.108721 0.0180667
0.687953 0.158572 0.030045
0.879423 0.234592 0.0644846
1 0.330495 0.114992
1 0.431235 0.168505
1 0.529091 0.219348
0.100725 0.188235 0.130617
0.144427 0.187594 0.102113
0.220691 0.198337 0.0892805
0.428 0.197848 0.0710918
0.645884 0.221546 0.0638437
0.841443 0.274784 0.0810864
1 0.353399 0.120012
1 0.443671 0.167285
1 0.53373 0.214557
0.210208 0.328847 0.230716
0.240909 0.321508 0.202731
0.279805 0.321889 0.176699
0.388617 0.338491 0.162524
0.605615 0.340276 0.1458
0.806149 0.366384 0.13994
0.970031 0.419883 0.158663
1 0.491341 0.193271
1 0.566674 0.231083
0.33341 0.483848 0.353109
0.35378 0.473091 0.324987
0.369787 0.4692 0.296605
0.441978 0.471763 0.271351
0.564889 0.492424 0.25272
0.768261 0.497551 0.239475
0.939223 0.525261 0.235508
1 0.573327 0.251164
1 0.629145 0.274617
0.463645 0.637644 0.488014
0.476616 0.625711 0.46125
0.486778 0.617197 0.435477
0.505974 0.622629 0.399924
0.604685 0.624048 0.380591
0.729809 0.64509 0.355474
0.90396 0.653025 0.345418
1 0.679637 0.34168
1 0.714443 0.347295
0.59263 0.777798 0.624048
0.599954 0.76611 0.599847
0.60618 0.756695 0.576608
0.619379 0.752987 0.549996
0.663905 0.756802 0.51931
0.755642 0.764691 0.4934
0.869917 0.783993 0.465126
1 0.793454 0.457725
1 0.811353 0.447425
0.713329 0.896086 0.750484
0.716426 0.885817 0.729274
0.719585 0.877226 0.709529
0.725765 0.870695 0.688624
0.744137 0.87277 0.6589
0.804593 0.873884 0.635889
0.884337 0.884916 0.603952
0.980179 0.901503 0.575402
1 0.906981 0.565164
0.82092 0.990417 0.860609
0.821271 0.981964 0.843198
0.822232 0.974746 0.827024
0.824201 0.968246 0.810498
0.836118 0.965759 0.789059
0.854368 0.972274 0.757595
0.921004 0.96968 0.742596
0.985992 0.981537 0.707729
1 0.992401 0.678599
0.0132753 0.0663462 0.0721599
0.0845808 0.0542153 0.0837873
0.281025 0.0498054 0.0998398
0.524666 0.0538033 0.078172
0.741985 0.10547 0.0776379
0.921019 0.203784 0.115404
1 0.316335 0.167376
1 0.428534 0.220172
1 0.534325 0.269841
0.014023 0.103975 0.0976883
0.0941482 0.102235 0.0826276
0.26038 0.0961776 0.0881056
0.469322 0.119234 0.0802472
0.682918 0.172747 0.0919966
0.874342 0.248081 0.120928
1 0.341283 0.165576
1 0.439597 0.214252
1 0.535363 0.260807
0.0725567 0.202441 0.157549
0.154086 0.19173 0.13901
0.223545 0.203845 0.129351
0.426612 0.204288 0.115297
0.64152 0.22974 0.111818
0.837049 0.283467 0.12961
0.996628 0.361135 0.166155
1 0.450065 0.210986
1 0.538888 0.254948
0.196445 0.333852 0.254749
0.246662 0.322118 0.229877
0.282551 0.324636 0.201984
0.386526 0.34078 0.195438
0.603037 0.342977 0.180194
0.802762 0.369528 0.177005
0.966705 0.423285 0.196811
1 0.49482 0.23122
1 0.569741 0.267659
0.331777 0.483314 0.373114
0.356878 0.471977 0.346593
0.380346 0.465553 0.321187
0.440574 0.472374 0.292393
0.56173 0.492576 0.279713
0.765072 0.497734 0.266835
0.936141 0.525429 0.264286
1 0.573816 0.281285
1 0.629847 0.305226
0.462181 0.636133 0.503807
0.477638 0.623743 0.477882
0.491432 0.61416 0.453696
0.517296 0.61651 0.422324
0.604395 0.622446 0.396216
0.726101 0.643854 0.377096
0.900801 0.651667 0.367361
1 0.678264 0.364553
1 0.713344 0.371221
0.591226 0.775723 0.635676
0.600015 0.76376 0.611963
0.608209 0.754009 0.589899
0.62356 0.749035 0.564874
0.658808 0.756817 0.530419
0.753902 0.762371 0.507424
0.866361 0.782055 0.48217
1 0.791424 0.474922
1 0.8094 0.465476
0.711666 0.894057 0.758541
0.715724 0.883528 0.737972
0.719921 0.874647 0.718791
0.727169 0.867643 0.698604
0.748363 0.868696 0.671016
0.801099 0.872557 0.64506
0.881895 0.882506 0.615732
0.97702 0.899367 0.588724
1 0.904921 0.578759
0.819226 0.988632 0.865934
0.820203 0.979995 0.849042
0.821805 0.972595 0.833249
0.824262 0.965866 0.817212
0.837095 0.962844 0.796582
0.857603 0.968231 0.767407
0.918288 0.967987 0.749935
0.983795 0.979309 0.717021
1 0.990662 0.688685
0.0521553 0.156863 0.164996
0.115129 0.149371 0.160433
0.249165 0.13753 0.197589
0.485328 0.135454 0.226383
0.728206 0.156588 0.221576
0.926452 0.196292 0.214862
1 0.292042 0.242557
1 0.408087 0.287205
1 0.517433 0.328908
0.0392462 0.168612 0.172305
0.108827 0.165347 0.15761
0.227878 0.157702 0.179782
0.450309 0.158923 0.199634
0.691722 0.174166 0.187427
0.886671 0.228534 0.191485
1 0.329213 0.231006
1 0.433722 0.274083
1 0.534829 0.315984
0.0884871 0.233326 0.214206
0.153582 0.224247 0.195361
0.239124 0.224475 0.17969
0.435843 0.216999 0.187549
0.639933 0.243336 0.182818
0.831525 0.2981 0.197177
0.990967 0.374792 0.228305
1 0.46096 0.26685
1 0.547112 0.304845
0.172946 0.353368 0.292332
0.227817 0.339345 0.270878
0.298329 0.328222 0.250126
0.388235 0.347921 0.241474
0.601938 0.349004 0.225391
0.798337 0.375662 0.222278
0.962005 0.42884 0.240604
1 0.499596 0.272648
1 0.573556 0.306432
0.30486 0.493523 0.401465
0.35555 0.474952 0.377096
0.386297 0.466072 0.351644
0.437354 0.476509 0.316808
0.558877 0.49366 0.310155
0.76231 0.498543 0.296498
0.93257 0.52607 0.294377
1 0.574502 0.311711
1 0.63032 0.335042
0.45948 0.635966 0.523857
0.477104 0.622934 0.497581
0.49369 0.612467 0.473365
0.526299 0.611688 0.444434
0.602243 0.621393 0.415427
0.722194 0.642634 0.398901
0.897642 0.650156 0.388876
1 0.676768 0.386908
1 0.712123 0.395026
0.588708 0.773968 0.648295
0.598672 0.7617 0.624796
0.608621 0.751675 0.603082
0.626245 0.745464 0.579217
0.657877 0.754711 0.543954
0.752132 0.759945 0.521035
0.862562 0.77998 0.499138
1 0.78938 0.492103
1 0.807416 0.483452
0.709484 0.892241 0.766903
0.714321 0.881529 0.746853
0.719234 0.872312 0.727871
0.727474 0.864744 0.708476
0.751308 0.864515 0.682765
0.797009 0.871321 0.653727
0.879454 0.879881 0.627329
0.973861 0.897032 0.601663
1 0.902922 0.592325
0.817075 0.98674 0.871397
0.818601 0.977966 0.854841
0.820798 0.970413 0.839261
0.82359 0.9635 0.823667
0.837507 0.959915 0.804013
0.860212 0.964279 0.777066
0.915343 0.96643 0.757
0.981414 0.976913 0.726268
1 0.988663 0.698787
0.115877 0.268254 0.286748
0.167712 0.26273 0.270314
0.258396 0.247379 0.303883
0.445121 0.241337 0.349813
0.68687 0.245319 0.389456
0.899397 0.286717 0.400519
1 0.337499 0.407218
1 0.394339 0.404959
1 0.491585 0.425635
0.0974136 0.265766 0.280797
0.151614 0.259586 0.264027
0.23798 0.255039 0.272114
0.410407 0.246937 0.318242
0.648112 0.253941 0.350347
0.867247 0.287266 0.355718
1 0.335592 0.358953
1 0.407996 0.36875
1 0.511971 0.401694
0.104784 0.300969 0.306676
0.16112 0.291524 0.287556
0.237018 0.290105 0.271336
0.392386 0.280858 0.299992
0.618952 0.28394 0.320668
0.838087 0.305837 0.316396
1 0.353185 0.318196
1 0.444602 0.350317
1 0.536812 0.382986
0.202686 0.388998 0.362036
0.247944 0.374853 0.339757
0.299641 0.365713 0.320623
0.407797 0.370581 0.302876
0.609216 0.366354 0.312764
0.795789 0.394354 0.31078
0.955367 0.447486 0.325841
1 0.516182 0.353155
1 0.586938 0.380911
0.288457 0.518013 0.451377
0.327367 0.501656 0.428092
0.367895 0.487907 0.407034
0.460151 0.480903 0.382712
0.561425 0.50338 0.37203
0.762493 0.507012 0.356039
0.929397 0.533791 0.353704
1 0.58146 0.369467
1 0.636484 0.390219
0.423362 0.652903 0.561608
0.454078 0.635493 0.538048
0.491737 0.618952 0.515846
0.536721 0.612787 0.487327
0.601938 0.626444 0.452064
0.720256 0.645151 0.439841
0.895506 0.65214 0.427237
1 0.678065 0.42443
1 0.7131 0.43125
0.579416 0.778027 0.675822
0.597879 0.763012 0.652049
0.609491 0.752056 0.629511
0.630106 0.74464 0.605615
0.670741 0.749203 0.573266
0.75082 0.759258 0.545632
0.859449 0.779095 0.524041
1 0.788083 0.515038
1 0.805966 0.50634
0.70779 0.891768 0.783383
0.713024 0.880705 0.762402
0.718975 0.87097 0.743114
0.728176 0.862791 0.723445
0.75465 0.861128 0.698177
0.792264 0.871229 0.664775
0.877287 0.877577 0.641321
0.970626 0.894881 0.616815
1 0.900786 0.606638
0.815045 0.985412 0.880278
0.817029 0.976577 0.86334
0.819867 0.968765 0.847745
0.822904 0.961379 0.831769
0.83772 0.957366 0.812528
0.86276 0.960525 0.786755
0.9122 0.964843 0.76405
0.979294 0.974624 0.735805
1 0.986587 0.708888
0.188952 0.394614 0.429328
0.230091 0.386419 0.411749
0.304768 0.377249 0.420279
0.433753 0.357 0.483558
0.643168 0.362722 0.524178
0.861616 0.372549 0.573281
1 0.430991 0.591821
1 0.479957 0.599878
1 0.528313 0.595193
0.168582 0.383291 0.413947
0.210864 0.374701 0.396246
0.281254 0.372717 0.386374
0.402792 0.356893 0.440238
0.604929 0.357839 0.48574
0.826276 0.370581 0.527337
1 0.421073 0.544167
1 0.469886 0.551125
1 0.518868 0.546029
0.163149 0.39852 0.422873
0.207767 0.387671 0.403388
0.268315 0.383108 0.386587
0.385016 0.377203 0.405798
0.574243 0.369802 0.454017
0.793454 0.381598 0.485939
0.979202 0.420981 0.49749
1 0.466972 0.501869
1 0.514672 0.495827
0.198779 0.456657 0.466423
0.241306 0.443229 0.44509
0.289784 0.433356 0.425498
0.393866 0.436011 0.407324
0.56437 0.425376 0.440314
0.774472 0.431434 0.458351
0.960098 0.457328 0.459037
1 0.496498 0.458061
1 0.569604 0.477531
0.332601 0.55378 0.525551
0.36376 0.537499 0.501961
0.395651 0.524208 0.481361
0.465171 0.518517 0.461707
0.580163 0.526818 0.444266
0.766232 0.526711 0.452796
0.924132 0.553948 0.451499
1 0.601282 0.465095
1 0.653162 0.48188
0.415122 0.678965 0.616907
0.441337 0.662135 0.593912
0.467521 0.647715 0.573007
0.519524 0.636683 0.551873
0.622812 0.633433 0.526131
0.723445 0.656001 0.511482
0.896101 0.661601 0.49633
1 0.686549 0.493889
1 0.720607 0.500023
0.543648 0.797848 0.717189
0.564279 0.781674 0.695338
0.585641 0.767376 0.675441
0.624506 0.753552 0.654612
0.685481 0.750423 0.625818
0.75256 0.76492 0.591882
0.858396 0.782849 0.574228
0.998901 0.790845 0.563119
1 0.808209 0.553796
0.684749 0.901228 0.814527
0.703944 0.886213 0.794415
0.719692 0.873686 0.775708
0.730282 0.864836 0.755856
0.760967 0.860822 0.731334
0.802594 0.86891 0.699489
0.877302 0.877943 0.674601
0.968292 0.895247 0.649729
1 0.900633 0.637995
0.814099 0.986374 0.900435
0.816373 0.977081 0.883238
0.819898 0.968887 0.867292
0.823896 0.961242 0.85153
0.840238 0.95613 0.832319
0.869383 0.957351 0.808316
0.909148 0.965591 0.780331
0.977798 0.973129 0.756542
1 0.985443 0.728939
0.269703 0.528008 0.579995
0.302647 0.518059 0.562203
0.366903 0.512779 0.552804
0.46894 0.49807 0.590387
0.62208 0.482856 0.655711
0.818326 0.494728 0.698024
0.998718 0.506813 0.755566
1 0.569299 0.766461
1 0.611551 0.770336
0.24802 0.511421 0.559838
0.281865 0.50135 0.541833
0.339345 0.497627 0.526375
0.437812 0.488167 0.551476
0.583719 0.469566 0.620981
0.783368 0.482002 0.659113
0.96965 0.497826 0.710277
1 0.555764 0.723323
1 0.59791 0.727291
0.2365 0.513375 0.556359
0.271458 0.501442 0.536934
0.31986 0.49453 0.519722
0.415381 0.492729 0.518318
0.553445 0.473472 0.583307
0.749996 0.479225 0.622446
0.940551 0.49604 0.665263
1 0.54699 0.679286
1 0.587594 0.682109
0.249348 0.548012 0.581582
0.284794 0.534127 0.560876
0.324926 0.523629 0.542107
0.411994 0.522759 0.524422
0.545373 0.515236 0.55172
0.728878 0.509163 0.597055
0.91722 0.524437 0.625711
1 0.563149 0.637263
1 0.599176 0.636805
0.313008 0.618631 0.633097
0.343343 0.602487 0.611078
0.374685 0.589471 0.591119
0.442786 0.582696 0.571984
0.559579 0.587564 0.552453
0.724315 0.576776 0.586465
0.905196 0.585245 0.60029
1 0.610559 0.601602
1 0.639323 0.594934
0.469993 0.711116 0.68658
0.490242 0.694697 0.664256
0.510811 0.680568 0.644388
0.55169 0.669841 0.624491
0.630503 0.667292 0.605447
0.737911 0.677409 0.589944
0.896437 0.68069 0.593744
1 0.705531 0.593545
1 0.738262 0.59823
0.544503 0.822034 0.770443
0.561212 0.806546 0.749813
0.57847 0.792981 0.730861
0.60618 0.780621 0.711879
0.671016 0.772915 0.691783
0.770275 0.772274 0.666392
0.861067 0.793118 0.6477
0.998962 0.799542 0.634089
1 0.815961 0.62652
0.660212 0.919463 0.854109
0.673609 0.905715 0.835477
0.68748 0.893385 0.818479
0.70518 0.881407 0.801083
0.754849 0.870527 0.781506
0.81883 0.869566 0.754559
0.880018 0.883284 0.724651
0.967681 0.899199 0.703334
1 0.903777 0.689525
0.784131 0.999054 0.930327
0.792996 0.987579 0.914473
0.806378 0.976547 0.899199
0.820798 0.965682 0.884199
0.842603 0.958785 0.866087
0.877211 0.95729 0.843397
0.914351 0.966308 0.814282
0.978225 0.97377 0.793011
1 0.986297 0.765988
0.357244 0.659251 0.725338
0.383078 0.648692 0.708949
0.437385 0.64358 0.693721
0.521309 0.63267 0.709087
0.63859 0.617563 0.756313
0.793561 0.61387 0.806668
0.958343 0.627222 0.851987
1 0.634134 0.907637
1 0.69099 0.90808
0.334295 0.640391 0.703304
0.360891 0.629587 0.686702
0.407523 0.623484 0.671656
0.49041 0.618402 0.673961
0.605035 0.60444 0.71812
0.758663 0.597101 0.774212
0.929625 0.610117 0.817334
1 0.622553 0.870939
1 0.676905 0.873182
0.319173 0.634424 0.693126
0.346578 0.622095 0.674769
0.385153 0.613397 0.658671
0.465995 0.613413 0.643229
0.575891 0.599527 0.681636
0.724697 0.586435 0.742718
0.900359 0.598398 0.782422
1 0.614466 0.831907
1 0.664469 0.83566
0.320897 0.652262 0.703853
0.348699 0.638376 0.684413
0.380758 0.627192 0.666835
0.452354 0.623316 0.649973
0.562295 0.62092 0.654749
0.701396 0.600244 0.722011
0.87631 0.609995 0.752712
1 0.62797 0.793271
1 0.669032 0.797589
0.353338 0.698528 0.738277
0.379538 0.683268 0.717983
0.405982 0.67013 0.699306
0.464942 0.662379 0.681315
0.566506 0.66389 0.663462
0.699596 0.654688 0.693523
0.862181 0.650629 0.73283
1 0.667018 0.758297
1 0.696193 0.760891
0.439323 0.769268 0.78706
0.459739 0.753414 0.766583
0.480583 0.739437 0.748272
0.520882 0.728481 0.729946
0.601404 0.724483 0.711772
0.715679 0.730236 0.692699
0.860365 0.720516 0.724804
1 0.730053 0.733806
1 0.746746 0.728832
0.605097 0.848081 0.829206
0.617227 0.833341 0.81001
0.630289 0.82034 0.79237
0.651301 0.808484 0.774868
0.703441 0.801144 0.756863
0.779751 0.800977 0.740017
0.871122 0.811353 0.727443
0.997162 0.816739 0.72604
1 0.83241 0.721233
0.66865 0.939757 0.900008
0.67837 0.926665 0.882856
0.689067 0.914855 0.866987
0.702815 0.903761 0.851362
0.741909 0.894453 0.834195
0.807706 0.888945 0.816388
0.894392 0.890089 0.79379
0.969573 0.90779 0.772473
1 0.910979 0.757366
0.768246 1 0.964813
0.77583 1 0.949935
0.784207 0.993591 0.936339
0.793423 0.983856 0.92253
0.819562 0.974411 0.907469
0.871641 0.96611 0.89012
0.930022 0.966476 0.866484
0.98085 0.978256 0.841672
1 0.989731 0.817197
0.448218 0.780972 0.854643
0.46836 0.77052 0.840391
0.511711 0.763684 0.826154
0.583795 0.757183 0.823224
0.677897 0.743999 0.85008
0.794354 0.729122 0.899245
0.933104 0.737041 0.932662
1 0.749584 0.973556
1 0.743343 1
0.424933 0.76202 0.834119
0.446067 0.751568 0.819471
0.482673 0.743832 0.805371
0.554086 0.741588 0.793011
0.646006 0.728923 0.818677
0.762997 0.714916 0.866682
0.904433 0.718883 0.905364
1 0.732464 0.947158
1 0.731746 0.991073
0.407446 0.751751 0.820752
0.429129 0.740001 0.804761
0.459358 0.730663 0.790234
0.524956 0.727031 0.775097
0.616785 0.718776 0.787228
0.73257 0.704829 0.832929
0.874739 0.703639 0.877165
1 0.71664 0.918334
1 0.72137 0.961715
0.402914 0.758648 0.822141
0.424567 0.745586 0.805112
0.44976 0.734462 0.789471
0.507683 0.728176 0.773449
0.600076 0.727916 0.762661
0.712306 0.71371 0.803128
0.850217 0.705242 0.853742
0.9953 0.71635 0.890684
1 0.725795 0.930282
0.418936 0.786664 0.841428
0.439948 0.772396 0.823606
0.46157 0.760113 0.80737
0.5093 0.751171 0.790463
0.594598 0.749371 0.774197
0.706004 0.745846 0.782025
0.834424 0.729015 0.839033
0.978332 0.737469 0.867613
1 0.749996 0.898451
0.468452 0.835737 0.876112
0.486702 0.820935 0.858381
0.505226 0.808087 0.841917
0.54023 0.797177 0.825254
0.612619 0.791333 0.808072
0.714916 0.793454 0.791028
0.835203 0.784009 0.820035
0.968887 0.78201 0.852262
1 0.793561 0.869825
0.568124 0.897795 0.915801
0.580987 0.883696 0.898909
0.594705 0.871168 0.883452
0.616083 0.859495 0.867704
0.66891 0.851347 0.851194
0.749386 0.84863 0.834241
0.850401 0.854292 0.817578
0.968032 0.846372 0.84593
1 0.851942 0.847303
0.72958 0.958785 0.945129
0.73637 0.946715 0.929976
0.743832 0.935729 0.915648
0.753979 0.92517 0.901656
0.78471 0.916472 0.886351
0.837003 0.911681 0.870588
0.903716 0.912856 0.857053
0.975998 0.922347 0.847181
1 0.92488 0.839185
0.781628 1 1
0.786786 1 0.987793
0.792844 1 0.975326
0.799344 1 0.96318
0.820523 0.992721 0.949722
0.862516 0.985763 0.93492
0.921492 0.981826 0.919814
0.99173 0.983993 0.901381
1 0.996323 0.878141
0.540032 0.887831 0.961898
0.555123 0.878096 0.950042
0.589502 0.870649 0.937835
0.651698 0.866712 0.924971
0.727047 0.854856 0.938521
0.820356 0.843198 0.965759
0.924788 0.82884 1
1 0.845869 1
1 0.849515 1
0.517021 0.870466 0.944366
0.533104 0.860746 0.93196
0.561913 0.852872 0.920195
0.620539 0.848463 0.907286
0.697276 0.839887 0.913039
0.791257 0.828519 0.940154
0.8981 0.814939 0.985306
1 0.828824 1
1 0.834836 1
0.498558 0.858869 0.931212
0.514931 0.847791 0.917784
0.538613 0.83888 0.905196
0.591653 0.833036 0.891722
0.6692 0.828138 0.88719
0.762249 0.816312 0.913329
0.870893 0.80267 0.958221
0.992157 0.812161 0.985504
1 0.820157 1
0.489815 0.858961 0.927535
0.506539 0.847044 0.913298
0.52575 0.836606 0.89987
0.57232 0.829343 0.885954
0.648814 0.827008 0.871412
0.7411 0.816999 0.88896
0.84863 0.803449 0.931487
0.970611 0.806409 0.964416
1 0.814878 0.996887
0.495964 0.87425 0.9364
0.511925 0.861433 0.921126
0.528969 0.850156 0.907393
0.567422 0.841093 0.892958
0.637613 0.8365 0.877852
0.731487 0.835218 0.871199
0.835889 0.821759 0.90808
0.953704 0.816938 0.947204
1 0.824338 0.976654
0.525078 0.906172 0.957946
0.539635 0.892851 0.94255
0.55465 0.880888 0.92842
0.583581 0.870588 0.914336
0.644862 0.863462 0.898665
0.732433 0.862409 0.883284
0.834897 0.858244 0.891676
0.943984 0.845411 0.937484
1 0.850797 0.960128
0.586603 0.950607 0.987091
0.598154 0.937636 0.972595
0.610651 0.925978 0.958877
0.62974 0.915175 0.945342
0.677791 0.906447 0.930373
0.752514 0.90193 0.914794
0.845212 0.904051 0.899138
0.945724 0.895674 0.924865
1 0.893248 0.948669
0.691356 0.999435 1
0.698756 0.988022 1
0.706889 0.977523 0.990143
0.717128 0.967453 0.97792
0.748837 0.958389 0.964294
0.804089 0.952041 0.94966
0.876127 0.950347 0.935729
0.958267 0.95523 0.921508
1 0.947509 0.942855
0.836118 1 1
0.840375 1 1
0.845457 1 1
0.850187 1 1
0.866072 1 0.988418
0.899794 1 0.975647
0.946349 0.999176 0.963027
0.99968 1 0.952575
1 1 0.94316
