luts/Arrakis-CLog2.cube
TITLE "Generated by Resolve"
LUT_3D_SIZE 9
0.0419165 0.0579385 0.0490272
0.109316 0.053193 0.0560311
0.273548 0.0505074 0.0439918
0.509041 0.0848096 0.0426337
0.772808 0.151614 0.0635538
0.986847 0.260578 0.116518
1 0.385229 0.18024
1 0.480354 0.228153
1 0.534874 0.255619
0.0642252 0.0961624 0.0675822
0.106905 0.0993668 0.0628977
0.244755 0.0994278 0.0535744
0.475715 0.119966 0.0459602
0.740826 0.178378 0.0633249
0.973709 0.27332 0.112993
1 0.387076 0.175219
1 0.479255 0.221958
1 0.533928 0.249973
0.133974 0.187854 0.117006
0.149874 0.190524 0.100877
0.21735 0.198978 0.0916304
0.441245 0.195407 0.0708934
0.700923 0.223239 0.0640116
0.929259 0.291188 0.0922103
1 0.386786 0.150668
1 0.476295 0.205844
1 0.531518 0.235065
0.245487 0.339696 0.22356
0.257313 0.337545 0.209216
0.288029 0.337987 0.187747
0.400076 0.353262 0.170291
0.656596 0.352544 0.148058
0.886107 0.38439 0.143877
1 0.440467 0.166094
1 0.489113 0.190448
1 0.529061 0.219181
0.391653 0.522667 0.368841
0.398108 0.51902 0.357153
0.408194 0.516243 0.33608
0.473136 0.517601 0.309178
0.610162 0.538567 0.281682
0.841398 0.542824 0.263813
1 0.570367 0.258442
1 0.600168 0.263096
1 0.616617 0.265217
0.545403 0.697383 0.524285
0.547845 0.694438 0.51635
0.553017 0.690074 0.501534
0.570291 0.693874 0.470344
0.665965 0.695171 0.443641
0.798596 0.717128 0.409766
0.970428 0.723735 0.397406
1 0.738857 0.386465
1 0.748165 0.379858
0.679698 0.834989 0.660563
0.680354 0.833509 0.656596
0.683513 0.830716 0.647395
0.695369 0.829908 0.62742
0.735622 0.833906 0.597436
0.829618 0.840269 0.566873
0.937194 0.858717 0.532784
1 0.862989 0.524544
1 0.866423 0.513222
0.776959 0.925689 0.759365
0.777859 0.925032 0.756985
0.780453 0.923934 0.751583
0.788327 0.923064 0.738399
0.804364 0.927901 0.711269
0.87216 0.92668 0.691737
0.947021 0.939605 0.654322
1 0.951293 0.629145
1 0.950469 0.623255
0.826276 0.966995 0.80528
0.827115 0.966644 0.8038
0.829236 0.96611 0.799634
0.835645 0.965698 0.789914
0.848676 0.968765 0.769162
0.897078 0.969177 0.749508
0.962661 0.975631 0.722896
1 0.991882 0.682765
1 0.992401 0.678599
0.0493935 0.092958 0.0886854
0.0987106 0.0894636 0.0939193
0.251057 0.0821546 0.115175
0.514473 0.0846265 0.099382
0.781643 0.134081 0.1019
0.989807 0.248432 0.15108
1 0.375036 0.209003
1 0.472999 0.254475
1 0.530709 0.281254
0.061326 0.114244 0.099443
0.108415 0.114183 0.0916762
0.246387 0.107103 0.100877
0.48043 0.121157 0.0881056
0.742885 0.178195 0.101808
0.97731 0.262943 0.145159
1 0.376867 0.203677
1 0.474556 0.249531
1 0.532036 0.277028
0.124575 0.192432 0.140337
0.162631 0.188907 0.127764
0.218708 0.200534 0.120821
0.439704 0.198825 0.103899
0.69778 0.229023 0.101289
0.926909 0.298024 0.130236
1 0.393835 0.187045
1 0.478614 0.237491
1 0.535653 0.265721
0.244358 0.339101 0.223743
0.256519 0.336858 0.209171
0.286778 0.337102 0.187228
0.399496 0.35227 0.169879
0.656611 0.35169 0.147509
0.886275 0.383688 0.14342
1 0.439902 0.165743
1 0.488716 0.19028
1 0.529107 0.219486
0.391058 0.522515 0.3691
0.397604 0.518746 0.357214
0.407706 0.515862 0.335988
0.472587 0.51722 0.308949
0.61001 0.538262 0.281529
0.841382 0.542458 0.263539
1 0.570062 0.258183
1 0.599893 0.262898
1 0.616358 0.265034
0.545159 0.697383 0.524498
0.547646 0.694408 0.516487
0.552804 0.689967 0.501595
0.570108 0.693706 0.470359
0.665766 0.695018 0.443565
0.79852 0.716991 0.409659
0.970428 0.723613 0.397284
1 0.73875 0.386358
1 0.748058 0.379751
0.679637 0.835004 0.660685
0.680308 0.833539 0.656687
0.683406 0.830686 0.647471
0.695262 0.829862 0.627451
0.735485 0.83386 0.597406
0.829557 0.840208 0.566842
0.937163 0.858671 0.532738
1 0.862943 0.524514
1 0.866392 0.513176
0.776898 0.925704 0.759426
0.777813 0.925048 0.757046
0.780392 0.923934 0.751644
0.788281 0.923033 0.738445
0.804303 0.927871 0.711284
0.872099 0.926665 0.691722
0.947005 0.93959 0.654307
1 0.951263 0.629114
1 0.950454 0.623224
0.826246 0.96701 0.805341
0.827085 0.966659 0.803861
0.829206 0.966125 0.799695
0.835615 0.965682 0.78996
0.848661 0.96875 0.769192
0.897032 0.969177 0.749508
0.962646 0.975616 0.722911
1 0.991882 0.682765
1 0.992401 0.678599
0.0828107 0.168704 0.171206
0.120851 0.1673 0.165347
0.224445 0.154147 0.202594
0.477455 0.1514 0.235203
0.773327 0.176104 0.238941
0.996292 0.231556 0.237873
1 0.353231 0.279637
1 0.454368 0.318273
1 0.514015 0.341085
0.0769818 0.173907 0.172747
0.115816 0.172549 0.164446
0.214343 0.163195 0.187915
0.456611 0.16321 0.2112
0.750896 0.181827 0.205997
0.99057 0.233051 0.223575
1 0.354589 0.275334
1 0.455558 0.314122
1 0.515053 0.337438
0.121706 0.22182 0.197559
0.156008 0.217365 0.187823
0.230777 0.21735 0.173709
0.447501 0.206912 0.179583
0.698924 0.236271 0.176135
0.928496 0.300359 0.201068
1 0.379461 0.254963
1 0.458686 0.303639
1 0.517891 0.327245
0.228916 0.344686 0.265949
0.262226 0.336599 0.253483
0.298924 0.334951 0.231022
0.395422 0.353552 0.218418
0.652064 0.353643 0.19855
0.880278 0.387213 0.199344
1 0.445335 0.225605
1 0.496651 0.254353
1 0.54049 0.290578
0.389349 0.522042 0.369726
0.396307 0.518029 0.357397
0.406546 0.514824 0.335851
0.471153 0.516228 0.308339
0.609506 0.537362 0.28101
0.841535 0.54168 0.263096
1 0.569238 0.257542
1 0.599161 0.262333
1 0.615702 0.264546
0.544533 0.697383 0.525093
0.547097 0.694316 0.516854
0.552254 0.689693 0.501747
0.569619 0.693233 0.47039
0.665278 0.694636 0.44332
0.798352 0.716625 0.409384
0.970428 0.723278 0.396963
1 0.73846 0.386023
1 0.747784 0.379477
0.679469 0.83505 0.661006
0.680125 0.833555 0.656947
0.683146 0.830625 0.647669
0.694987 0.829709 0.627558
0.735103 0.833753 0.597314
0.829374 0.840085 0.566735
0.937102 0.858549 0.532631
1 0.862821 0.524422
1 0.86627 0.513039
0.776776 0.925719 0.759625
0.777676 0.925063 0.757229
0.780224 0.923919 0.751797
0.788113 0.922988 0.738552
0.804181 0.927794 0.71133
0.871977 0.926604 0.691691
0.946944 0.939529 0.654261
1 0.951217 0.629068
1 0.950408 0.623163
0.826169 0.967041 0.805524
0.826993 0.96669 0.803998
0.829114 0.96614 0.799847
0.835538 0.965682 0.790097
0.848615 0.968734 0.769299
0.896941 0.969177 0.749523
0.962615 0.975616 0.722927
1 0.991882 0.682795
1 0.992401 0.678599
0.14522 0.294957 0.313527
0.174456 0.291524 0.303609
0.250111 0.281621 0.320363
0.439063 0.270726 0.380636
0.728405 0.274174 0.433738
0.968963 0.331243 0.45037
1 0.390249 0.457557
1 0.440162 0.453544
1 0.483452 0.456458
0.132448 0.288396 0.304067
0.163012 0.284947 0.294682
0.235706 0.280949 0.297108
0.416098 0.269535 0.356512
0.711223 0.275776 0.411093
0.969848 0.329519 0.446891
1 0.388571 0.453727
1 0.438651 0.449561
1 0.484016 0.454185
0.129961 0.305104 0.312642
0.161929 0.299992 0.301656
0.226444 0.297307 0.286503
0.390677 0.285206 0.324132
0.669779 0.288609 0.356603
0.929549 0.322255 0.370977
1 0.382101 0.422827
1 0.43476 0.439261
1 0.485618 0.448188
0.230091 0.388525 0.356573
0.255055 0.380713 0.343908
0.297627 0.371496 0.326635
0.412589 0.375051 0.306859
0.657374 0.36875 0.313558
0.878477 0.401221 0.315251
1 0.452049 0.339422
1 0.487205 0.368185
1 0.5037 0.414954
0.361151 0.53228 0.439139
0.382162 0.523735 0.427436
0.417929 0.511574 0.408621
0.475471 0.514961 0.373754
0.600824 0.536873 0.355734
0.834089 0.540612 0.336889
1 0.568933 0.335698
1 0.600565 0.345495
1 0.618799 0.352422
0.542718 0.697475 0.526848
0.545586 0.694087 0.517968
0.550729 0.689006 0.502174
0.568505 0.691905 0.470405
0.663935 0.693584 0.442557
0.798077 0.715785 0.408774
0.970413 0.722362 0.396109
1 0.737697 0.385061
1 0.747005 0.378698
0.678965 0.835187 0.661982
0.679698 0.833631 0.657679
0.682399 0.830503 0.648203
0.694224 0.829313 0.627848
0.733989 0.833509 0.597009
0.828901 0.839704 0.566445
0.936934 0.858213 0.532311
1 0.862516 0.524147
1 0.86598 0.512673
0.776425 0.925811 0.760159
0.777295 0.925109 0.757733
0.779767 0.923888 0.752194
0.787732 0.92282 0.738827
0.80383 0.927565 0.711437
0.871611 0.926452 0.691585
0.946761 0.939376 0.654124
1 0.95108 0.628916
1 0.950271 0.622995
0.82594 0.967132 0.806012
0.826764 0.966781 0.804364
0.828901 0.966171 0.800275
0.835309 0.965667 0.790448
0.848478 0.968673 0.769589
0.896681 0.969192 0.749584
0.962509 0.975586 0.723003
1 0.991867 0.682841
1 0.992401 0.678599
0.22591 0.456474 0.499367
0.242512 0.451728 0.490562
0.304524 0.445167 0.472526
0.436393 0.425208 0.524788
0.670497 0.423606 0.590616
0.924071 0.431769 0.660151
1 0.501167 0.677729
1 0.542382 0.68368
1 0.566934 0.681941
0.224063 0.454795 0.497124
0.241703 0.450019 0.488457
0.304341 0.443976 0.471397
0.436454 0.424094 0.524117
0.670924 0.422644 0.589731
0.924239 0.431449 0.658732
1 0.500496 0.676509
1 0.541711 0.682368
1 0.566293 0.680598
0.195621 0.438911 0.474983
0.216266 0.433127 0.464714
0.269566 0.424536 0.44506
0.394903 0.416297 0.465919
0.622766 0.409277 0.537728
0.895796 0.425467 0.61355
1 0.49868 0.673518
1 0.53994 0.679179
1 0.564599 0.677302
0.210361 0.48394 0.505211
0.235142 0.474907 0.491295
0.279622 0.461936 0.469459
0.389334 0.461036 0.446754
0.591989 0.446448 0.494392
0.845258 0.452873 0.528908
1 0.484871 0.550454
1 0.516136 0.585931
1 0.559853 0.667491
0.374548 0.587808 0.557046
0.391745 0.577539 0.542458
0.418219 0.563592 0.522118
0.484291 0.55375 0.498405
0.616648 0.561135 0.476555
0.836027 0.560571 0.481682
0.998871 0.586908 0.484001
1 0.613687 0.494652
1 0.624826 0.502068
0.50135 0.716213 0.628656
0.513085 0.709407 0.61941
0.531533 0.698375 0.603998
0.588922 0.68397 0.580423
0.66215 0.693675 0.539117
0.786389 0.714427 0.516686
0.961089 0.71957 0.50106
1 0.734707 0.493599
1 0.74493 0.491478
0.677226 0.835798 0.664866
0.678325 0.833967 0.659892
0.680476 0.830243 0.649729
0.69218 0.828244 0.628687
0.731197 0.832746 0.596139
0.827436 0.838773 0.565515
0.936461 0.857298 0.531441
1 0.861692 0.52314
1 0.865187 0.511666
0.775601 0.926116 0.761639
0.776287 0.925277 0.759091
0.778683 0.923812 0.753277
0.786709 0.922377 0.739574
0.803067 0.926909 0.711772
0.87071 0.926024 0.69131
0.946288 0.938979 0.653742
1 0.950713 0.628489
1 0.949935 0.622538
0.82536 0.967437 0.80737
0.826154 0.967041 0.805554
0.828382 0.966278 0.801419
0.834684 0.965652 0.791424
0.848112 0.968536 0.770245
0.895964 0.969207 0.749752
0.962249 0.975509 0.723186
1 0.991806 0.682979
1 0.992401 0.678599
0.328298 0.617487 0.679805
0.328298 0.617487 0.679805
0.35285 0.607858 0.664286
0.471351 0.594293 0.659602
0.645685 0.570062 0.735775
0.868559 0.583932 0.788052
1 0.581796 0.863661
1 0.642832 0.865522
1 0.667018 0.867124
0.328084 0.61709 0.679347
0.328084 0.61709 0.679347
0.353002 0.607355 0.663661
0.471458 0.593851 0.659312
0.645777 0.569604 0.735607
0.868711 0.583566 0.787854
1 0.58175 0.863188
1 0.642618 0.865125
1 0.666789 0.866758
0.32752 0.616053 0.678218
0.32752 0.616053 0.678203
0.353429 0.606119 0.662074
0.471733 0.592691 0.658732
0.645899 0.568475 0.735073
0.869108 0.582605 0.787335
1 0.581598 0.862043
1 0.642069 0.864073
1 0.666178 0.865904
0.288167 0.599283 0.649531
0.288151 0.599222 0.649485
0.319219 0.585901 0.629816
0.41149 0.574563 0.600565
0.57496 0.560952 0.639109
0.797406 0.557366 0.705104
1 0.564324 0.782696
1 0.635584 0.847684
1 0.6645 0.863035
0.340597 0.672206 0.700603
0.340536 0.672145 0.700557
0.374075 0.653284 0.675227
0.438758 0.635752 0.645319
0.580957 0.63743 0.618662
0.775051 0.622263 0.665797
0.965331 0.627482 0.693675
1 0.646036 0.705867
1 0.653315 0.714778
0.533089 0.774136 0.750835
0.538872 0.768063 0.742809
0.559518 0.749874 0.717952
0.592218 0.733745 0.693538
0.677424 0.727108 0.668803
0.797986 0.737072 0.650111
0.960632 0.739223 0.650401
1 0.753246 0.6486
1 0.761593 0.647913
0.62858 0.865248 0.797208
0.634302 0.860197 0.790188
0.644648 0.851896 0.778546
0.66949 0.840177 0.760937
0.742824 0.829267 0.737377
0.82417 0.839506 0.698238
0.923629 0.856153 0.675868
1 0.859236 0.663722
1 0.862287 0.654139
0.773144 0.920958 0.796399
0.773907 0.919478 0.793637
0.776059 0.916564 0.787243
0.78584 0.91284 0.773739
0.810803 0.912993 0.750301
0.857328 0.920913 0.718914
0.93756 0.930297 0.689738
1 0.943038 0.666804
1 0.942626 0.660975
0.824033 0.968399 0.811032
0.824704 0.967849 0.809064
0.826749 0.966796 0.80441
0.832959 0.965698 0.793927
0.84715 0.968185 0.772198
0.894133 0.969253 0.750164
0.96144 0.975326 0.723613
1 0.991669 0.683345
1 0.992401 0.678599
0.428809 0.756374 0.828885
0.428809 0.756374 0.828885
0.428824 0.756374 0.828885
0.491081 0.739574 0.800992
0.658183 0.71986 0.826505
0.837766 0.701747 0.899458
1 0.723995 0.936095
1 0.715511 0.988815
1 0.736614 0.995499
0.428733 0.756268 0.828763
0.428733 0.756268 0.828763
0.428733 0.756268 0.828763
0.491325 0.739406 0.800748
0.658244 0.719692 0.826444
0.837842 0.70164 0.899336
1 0.723873 0.935988
1 0.715328 0.988785
1 0.736553 0.995377
0.428473 0.755917 0.828412
0.428473 0.755917 0.828412
0.428473 0.755917 0.828412
0.491936 0.738964 0.800137
0.658396 0.719265 0.826261
0.838041 0.70135 0.899001
1 0.723552 0.935744
1 0.714839 0.988678
1 0.736431 0.995026
0.42118 0.749371 0.821363
0.4215 0.749584 0.821653
0.422293 0.750118 0.822385
0.488777 0.734646 0.795163
0.658793 0.718074 0.825879
0.838544 0.700542 0.8981
1 0.722591 0.935134
1 0.713512 0.988418
1 0.736065 0.994079
0.393942 0.754711 0.809323
0.393927 0.754681 0.809293
0.393851 0.754559 0.809216
0.442435 0.726818 0.772381
0.578897 0.718807 0.740917
0.74612 0.702266 0.786023
0.922469 0.700313 0.833463
1 0.6869 0.893446
1 0.713924 0.902449
0.48658 0.836133 0.863462
0.486549 0.836118 0.863462
0.486473 0.836072 0.863432
0.527016 0.804074 0.823651
0.621515 0.789441 0.793545
0.762234 0.792737 0.768383
0.912871 0.780346 0.806668
1 0.78088 0.826368
1 0.787167 0.825147
0.677607 0.912123 0.894987
0.677577 0.912123 0.894972
0.684947 0.900557 0.880537
0.703456 0.878904 0.85185
0.754986 0.866194 0.827802
0.839933 0.86392 0.807263
0.930602 0.873701 0.793942
1 0.875181 0.790005
1 0.877806 0.78439
0.726635 0.968902 0.923827
0.730037 0.964584 0.918044
0.736217 0.957595 0.908553
0.748211 0.947723 0.894682
0.79028 0.937484 0.876127
0.866209 0.930587 0.855055
0.94313 0.938659 0.825193
1 0.950607 0.80763
1 0.94902 0.798566
0.791455 0.984878 0.919829
0.792889 0.983261 0.917769
0.796277 0.979812 0.912947
0.808911 0.973831 0.903685
0.848081 0.96492 0.887846
0.904982 0.961975 0.863478
0.950362 0.974823 0.832197
1 0.983688 0.813184
1 0.988434 0.801785
0.510887 0.85539 0.930083
0.510887 0.85539 0.930083
0.510887 0.85539 0.930083
0.510887 0.85539 0.930098
0.662791 0.827893 0.899825
0.831128 0.806256 0.952743
0.98146 0.808576 0.996109
1 0.821118 1
1 0.816358 1
0.510826 0.855314 0.930022
0.510826 0.855314 0.930022
0.510826 0.855314 0.930022
0.510826 0.855314 0.930022
0.662898 0.827802 0.899779
0.831159 0.80618 0.952728
0.981491 0.80853 0.996063
1 0.821057 1
1 0.816281 1
0.510674 0.855146 0.929854
0.510674 0.855146 0.929854
0.510674 0.855146 0.929854
0.510674 0.855146 0.929854
0.663142 0.827573 0.899702
0.831281 0.805997 0.952697
0.981567 0.808392 0.995956
1 0.820905 1
1 0.816098 1
0.510277 0.854688 0.929397
0.510277 0.854688 0.929397
0.510277 0.854688 0.929397
0.510277 0.854688 0.929397
0.663874 0.826993 0.899519
0.831601 0.805539 0.952667
0.98175 0.808042 0.995666
1 0.820462 1
1 0.815595 1
0.460655 0.824018 0.893126
0.460655 0.824002 0.893126
0.460685 0.823972 0.893126
0.460761 0.82388 0.893111
0.592737 0.793988 0.842451
0.760647 0.776989 0.880491
0.925002 0.77055 0.943114
1 0.798993 0.995163
1 0.814282 1
0.507698 0.884978 0.931991
0.507683 0.884962 0.931975
0.507622 0.884916 0.931945
0.507485 0.884794 0.931853
0.601877 0.842863 0.876204
0.748348 0.840574 0.848905
0.885954 0.824826 0.890227
0.999619 0.824262 0.915358
1 0.815824 0.941985
0.627237 0.953368 0.972412
0.627222 0.953368 0.972412
0.627161 0.953353 0.972396
0.634073 0.943786 0.96144
0.690654 0.910887 0.918822
0.793805 0.902998 0.894423
0.904143 0.90753 0.874968
0.999817 0.899062 0.900542
1 0.893736 0.911269
0.78233 0.99884 0.986282
0.78233 0.99884 0.986282
0.7823 0.998825 0.986267
0.793286 0.976287 0.95787
0.821241 0.960006 0.934234
0.883909 0.95259 0.913893
0.954345 0.954223 0.89955
1 0.961746 0.891722
1 0.959945 0.884901
0.792889 1 1
0.79382 1 1
0.800381 1 0.990158
0.807721 1 0.974227
0.833875 0.99556 0.95758
0.889387 0.988281 0.939803
0.957946 0.986648 0.924285
1 0.993255 0.906188
1 0.998444 0.89453
0.540032 0.887831 0.961898
0.540032 0.887831 0.961898
0.540032 0.887831 0.961898
0.540032 0.887831 0.961898
0.623484 0.867872 0.930312
0.82211 0.842985 0.966384
0.970779 0.833951 1
1 0.84976 1
1 0.849729 1
0.540032 0.887831 0.961898
0.540032 0.887831 0.961898
0.540032 0.887831 0.961898
0.540032 0.887831 0.961898
0.623697 0.867872 0.930282
0.822156 0.842985 0.9664
0.970794 0.833967 1
1 0.84976 1
1 0.849729 1
0.540032 0.887831 0.961898
0.540032 0.887831 0.961898
0.540032 0.887831 0.961898
0.540032 0.887831 0.961898
0.624247 0.867842 0.930159
0.822278 0.842969 0.966445
0.970825 0.833982 1
1 0.84976 1
1 0.849729 1
0.540032 0.887831 0.961898
0.540032 0.887831 0.961898
0.540032 0.887831 0.961898
0.540032 0.887831 0.961898
0.625757 0.86775 0.929854
0.822644 0.842939 0.966567
0.970947 0.834012 1
1 0.84976 1
1 0.849729 1
0.540032 0.887831 0.961898
0.540032 0.887831 0.961898
0.540032 0.887831 0.961898
0.540032 0.887831 0.961898
0.629496 0.867582 0.929091
0.82359 0.842817 0.966918
0.971252 0.834104 1
1 0.849775 1
1 0.849729 1
0.516609 0.898314 0.952667
0.516609 0.898299 0.952651
0.516548 0.898253 0.952621
0.516426 0.898131 0.952544
0.569986 0.864057 0.910933
0.736171 0.855131 0.876173
0.877607 0.839185 0.915038
0.990707 0.836408 0.946548
1 0.835019 0.96759
0.620264 0.969009 0.998444
0.620249 0.969009 0.998444
0.620203 0.968978 0.998428
0.620111 0.968933 0.998398
0.659434 0.933211 0.956512
0.775113 0.918975 0.925933
0.892805 0.921813 0.905333
0.986023 0.910369 0.936873
1 0.908141 0.945693
0.746303 1 1
0.746303 1 1
0.746273 1 1
0.746227 1 1
0.773632 0.983795 0.982834
0.847135 0.971633 0.959213
0.928923 0.970321 0.942611
0.998306 0.975769 0.930022
1 0.969039 0.942153
0.836149 1 1
0.836149 1 1
0.836149 1 1
0.840757 1 1
0.860639 1 0.991348
0.911665 1 0.972045
0.972045 0.999344 0.957717
1 1 0.948669
1 1 0.94316
