luts/Arrakis-SLog2.cube
TITLE "Generated by Resolve"
LUT_3D_SIZE 5
0 0.0122377 0.0149538
0.366506 0.0172274 0
0.810544 0.161837 0.0394751
1 0.359091 0.14081
1 0.530694 0.228733
0.13196 0.228016 0.1579
0.268513 0.237949 0.109026
0.716365 0.26656 0.0848707
1 0.39733 0.142458
1 0.54049 0.217014
0.384833 0.546044 0.405951
0.421836 0.529442 0.341176
0.632929 0.554131 0.292195
0.974411 0.585779 0.27631
1 0.660777 0.299962
0.634379 0.820233 0.668101
0.646922 0.797253 0.616236
0.71902 0.798062 0.558297
0.91043 0.826032 0.502388
1 0.844251 0.486107
0.82092 0.990417 0.860609
0.822568 0.97261 0.822049
0.843366 0.966934 0.778393
0.942901 0.972061 0.733501
1 0.992401 0.678599
0.0693065 0.188418 0.198672
0.30576 0.166613 0.239902
0.804364 0.19646 0.272038
1 0.322606 0.28748
1 0.510536 0.353887
0.120928 0.27808 0.255848
0.28806 0.26627 0.214115
0.708003 0.290684 0.219532
1 0.419944 0.265919
1 0.55584 0.324437
0.354269 0.555901 0.460441
0.439994 0.52433 0.402579
0.625391 0.554742 0.355901
0.967178 0.585138 0.33994
1 0.660792 0.365469
0.629847 0.815961 0.694255
0.648905 0.79115 0.644327
0.708247 0.796979 0.582055
0.902342 0.821103 0.538231
1 0.839399 0.523293
0.816327 0.986175 0.873106
0.82121 0.967742 0.836683
0.846448 0.959396 0.796826
0.937179 0.96759 0.752056
1 0.988037 0.701885
0.220127 0.447318 0.488991
0.357382 0.426474 0.48278
0.716762 0.41471 0.595132
1 0.484474 0.663767
1 0.560754 0.669108
0.193423 0.452842 0.482155
0.313069 0.434073 0.439185
0.639399 0.420493 0.513146
1 0.473014 0.5579
1 0.544671 0.558541
0.386694 0.618235 0.590921
0.452308 0.584222 0.540841
0.645563 0.588296 0.50277
0.958724 0.613947 0.508141
1 0.685222 0.526864
0.582528 0.842939 0.768734
0.624125 0.809781 0.723201
0.736828 0.793545 0.672374
0.898482 0.824948 0.622599
1 0.841215 0.602838
0.806027 0.989837 0.911559
0.821042 0.967483 0.874144
0.852689 0.955825 0.835309
0.932906 0.966644 0.78645
1 0.985504 0.741604
0.387518 0.701595 0.770901
0.483955 0.684611 0.735607
0.701442 0.654856 0.811505
0.996796 0.670115 0.896895
1 0.713466 0.946777
0.346197 0.676188 0.737591
0.422705 0.652171 0.698558
0.631128 0.63679 0.728588
0.935805 0.638209 0.822019
1 0.686778 0.870069
0.395041 0.750484 0.790066
0.451331 0.718441 0.746853
0.626032 0.712551 0.7093
0.900603 0.699992 0.774578
1 0.73228 0.79678
0.648356 0.888502 0.87129
0.672648 0.858381 0.831968
0.754833 0.840604 0.796338
0.909575 0.851331 0.76997
1 0.864302 0.761898
0.768093 1 0.977218
0.784817 0.996475 0.945556
0.83212 0.977371 0.915328
0.94992 0.971359 0.876707
1 0.991547 0.836942
0.540032 0.887831 0.961898
0.605432 0.869062 0.934157
0.762188 0.850202 0.947387
0.964538 0.832944 1
1 0.849515 1
0.494621 0.857466 0.928939
0.545327 0.834516 0.898268
0.696925 0.822049 0.888334
0.90248 0.795544 0.968994
1 0.817273 1
0.50428 0.88513 0.943587
0.542779 0.857176 0.910094
0.67219 0.844633 0.878599
0.871046 0.829175 0.91754
1 0.832914 0.969772
0.616678 0.967208 0.997391
0.641505 0.939849 0.966155
0.721477 0.920729 0.93611
0.884108 0.920577 0.906279
1 0.910521 0.945968
0.836118 1 1
0.846952 1 1
0.877546 1 0.983383
0.963897 0.999084 0.959304
1 1 0.94316
