luts/Arrakis-CLog3.cube
TITLE "Generated by Resolve"
LUT_3D_SIZE 5
0 0.0122377 0.0149538
0.370535 0.0180514 0
0.841169 0.176761 0.0466316
1 0.375998 0.149477
1 0.530694 0.228733
0.145953 0.245884 0.170565
0.277577 0.252171 0.11548
0.750286 0.273472 0.0861982
1 0.389075 0.140032
1 0.530694 0.228733
0.417395 0.58439 0.439796
0.453666 0.565866 0.369055
0.664073 0.588937 0.315465
0.992218 0.609491 0.292683
1 0.651377 0.292363
0.664088 0.846922 0.694881
0.679637 0.822934 0.634012
0.756771 0.825772 0.584466
0.93051 0.851728 0.526192
1 0.860151 0.50547
0.823255 0.969497 0.814099
0.830945 0.96585 0.796918
0.85301 0.971252 0.760708
0.958953 0.974823 0.724926
1 0.992401 0.678599
0.0915541 0.225895 0.239963
0.290196 0.200137 0.280308
0.823835 0.234195 0.333165
1 0.335866 0.336233
1 0.501305 0.388434
0.124453 0.279484 0.255665
0.286168 0.264652 0.212772
0.747448 0.283375 0.2168
1 0.390219 0.270634
1 0.510201 0.355108
0.414908 0.58143 0.437171
0.450278 0.562814 0.368978
0.662501 0.585946 0.313512
0.992279 0.607019 0.290318
1 0.649317 0.290608
0.662654 0.848066 0.69781
0.678706 0.822507 0.634592
0.755566 0.825254 0.584115
0.930312 0.851286 0.525765
1 0.859709 0.504921
0.823133 0.969802 0.814969
0.830579 0.965896 0.797467
0.852857 0.97113 0.76109
0.958785 0.974792 0.725032
1 0.992401 0.678599
0.254124 0.502785 0.551629
0.352575 0.487846 0.527153
0.725536 0.469306 0.648127
1 0.527565 0.731517
1 0.59588 0.740795
0.217777 0.48188 0.521172
0.309285 0.464042 0.484443
0.66836 0.447776 0.579385
1 0.516381 0.700038
1 0.591196 0.731579
0.411948 0.643244 0.615152
0.466072 0.609384 0.567269
0.667887 0.609567 0.523293
0.979782 0.624872 0.526345
1 0.661784 0.539193
0.655833 0.842313 0.727153
0.677684 0.814282 0.669841
0.739895 0.821836 0.610452
0.920195 0.843824 0.564401
1 0.85272 0.545007
0.822843 0.970977 0.81796
0.829374 0.966079 0.799405
0.852247 0.970779 0.762081
0.958251 0.974716 0.725399
1 0.992401 0.678599
0.42359 0.749538 0.821851
0.42359 0.749538 0.821851
0.702922 0.707195 0.840055
0.998489 0.717189 0.929137
1 0.734218 0.989532
0.422385 0.747982 0.820081
0.4224 0.747982 0.820081
0.703532 0.705425 0.839368
0.999054 0.71577 0.928359
1 0.733654 0.988159
0.406317 0.769696 0.817395
0.406317 0.769039 0.816617
0.62446 0.731075 0.739834
0.908248 0.713451 0.813916
1 0.726406 0.86508
0.669993 0.905272 0.8878
0.685069 0.884367 0.861067
0.771145 0.85745 0.813962
0.924132 0.866819 0.786572
1 0.871656 0.776974
0.783688 0.993774 0.930449
0.802121 0.975387 0.904387
0.868482 0.960082 0.875364
0.946303 0.973587 0.826551
1 0.987869 0.793759
0.540032 0.887831 0.961898
0.540032 0.887831 0.961898
0.685679 0.861158 0.929915
0.962524 0.832578 1
1 0.849729 1
0.540032 0.887831 0.961898
0.540032 0.887831 0.961898
0.68687 0.86096 0.930083
0.962737 0.832624 1
1 0.849729 1
0.497459 0.858396 0.930541
0.498009 0.858625 0.930877
0.636118 0.833341 0.885451
0.936202 0.814298 0.995895
1 0.849714 1
0.612955 0.965286 0.996307
0.612802 0.965209 0.996262
0.680674 0.923156 0.944472
0.884459 0.917784 0.9037
1 0.90396 0.946273
0.836149 1 1
0.836149 1 1
0.87158 1 0.98587
0.968521 0.999207 0.958404
1 1 0.94316
