luts/Arrakis-CLog3.cube
TITLE "Generated by Resolve"
LUT_3D_SIZE 9
0 0.0122377 0.0149538
0.0623178 0.0081178 0.0196231
0.370535 0.0180514 0
0.629313 0.0877394 0.00939956
0.841169 0.176761 0.0466316
1 0.276097 0.0969406
1 0.375998 0.149477
1 0.463722 0.194766
1 0.530694 0.228733
0.00820935 0.0735027 0.0533913
0.0692454 0.0698863 0.035523
0.331762 0.0791791 0.0159609
0.595346 0.120226 0.0182956
0.822873 0.186526 0.0462043
1 0.27628 0.0970474
1 0.376074 0.149523
1 0.463767 0.194797
1 0.530694 0.228733
0.145953 0.245884 0.170565
0.178973 0.239582 0.144259
0.277577 0.252171 0.11548
0.526589 0.249256 0.0933089
0.750286 0.273472 0.0861982
0.931945 0.32369 0.10454
1 0.389075 0.140032
1 0.463859 0.191485
1 0.530694 0.228733
0.281758 0.419486 0.300862
0.30547 0.409216 0.272023
0.354223 0.407156 0.233448
0.481498 0.425071 0.211307
0.70396 0.424811 0.193744
0.888457 0.445426 0.184375
1 0.483238 0.194629
1 0.521111 0.208927
1 0.547494 0.220111
0.417395 0.58439 0.439796
0.43563 0.570169 0.405951
0.453666 0.565866 0.369055
0.539712 0.568109 0.340352
0.664073 0.588937 0.315465
0.848966 0.591485 0.302159
0.992218 0.609491 0.292683
1 0.633616 0.292439
1 0.651377 0.292363
0.547356 0.729915 0.576196
0.560891 0.71194 0.535882
0.571939 0.705638 0.509392
0.608042 0.709957 0.47631
0.701518 0.714611 0.452033
0.815106 0.733455 0.422751
0.958129 0.737835 0.413291
1 0.750652 0.401633
1 0.761135 0.39295
0.664088 0.846922 0.694881
0.673014 0.82742 0.651591
0.679637 0.822934 0.634012
0.6963 0.825498 0.606012
0.756771 0.825772 0.584466
0.835813 0.836423 0.554253
0.93051 0.851728 0.526192
1 0.855863 0.51899
1 0.860151 0.50547
0.762844 0.92163 0.763272
0.765286 0.91487 0.746365
0.770413 0.912428 0.734905
0.782559 0.91281 0.716258
0.807843 0.917693 0.68983
0.874296 0.916594 0.674083
0.938903 0.929473 0.63978
1 0.940627 0.617227
1 0.940322 0.609766
0.823255 0.969497 0.814099
0.826627 0.966842 0.804593
0.830945 0.96585 0.796918
0.839902 0.966171 0.783642
0.85301 0.971252 0.760708
0.903914 0.969131 0.747906
0.958953 0.974823 0.724926
1 0.989273 0.688991
1 0.992401 0.678599
0.020798 0.0872358 0.0929122
0.0584421 0.0832074 0.0888991
0.338918 0.0696727 0.128389
0.632868 0.0813001 0.105928
0.848722 0.150942 0.114992
1 0.260151 0.160128
1 0.367102 0.208743
1 0.460044 0.251392
1 0.530053 0.283513
0.0052491 0.0755627 0.0721141
0.0578012 0.0718547 0.0594034
0.337972 0.0699168 0.0543526
0.602747 0.114336 0.0582132
0.830945 0.179812 0.0827649
1 0.271199 0.129061
1 0.376486 0.18175
1 0.467704 0.227359
1 0.535821 0.261631
0.140139 0.238712 0.165759
0.170809 0.232441 0.142626
0.272145 0.244648 0.112886
0.525673 0.242008 0.0893111
0.751339 0.268101 0.0839094
0.93344 0.319738 0.1037
1 0.387106 0.141482
1 0.464332 0.196231
1 0.531258 0.23299
0.279347 0.416388 0.298482
0.300938 0.40647 0.272053
0.349966 0.404089 0.231662
0.479545 0.421744 0.209598
0.703655 0.421439 0.191333
0.888731 0.442496 0.182498
1 0.480888 0.192782
1 0.519036 0.207614
1 0.545922 0.219379
0.416144 0.582925 0.438483
0.433539 0.56939 0.406775
0.45185 0.564218 0.368887
0.538079 0.566888 0.339849
0.663233 0.587503 0.314549
0.849088 0.59028 0.301457
0.992142 0.608301 0.291402
1 0.632471 0.291493
1 0.650339 0.291524
0.546792 0.729305 0.575601
0.560006 0.711864 0.536736
0.570855 0.705074 0.50956
0.606531 0.709453 0.475883
0.700816 0.714061 0.451652
0.814862 0.73286 0.422415
0.958099 0.737255 0.412741
1 0.750118 0.401099
1 0.760632 0.392584
0.663081 0.847944 0.697353
0.672618 0.827512 0.652216
0.679194 0.822705 0.634302
0.695827 0.825147 0.606149
0.756176 0.825513 0.584283
0.835492 0.836164 0.55404
0.930434 0.851545 0.526009
1 0.855619 0.51873
1 0.859937 0.505196
0.762646 0.921935 0.764111
0.765011 0.914916 0.746746
0.770123 0.912352 0.735088
0.782269 0.912657 0.716426
0.807355 0.917632 0.689754
0.874052 0.916472 0.674006
0.938766 0.929351 0.639689
1 0.940536 0.61709
1 0.940215 0.609628
0.823194 0.96965 0.814527
0.826474 0.966918 0.804883
0.830762 0.965866 0.797192
0.83975 0.96614 0.783856
0.852934 0.971191 0.760906
0.903746 0.969131 0.747951
0.958877 0.974807 0.724971
1 0.989242 0.689036
1 0.992401 0.678599
0.0915541 0.225895 0.239963
0.119707 0.222629 0.230945
0.290196 0.200137 0.280308
0.5776 0.195087 0.325261
0.823835 0.234195 0.333165
1 0.280842 0.336202
1 0.335866 0.336233
1 0.427436 0.363897
1 0.501305 0.388434
0.0700389 0.207263 0.2177
0.106813 0.20415 0.20827
0.283543 0.188708 0.248814
0.571557 0.18999 0.289036
0.828351 0.219135 0.300938
1 0.266835 0.304921
1 0.335134 0.313313
1 0.432242 0.347082
1 0.505501 0.372244
0.124453 0.279484 0.255665
0.160998 0.27013 0.241337
0.286168 0.264652 0.212772
0.530114 0.255589 0.218112
0.747448 0.283375 0.2168
0.930724 0.332128 0.235233
1 0.390219 0.270634
1 0.437552 0.328695
1 0.510201 0.355108
0.247562 0.424125 0.340047
0.290166 0.409293 0.320607
0.358282 0.400305 0.278508
0.473228 0.421317 0.262699
0.698344 0.420981 0.245075
0.882673 0.443183 0.239994
1 0.482979 0.254398
1 0.523095 0.273136
1 0.552972 0.291112
0.414908 0.58143 0.437171
0.431098 0.56875 0.407843
0.450278 0.562814 0.368978
0.535897 0.565423 0.338582
0.662501 0.585946 0.313512
0.848981 0.58883 0.300282
0.992279 0.607019 0.290318
1 0.631357 0.290501
1 0.649317 0.290608
0.546227 0.728695 0.575006
0.559045 0.711849 0.537682
0.569772 0.704509 0.509682
0.60502 0.708919 0.475456
0.700175 0.713573 0.451347
0.814511 0.732235 0.421988
0.958053 0.73666 0.412177
1 0.749584 0.40058
1 0.760143 0.392218
0.662654 0.848066 0.69781
0.672221 0.827604 0.652873
0.678706 0.822507 0.634592
0.695384 0.824826 0.606348
0.755566 0.825254 0.584115
0.835172 0.835889 0.553826
0.930312 0.851286 0.525765
1 0.85539 0.518471
1 0.859709 0.504921
0.762493 0.92224 0.765026
0.764752 0.914977 0.747143
0.769848 0.912276 0.735286
0.781964 0.912505 0.716579
0.806897 0.917556 0.689677
0.873808 0.91635 0.673915
0.938643 0.929229 0.639612
1 0.940429 0.616953
1 0.940124 0.609491
0.823133 0.969802 0.814969
0.826307 0.96698 0.805219
0.830579 0.965896 0.797467
0.839597 0.966125 0.784085
0.852857 0.97113 0.76109
0.903578 0.969131 0.747982
0.958785 0.974792 0.725032
1 0.989227 0.689067
1 0.992401 0.678599
0.171389 0.364523 0.395056
0.182116 0.362142 0.390326
0.310567 0.343694 0.398749
0.524346 0.333532 0.466575
0.780102 0.323613 0.529549
0.968246 0.385809 0.544198
1 0.433829 0.556115
1 0.475944 0.556405
1 0.510658 0.551781
0.163577 0.354391 0.383276
0.178805 0.352148 0.378164
0.309514 0.334737 0.391424
0.527779 0.325994 0.458442
0.78172 0.321248 0.516823
0.970886 0.379736 0.532708
1 0.427909 0.544259
1 0.470634 0.543893
1 0.505562 0.538949
0.143282 0.369558 0.38471
0.162753 0.363745 0.37583
0.276692 0.353536 0.343297
0.466941 0.340032 0.38761
0.71191 0.341497 0.421057
0.921813 0.369619 0.436912
1 0.411948 0.468284
1 0.464668 0.530587
1 0.500282 0.524987
0.268055 0.470008 0.440085
0.287602 0.46041 0.426551
0.361395 0.439719 0.390951
0.490379 0.444434 0.368673
0.70367 0.438758 0.376303
0.880201 0.460517 0.374914
1 0.496117 0.388373
1 0.527199 0.406363
1 0.539269 0.427008
0.365774 0.601648 0.519692
0.394568 0.58645 0.498634
0.454749 0.56379 0.465736
0.540002 0.566262 0.426963
0.653101 0.587015 0.411826
0.840848 0.588785 0.396063
0.983352 0.60708 0.3897
1 0.632563 0.394781
1 0.652445 0.400656
0.543954 0.725856 0.58407
0.557717 0.710002 0.551034
0.571008 0.700465 0.522728
0.597436 0.708202 0.483772
0.6972 0.710582 0.461997
0.810727 0.72958 0.435859
0.955352 0.733974 0.42649
1 0.746929 0.416327
1 0.757794 0.409186
0.662211 0.847639 0.697337
0.671321 0.827863 0.654353
0.67747 0.822156 0.635264
0.69456 0.824247 0.606851
0.754162 0.82475 0.583627
0.83447 0.835309 0.553368
0.930037 0.850752 0.525261
1 0.854871 0.517906
1 0.859266 0.504356
0.762173 0.922957 0.767178
0.764233 0.915129 0.747982
0.769207 0.912139 0.735851
0.781323 0.912184 0.716869
0.805875 0.917418 0.689509
0.873289 0.916091 0.673747
0.938399 0.928969 0.639429
1 0.940215 0.616648
1 0.93991 0.609201
0.823041 0.970153 0.815915
0.825971 0.967132 0.805951
0.830198 0.965957 0.798077
0.839261 0.966079 0.784573
0.852659 0.971008 0.761471
0.903227 0.969131 0.748074
0.958618 0.974762 0.725139
1 0.989197 0.689158
1 0.992401 0.678599
0.254124 0.502785 0.551629
0.254124 0.502785 0.551629
0.352575 0.487846 0.527153
0.512871 0.464546 0.595254
0.725536 0.469306 0.648127
0.936126 0.454322 0.723018
1 0.527565 0.731517
1 0.567819 0.740673
1 0.59588 0.740795
0.251972 0.499123 0.547784
0.251972 0.499123 0.547799
0.35259 0.483497 0.523613
0.513466 0.460349 0.593179
0.727443 0.465904 0.645502
0.936599 0.454063 0.717739
1 0.52517 0.727275
1 0.565332 0.735836
1 0.593423 0.736141
0.217777 0.48188 0.521172
0.217853 0.481498 0.520943
0.309285 0.464042 0.484443
0.460334 0.452476 0.517952
0.66836 0.447776 0.579385
0.891157 0.447303 0.648966
1 0.516381 0.700038
1 0.562722 0.731228
1 0.591196 0.731579
0.251957 0.544854 0.564981
0.251606 0.544427 0.564721
0.330663 0.516777 0.521233
0.461662 0.51725 0.495827
0.643244 0.502953 0.53785
0.845136 0.504143 0.564614
1 0.526314 0.577707
1 0.546639 0.594034
1 0.564172 0.626352
0.411948 0.643244 0.615152
0.418433 0.637385 0.607431
0.466072 0.609384 0.567269
0.548623 0.601129 0.541802
0.667887 0.609567 0.523293
0.844144 0.607721 0.528115
0.979782 0.624872 0.526345
1 0.647578 0.533028
1 0.661784 0.539193
0.488136 0.756344 0.686137
0.509133 0.740642 0.664729
0.543267 0.719905 0.635508
0.613397 0.70724 0.610269
0.701381 0.714244 0.573648
0.802533 0.73283 0.557137
0.948379 0.735561 0.543313
1 0.747951 0.535012
1 0.759182 0.531624
0.655833 0.842313 0.727153
0.669078 0.823178 0.690013
0.677684 0.814282 0.669841
0.702602 0.811734 0.644923
0.739895 0.821836 0.610452
0.827451 0.827665 0.587747
0.920195 0.843824 0.564401
1 0.848127 0.55726
1 0.85272 0.545007
0.760876 0.925139 0.77232
0.763348 0.915541 0.749981
0.767666 0.91191 0.737179
0.779889 0.911543 0.717449
0.803677 0.917098 0.689143
0.872145 0.915526 0.673396
0.937896 0.928405 0.639017
1 0.939742 0.616068
1 0.939437 0.608576
0.822843 0.970977 0.81796
0.825284 0.967483 0.807584
0.829374 0.966079 0.799405
0.838575 0.965972 0.785626
0.852247 0.970779 0.762081
0.902449 0.969131 0.748272
0.958251 0.974716 0.725399
1 0.989136 0.689342
1 0.992401 0.678599
0.339513 0.633844 0.697749
0.339513 0.633844 0.697749
0.386679 0.620493 0.674067
0.533639 0.603693 0.694316
0.698878 0.58024 0.772717
0.883818 0.60029 0.805753
1 0.591196 0.876448
1 0.645533 0.881682
1 0.676631 0.883574
0.338338 0.63238 0.695811
0.338338 0.63238 0.695811
0.38764 0.618585 0.671534
0.534081 0.60174 0.693187
0.699641 0.578897 0.770901
0.884565 0.598718 0.804669
1 0.588937 0.875746
1 0.644785 0.880018
1 0.675624 0.881849
0.320668 0.616648 0.677928
0.321996 0.617761 0.679225
0.372686 0.604715 0.65565
0.51899 0.593194 0.674327
0.69221 0.573953 0.762081
0.885512 0.597284 0.803983
1 0.586557 0.875151
1 0.643931 0.878233
1 0.674723 0.880446
0.30454 0.630625 0.676997
0.304341 0.630274 0.676722
0.350545 0.608408 0.645304
0.467079 0.601007 0.616251
0.619181 0.587762 0.654765
0.799634 0.582834 0.703502
0.973358 0.576684 0.761273
1 0.618296 0.783139
1 0.656947 0.836561
0.374899 0.70602 0.728954
0.374578 0.705776 0.728786
0.418189 0.679393 0.693156
0.502052 0.664988 0.663722
0.634256 0.668757 0.640406
0.791836 0.655497 0.678401
0.948409 0.656504 0.698558
1 0.671397 0.705333
1 0.678996 0.710628
0.548684 0.790082 0.767117
0.548409 0.790005 0.767086
0.57995 0.760296 0.727169
0.628504 0.745373 0.701198
0.713008 0.742702 0.680568
0.813199 0.752148 0.665614
0.949447 0.752743 0.666667
1 0.764462 0.663417
1 0.774044 0.662226
0.604242 0.880842 0.826093
0.619074 0.865522 0.805493
0.639521 0.847898 0.781003
0.679469 0.835462 0.760372
0.754391 0.827604 0.738796
0.834043 0.836255 0.706249
0.917067 0.851255 0.688624
1 0.854078 0.677592
1 0.857847 0.666239
0.737408 0.935164 0.850324
0.761364 0.912673 0.816022
0.766583 0.90605 0.802258
0.785519 0.901045 0.783948
0.819043 0.901701 0.759884
0.857496 0.91252 0.729213
0.929488 0.91928 0.707149
0.99913 0.93193 0.68658
1 0.931945 0.67837
0.822522 0.972961 0.822858
0.824002 0.968444 0.811139
0.827939 0.966384 0.802289
0.837064 0.96582 0.787778
0.851438 0.97026 0.763668
0.900801 0.969146 0.748684
0.957488 0.974609 0.725933
1 0.988983 0.689708
1 0.992401 0.678599
0.42359 0.749538 0.821851
0.42359 0.749538 0.821851
0.42359 0.749538 0.821851
0.553216 0.727092 0.790433
0.702922 0.707195 0.840055
0.857725 0.699092 0.895491
0.998489 0.717189 0.929137
1 0.710735 0.979538
1 0.734218 0.989532
0.422995 0.74876 0.820905
0.422995 0.74876 0.820905
0.422995 0.74876 0.820905
0.553689 0.726162 0.789776
0.703227 0.70631 0.839704
0.858137 0.698604 0.894972
0.998749 0.716487 0.92874
1 0.709789 0.979324
1 0.733928 0.988846
0.422385 0.747982 0.820081
0.4224 0.747982 0.820096
0.4224 0.747982 0.820081
0.554314 0.725185 0.789258
0.703532 0.705425 0.839368
0.858534 0.698039 0.894377
0.999054 0.71577 0.928359
1 0.708812 0.979126
1 0.733654 0.988159
0.377874 0.719326 0.783856
0.377951 0.719234 0.783825
0.378058 0.719127 0.783825
0.490852 0.692912 0.737224
0.635645 0.680766 0.762875
0.791897 0.663996 0.8336
0.956619 0.684932 0.877287
1 0.703288 0.973114
1 0.733028 0.986816
0.406317 0.769696 0.817395
0.406119 0.769512 0.817227
0.406317 0.769039 0.816617
0.494881 0.732204 0.764035
0.62446 0.731075 0.739834
0.76318 0.717174 0.777173
0.908248 0.713451 0.813916
1 0.703853 0.860685
1 0.726406 0.86508
0.501228 0.841276 0.863233
0.50106 0.841169 0.863172
0.511894 0.830274 0.850126
0.567285 0.800336 0.809583
0.664179 0.792844 0.785733
0.781628 0.797589 0.76524
0.907683 0.786725 0.79736
1 0.786999 0.812802
1 0.792721 0.810376
0.669993 0.905272 0.8878
0.669856 0.905226 0.887785
0.685069 0.884367 0.861067
0.711437 0.865538 0.834318
0.771145 0.85745 0.813962
0.846403 0.857771 0.797681
0.924132 0.866819 0.786572
1 0.868223 0.783703
1 0.871656 0.776974
0.706127 0.972946 0.932754
0.715099 0.959823 0.915602
0.72784 0.945037 0.895552
0.749523 0.933623 0.878447
0.799237 0.925307 0.860716
0.869413 0.920653 0.84303
0.936049 0.928756 0.816419
0.998596 0.940337 0.800031
1 0.939391 0.789319
0.783688 0.993774 0.930449
0.794949 0.981338 0.912978
0.802121 0.975387 0.904387
0.823804 0.967834 0.892332
0.868482 0.960082 0.875364
0.909178 0.961852 0.853269
0.946303 0.973587 0.826551
1 0.98117 0.808774
1 0.987869 0.793759
0.50045 0.84361 0.91841
0.50045 0.84361 0.91841
0.50045 0.84361 0.91841
0.539086 0.828458 0.897032
0.70869 0.808499 0.902632
0.846418 0.791211 0.953948
0.975875 0.797543 0.986908
1 0.809827 1
1 0.80351 1
0.500191 0.843229 0.918044
0.500191 0.843229 0.918044
0.500191 0.843229 0.918044
0.540307 0.827924 0.896269
0.709026 0.808057 0.90248
0.846586 0.790784 0.953857
0.975982 0.797284 0.986633
1 0.809491 1
1 0.803174 1
0.499886 0.842863 0.917678
0.499886 0.842863 0.917678
0.499886 0.842863 0.917678
0.541451 0.82739 0.895415
0.709377 0.807614 0.902327
0.846799 0.790417 0.953826
0.976089 0.797024 0.986358
1 0.809155 1
1 0.802823 1
0.499214 0.842084 0.916899
0.499214 0.842084 0.916899
0.499214 0.842084 0.916899
0.543862 0.8262 0.893812
0.710094 0.806668 0.901991
0.847288 0.789654 0.95378
0.976318 0.796445 0.985779
1 0.808423 1
1 0.801984 1
0.45478 0.827192 0.88922
0.454688 0.827054 0.889128
0.454612 0.826917 0.889036
0.490303 0.802533 0.858656
0.625422 0.790234 0.82501
0.759762 0.778363 0.851591
0.890318 0.764035 0.904799
1 0.77322 0.934051
1 0.765164 0.979812
0.513283 0.886152 0.928618
0.513176 0.886076 0.928542
0.513069 0.885985 0.928481
0.5467 0.857389 0.894499
0.645762 0.84004 0.862547
0.766323 0.840955 0.84155
0.881544 0.828367 0.87509
0.988159 0.825849 0.899931
1 0.813581 0.93196
0.620798 0.94464 0.962402
0.620706 0.944595 0.962371
0.620615 0.944564 0.962356
0.647883 0.913756 0.925612
0.714229 0.897993 0.899748
0.804318 0.894408 0.880858
0.898604 0.899077 0.863981
0.990433 0.8907 0.888487
1 0.887495 0.897353
0.769299 0.988708 0.975616
0.769238 0.988678 0.975601
0.770306 0.985901 0.971954
0.788128 0.957488 0.935744
0.827588 0.946242 0.915908
0.885161 0.942 0.899779
0.94667 0.943969 0.887648
1 0.951492 0.88011
1 0.949996 0.872587
0.785153 1 1
0.787671 1 0.996918
0.797375 1 0.975738
0.809049 0.998611 0.960693
0.843183 0.990097 0.945495
0.894148 0.984817 0.930709
0.954955 0.983337 0.917174
1 0.990616 0.89781
1 0.99707 0.883848
0.540032 0.887831 0.961898
0.540032 0.887831 0.961898
0.540032 0.887831 0.961898
0.540032 0.887831 0.961898
0.685679 0.861158 0.929915
0.837674 0.841199 0.972122
0.962524 0.832578 1
1 0.848661 1
1 0.849729 1
0.540032 0.887831 0.961898
0.540032 0.887831 0.961898
0.540032 0.887831 0.961898
0.540032 0.887831 0.961898
0.686275 0.861067 0.930022
0.837903 0.841184 0.972213
0.962631 0.832609 1
1 0.848661 1
1 0.849729 1
0.540032 0.887831 0.961898
0.540032 0.887831 0.961898
0.540032 0.887831 0.961898
0.540032 0.887831 0.961898
0.68687 0.86096 0.930083
0.838117 0.841154 0.97229
0.962737 0.832624 1
1 0.848661 1
1 0.849729 1
0.540032 0.887831 0.961898
0.540032 0.887831 0.961898
0.540032 0.887831 0.961898
0.540032 0.887831 0.961898
0.688121 0.860716 0.930205
0.83859 0.841093 0.972457
0.962966 0.83267 1
1 0.848661 1
1 0.849729 1
0.497459 0.858396 0.930541
0.497734 0.858518 0.930709
0.498009 0.858625 0.930877
0.49865 0.8589 0.931273
0.636118 0.833341 0.885451
0.791028 0.81706 0.929168
0.936202 0.814298 0.995895
1 0.848661 1
1 0.849714 1
0.52462 0.905638 0.95758
0.524529 0.905562 0.957519
0.524437 0.905486 0.957473
0.524239 0.905303 0.957351
0.61735 0.864363 0.903731
0.752804 0.86154 0.878843
0.87039 0.849409 0.907897
0.974594 0.842542 0.941451
1 0.841825 0.96347
0.612955 0.965286 0.996307
0.612879 0.965255 0.996292
0.612802 0.965209 0.996262
0.61265 0.965133 0.996216
0.680674 0.923156 0.944472
0.78381 0.915068 0.921126
0.884459 0.917784 0.9037
0.972869 0.905715 0.935668
1 0.90396 0.946273
0.72845 1 1
0.728405 1 1
0.728344 1 1
0.733623 1 1
0.774243 0.97293 0.972793
0.844114 0.964599 0.953689
0.91751 0.96408 0.93959
0.986191 0.968978 0.927108
1 0.961288 0.942336
0.836149 1 1
0.836149 1 1
0.836149 1 1
0.847425 1 1
0.87158 1 0.98587
0.917479 1 0.970382
0.968521 0.999207 0.958404
1 1 0.949889
1 1 0.94316
