luts/Arrakis-SLog.cube
TITLE "Generated by Resolve"
LUT_3D_SIZE 33
0 0.0122377 0.0149538
0.00834669 0.0123751 0.0110475
0.0294957 0.00991836 0.0158694
0.0615091 0.00813306 0.0196231
0.105562 0.0062562 0.0170443
0.153079 0.00334173 0.0112154
0.203342 0.000549325 0.00430304
0.252995 0.00202945 0
0.303243 0.0075227 0
0.356023 0.0154726 0
0.41001 0.0259251 0
0.465049 0.0394293 0
0.520241 0.0542611 0.000610361
0.575418 0.0701915 0.00425727
0.62945 0.0878157 0.00943008
0.682338 0.106554 0.0157473
0.733471 0.126757 0.0237736
0.782513 0.148318 0.0333867
0.829496 0.170962 0.0437934
0.874571 0.194095 0.054902
0.916884 0.218082 0.066743
0.956649 0.243214 0.0795758
0.994293 0.269657 0.0938277
1 0.29662 0.107927
1 0.323201 0.121889
1 0.349844 0.135775
1 0.376684 0.149844
1 0.403143 0.163439
1 0.429297 0.176928
1 0.455482 0.190494
1 0.480995 0.203433
1 0.505959 0.216098
1 0.530694 0.228733
0 0.0239261 0.0235752
0.0110475 0.0224918 0.0183261
0.0328679 0.0222477 0.0170596
0.0639811 0.0205539 0.0196384
0.102831 0.0193027 0.0157168
0.142611 0.0209201 0.0132601
0.186648 0.0238651 0.010956
0.234028 0.0282444 0.00891127
0.28481 0.034638 0.00759899
0.337209 0.0432593 0.00653086
0.392416 0.0528115 0.00624094
0.44828 0.0630655 0.0065156
0.504631 0.0747997 0.00793469
0.560678 0.0878309 0.0103609
0.615915 0.102632 0.0142977
0.669551 0.118669 0.0191806
0.721675 0.136355 0.0260624
0.771679 0.155764 0.0345312
0.819562 0.176272 0.0437781
0.865064 0.198596 0.0543832
0.908003 0.221866 0.0659037
0.948165 0.246326 0.0783703
0.986221 0.27216 0.0921187
1 0.298665 0.106188
1 0.324895 0.120073
1 0.351431 0.133959
1 0.377661 0.147646
1 0.4038 0.161166
1 0.429892 0.174792
1 0.455619 0.188113
1 0.480888 0.201022
1 0.505699 0.213886
1 0.530175 0.226444
0 0.0390936 0.0324559
0.0158541 0.0372778 0.0269169
0.0377661 0.037232 0.0227512
0.0571298 0.0395972 0.0267796
0.0939345 0.0387121 0.0222324
0.133898 0.0393683 0.019028
0.176898 0.0414282 0.0159762
0.224033 0.0452125 0.013611
0.274098 0.0507668 0.0116579
0.326757 0.0576028 0.0102388
0.381415 0.0654917 0.00936904
0.437034 0.074876 0.00956741
0.493111 0.0854505 0.0102846
0.549081 0.0977646 0.0126955
0.60415 0.111406 0.0159762
0.658335 0.126757 0.020737
0.710399 0.143587 0.0269627
0.761105 0.162142 0.0349737
0.80911 0.181903 0.0438239
0.855009 0.203098 0.0536812
0.898558 0.22591 0.0650797
0.939254 0.249638 0.0771344
0.977798 0.2748 0.0905165
1 0.300649 0.10425
1 0.326635 0.11812
1 0.352789 0.132082
1 0.378637 0.14551
1 0.404456 0.158862
1 0.43035 0.172503
1 0.45565 0.185824
1 0.48069 0.198672
1 0.505516 0.211582
1 0.529641 0.223911
0.000289921 0.0574197 0.0433967
0.0221561 0.0544747 0.0374456
0.0442969 0.0540169 0.0318608
0.0594034 0.0583047 0.0310063
0.0859846 0.0598001 0.0316472
0.126024 0.0591592 0.0268406
0.169116 0.0599222 0.0225071
0.215641 0.0624094 0.0192874
0.26479 0.0665446 0.0166934
0.316747 0.071931 0.0146334
0.37052 0.0787823 0.0135042
0.425834 0.0870069 0.0130617
0.481453 0.0966812 0.0135348
0.537224 0.10782 0.0152743
0.592752 0.120729 0.0183871
0.646693 0.134905 0.0225223
0.699413 0.151049 0.028275
0.750027 0.168475 0.0357824
0.798932 0.187625 0.044358
0.845045 0.208057 0.0538338
0.889113 0.230106 0.064744
0.930388 0.253071 0.0763714
0.969299 0.277577 0.0893721
1 0.30277 0.102754
1 0.328466 0.116609
1 0.354208 0.130404
1 0.379675 0.143877
1 0.405173 0.157031
1 0.430716 0.170535
1 0.455817 0.183581
1 0.480858 0.196658
1 0.505226 0.20914
1 0.529183 0.221439
0.0110628 0.0792248 0.0567178
0.0336309 0.0761883 0.0512245
0.05449 0.075639 0.0445106
0.069398 0.0788586 0.0378424
0.0855268 0.0823529 0.0398566
0.117403 0.0829633 0.0382849
0.160327 0.0821698 0.0328832
0.206668 0.0826886 0.0282902
0.255177 0.0846723 0.0241703
0.306691 0.0883345 0.02121
0.359823 0.0936141 0.0191348
0.414511 0.100282 0.0178378
0.470146 0.108721 0.0180667
0.525841 0.118715 0.0188602
0.580865 0.13022 0.0212558
0.635096 0.143709 0.0249485
0.687953 0.158572 0.030045
0.739116 0.175311 0.0371099
0.788403 0.193683 0.0452583
0.834943 0.213306 0.0542306
0.879423 0.234592 0.0644846
0.921111 0.256825 0.0757153
0.960571 0.280552 0.0881819
0.997147 0.30518 0.101289
1 0.330495 0.114992
1 0.35581 0.128618
1 0.380865 0.141909
1 0.406271 0.155398
1 0.431235 0.168505
1 0.456123 0.18143
1 0.480903 0.194369
1 0.505028 0.206775
1 0.529091 0.219348
0.0258488 0.10341 0.0725567
0.0516823 0.0995956 0.0665141
0.0686198 0.0999008 0.0597086
0.080766 0.102724 0.0522469
0.0978256 0.103731 0.0513161
0.115099 0.108659 0.0493782
0.151888 0.108492 0.0479286
0.197269 0.107713 0.0422217
0.245945 0.10782 0.0362554
0.296956 0.109636 0.0320439
0.349706 0.112749 0.0284276
0.403967 0.117998 0.026215
0.459129 0.124651 0.0251926
0.514672 0.13315 0.0252842
0.569375 0.143069 0.0265507
0.623957 0.155016 0.0295872
0.676829 0.16875 0.0342565
0.728557 0.184176 0.040177
0.777417 0.201053 0.0468757
0.824933 0.219715 0.0553292
0.869505 0.239704 0.0649882
0.912032 0.261173 0.0758526
0.951659 0.283894 0.0875257
0.988861 0.307897 0.10013
1 0.332662 0.113512
1 0.357534 0.126986
1 0.382193 0.140124
1 0.407233 0.15346
1 0.431922 0.166476
1 0.456733 0.179706
1 0.480964 0.192187
1 0.50486 0.204456
1 0.528725 0.216983
0.0457008 0.129564 0.0900893
0.0705577 0.126574 0.0838483
0.086656 0.126452 0.0768444
0.0979324 0.128038 0.0695659
0.110796 0.129641 0.063859
0.12697 0.131182 0.0653391
0.147036 0.137133 0.06009
0.188113 0.136034 0.0599222
0.236164 0.13518 0.054139
0.287068 0.135348 0.0480354
0.339666 0.136797 0.042771
0.393774 0.140078 0.0390784
0.448753 0.144854 0.036347
0.503792 0.151583 0.0355077
0.558801 0.160021 0.0358129
0.613046 0.170428 0.037583
0.666377 0.182483 0.041062
0.717769 0.196536 0.0456397
0.767697 0.212146 0.0520027
0.814694 0.229282 0.0590219
0.860029 0.248234 0.0679332
0.902831 0.26862 0.0778058
0.942779 0.29012 0.0886854
0.980774 0.313024 0.100908
1 0.336812 0.11371
1 0.361074 0.12694
1 0.385092 0.139452
1 0.409461 0.152407
1 0.433494 0.165057
1 0.457816 0.178073
1 0.481605 0.190509
1 0.50547 0.202823
1 0.528695 0.214923
0.0738842 0.157595 0.109819
0.0921645 0.155703 0.10277
0.105898 0.155001 0.0955215
0.116899 0.155871 0.0888533
0.123201 0.159045 0.0808881
0.142489 0.157626 0.078645
0.158999 0.161105 0.0800641
0.182589 0.167117 0.0739452
0.227039 0.165652 0.0736706
0.276905 0.16463 0.067689
0.329488 0.164813 0.0612497
0.383627 0.166445 0.0562905
0.438376 0.169436 0.051957
0.493538 0.174502 0.0495766
0.548608 0.181216 0.0484932
0.602625 0.189792 0.0488594
0.655924 0.20029 0.0508278
0.707622 0.212558 0.0543679
0.75758 0.226719 0.0593423
0.805295 0.242588 0.0657054
0.850645 0.259815 0.0731823
0.893828 0.278843 0.082414
0.934508 0.299367 0.0924086
0.972381 0.320851 0.103426
1 0.34374 0.115709
1 0.367346 0.128313
1 0.390448 0.14049
1 0.414038 0.153048
1 0.437369 0.165484
1 0.461021 0.178073
1 0.484276 0.189868
1 0.507546 0.202029
1 0.530297 0.213901
0.100725 0.188235 0.130617
0.114809 0.186542 0.123293
0.127169 0.185702 0.116381
0.137484 0.185901 0.109606
0.144427 0.187594 0.102113
0.155642 0.188174 0.0964523
0.175158 0.188373 0.0958724
0.193378 0.192721 0.0954452
0.220691 0.198337 0.0892805
0.267582 0.196902 0.088716
0.319326 0.196231 0.0830091
0.373144 0.196139 0.0764477
0.428 0.197848 0.0710918
0.483528 0.20116 0.0671397
0.538369 0.205966 0.0643931
0.592813 0.212726 0.0633249
0.645884 0.221546 0.0638437
0.698054 0.232319 0.0662089
0.74789 0.244846 0.069749
0.795956 0.259113 0.0749371
0.841443 0.274784 0.0810864
0.884993 0.292363 0.0891127
0.925917 0.311513 0.0981155
0.964584 0.331945 0.108476
1 0.353399 0.120012
1 0.375967 0.131853
1 0.398383 0.143679
1 0.420768 0.155398
1 0.443671 0.167285
1 0.466331 0.179263
1 0.488975 0.191135
1 0.511482 0.202899
1 0.53373 0.214557
0.12665 0.221378 0.153353
0.139208 0.219364 0.14612
0.150225 0.218158 0.139254
0.159411 0.217563 0.131991
0.166583 0.218387 0.124926
0.170993 0.220768 0.116899
0.1906 0.219364 0.113817
0.209415 0.220813 0.114168
0.229877 0.226062 0.111818
0.260227 0.231357 0.105776
0.309148 0.229923 0.105028
0.362554 0.229297 0.0993515
0.417578 0.229603 0.0933547
0.472984 0.231174 0.0875563
0.528222 0.234531 0.0837415
0.582559 0.239475 0.0807813
0.636118 0.246693 0.0801099
0.688197 0.255451 0.0806744
0.738247 0.266194 0.0829023
0.786496 0.278798 0.0864576
0.832471 0.293126 0.091783
0.876448 0.309071 0.0987106
0.917586 0.326711 0.1066
0.956558 0.345724 0.11577
0.992828 0.366049 0.126375
1 0.387228 0.137224
1 0.408652 0.148363
1 0.430335 0.159762
1 0.451942 0.170916
1 0.473869 0.182528
1 0.495872 0.19408
1 0.517464 0.205035
1 0.539178 0.216388
0.153552 0.255756 0.177539
0.164508 0.253544 0.170275
0.174319 0.252064 0.163104
0.183032 0.25127 0.156146
0.18999 0.251362 0.14934
0.195102 0.252461 0.142031
0.204685 0.253376 0.135363
0.226947 0.252216 0.13164
0.245686 0.254948 0.133074
0.268284 0.26096 0.129
0.301808 0.265751 0.123339
0.352346 0.264347 0.122438
0.406577 0.26389 0.11725
0.462119 0.264424 0.111025
0.517769 0.266285 0.105989
0.572457 0.269642 0.101549
0.626398 0.275013 0.099321
0.678538 0.281987 0.0984207
0.728969 0.291188 0.0991684
0.777539 0.302083 0.101488
0.82388 0.314717 0.105241
0.868009 0.328984 0.110857
0.909636 0.344945 0.117571
0.948638 0.362478 0.125505
0.985397 0.381292 0.134585
1 0.401404 0.145144
1 0.421561 0.155184
1 0.442054 0.165881
1 0.462959 0.176669
1 0.483772 0.187366
1 0.504646 0.198169
1 0.525673 0.20885
1 0.546288 0.219532
0.181384 0.291646 0.203418
0.191012 0.289326 0.195956
0.200031 0.287434 0.188937
0.207965 0.286152 0.181964
0.214832 0.285573 0.175113
0.219898 0.285954 0.167987
0.223804 0.287877 0.159762
0.24155 0.287022 0.155306
0.263783 0.286931 0.1523
0.283986 0.290822 0.153353
0.308324 0.297581 0.147112
0.344884 0.301717 0.142687
0.396658 0.300404 0.141741
0.451255 0.300038 0.136461
0.506813 0.300542 0.130373
0.561913 0.302739 0.125002
0.616449 0.306462 0.121401
0.668666 0.311818 0.118654
0.719814 0.319219 0.118044
0.768536 0.328237 0.118883
0.815167 0.33904 0.121279
0.859312 0.351675 0.125261
0.901396 0.366064 0.13077
0.940856 0.382116 0.137713
0.977722 0.399283 0.145541
1 0.417731 0.154894
1 0.436942 0.164416
1 0.456321 0.173907
1 0.475975 0.184146
1 0.495872 0.194018
1 0.515846 0.204318
1 0.535592 0.214374
1 0.555627 0.224674
0.210208 0.328847 0.230716
0.218967 0.326146 0.223438
0.227054 0.324041 0.216373
0.234562 0.322469 0.209491
0.240909 0.321508 0.202731
0.246006 0.321233 0.195789
0.250156 0.321889 0.188296
0.256504 0.324224 0.17998
0.279805 0.321889 0.176699
0.302159 0.323171 0.174456
0.323262 0.327733 0.173739
0.349355 0.334981 0.166323
0.388617 0.338491 0.162524
0.440909 0.337362 0.161624
0.495995 0.337179 0.156832
0.551263 0.338247 0.151064
0.605615 0.340276 0.1458
0.658747 0.34432 0.142061
0.71017 0.349905 0.139986
0.759304 0.357275 0.139345
0.806149 0.366384 0.13994
0.851102 0.377539 0.142733
0.893187 0.390082 0.146746
0.932967 0.404181 0.152117
0.970031 0.419883 0.158663
1 0.43679 0.166857
1 0.454871 0.175509
1 0.472923 0.184283
1 0.491341 0.193271
1 0.510063 0.202838
1 0.528984 0.212131
1 0.547662 0.221454
1 0.566674 0.231083
0.239902 0.366659 0.25951
0.247715 0.36376 0.252201
0.255024 0.361517 0.244968
0.261784 0.359808 0.238102
0.267735 0.358526 0.231464
0.272709 0.357733 0.224613
0.276783 0.357504 0.217288
0.280919 0.359106 0.208637
0.294957 0.359518 0.20264
0.319341 0.358389 0.19884
0.341497 0.360281 0.197375
0.363943 0.36553 0.195254
0.391394 0.373251 0.186465
0.43238 0.376272 0.183536
0.485298 0.375219 0.182635
0.540154 0.375265 0.17789
0.59498 0.376455 0.172885
0.64863 0.379034 0.167834
0.700084 0.383017 0.164096
0.750134 0.388876 0.162097
0.797162 0.396307 0.161318
0.842557 0.405646 0.162631
0.884932 0.416464 0.165164
0.925093 0.428885 0.169162
0.96289 0.443122 0.174563
0.997864 0.458518 0.181277
1 0.475166 0.189136
1 0.49189 0.196719
1 0.50898 0.204852
1 0.526406 0.213306
1 0.544076 0.221912
1 0.561975 0.230518
1 0.579583 0.239384
0.27068 0.405463 0.289891
0.277485 0.402441 0.282322
0.283986 0.399908 0.275044
0.290257 0.397787 0.268269
0.295659 0.396155 0.261631
0.300557 0.394919 0.254643
0.304433 0.394186 0.247822
0.308659 0.39472 0.240024
0.312871 0.397818 0.230365
0.334783 0.395819 0.226627
0.359655 0.395453 0.222126
0.381628 0.398322 0.220798
0.405829 0.404349 0.217685
0.434104 0.412146 0.207309
0.476799 0.414557 0.205493
0.529702 0.413672 0.204669
0.583719 0.413962 0.200488
0.637568 0.415457 0.195163
0.689967 0.41828 0.190951
0.740368 0.42269 0.187381
0.787854 0.428489 0.18529
0.833738 0.436164 0.184985
0.876677 0.445212 0.18587
0.917021 0.45623 0.188449
0.955077 0.468544 0.192447
0.990311 0.482216 0.197726
1 0.497292 0.204303
1 0.512673 0.210986
1 0.52845 0.217975
1 0.544732 0.225605
1 0.560967 0.233234
1 0.5776 0.241215
1 0.594446 0.249149
0.301671 0.444404 0.321019
0.30779 0.44123 0.313207
0.313634 0.438499 0.306249
0.319478 0.436271 0.299626
0.324666 0.434577 0.292927
0.329091 0.433066 0.286015
0.33283 0.431937 0.279286
0.33669 0.43154 0.272038
0.341131 0.433112 0.263142
0.350729 0.434836 0.254673
0.375372 0.432914 0.25185
0.400626 0.433188 0.246067
0.423011 0.437186 0.245411
0.44799 0.443366 0.240818
0.477378 0.451759 0.229526
0.521385 0.453544 0.228901
0.573632 0.452873 0.228229
0.626947 0.453346 0.223987
0.679164 0.454749 0.218967
0.729778 0.457908 0.214542
0.778653 0.462394 0.211658
0.824338 0.468406 0.209506
0.867964 0.476066 0.209155
0.908934 0.485435 0.210513
0.947204 0.495949 0.212924
0.982879 0.508019 0.216831
1 0.521675 0.222263
1 0.535866 0.227848
1 0.550118 0.233692
1 0.564813 0.240238
1 0.57995 0.246998
1 0.595376 0.253803
1 0.610971 0.261097
0.33341 0.483848 0.353109
0.339132 0.480507 0.345724
0.344335 0.477623 0.338796
0.349294 0.475196 0.331716
0.35378 0.473091 0.324987
0.358144 0.471214 0.318349
0.361822 0.469718 0.311666
0.365225 0.468727 0.30454
0.369787 0.4692 0.296605
0.374411 0.471916 0.287007
0.391424 0.471855 0.281285
0.41619 0.47039 0.277226
0.441978 0.471763 0.271351
0.464469 0.47599 0.270512
0.490166 0.482658 0.264164
0.520043 0.491279 0.251865
0.564889 0.492424 0.25272
0.616632 0.491905 0.252064
0.668772 0.492561 0.248493
0.719493 0.494591 0.243824
0.768261 0.497551 0.239475
0.814786 0.502373 0.236301
0.859083 0.508522 0.234913
0.90013 0.516045 0.234211
0.939223 0.525261 0.235508
0.975082 0.535683 0.237629
1 0.547784 0.241718
1 0.560494 0.246387
1 0.573327 0.251164
1 0.586892 0.256687
1 0.600717 0.262486
1 0.614878 0.268315
1 0.629145 0.274617
0.365667 0.522896 0.386114
0.370672 0.519402 0.37879
0.375067 0.516487 0.371679
0.379705 0.513863 0.364675
0.3841 0.511864 0.358465
0.388113 0.509804 0.351919
0.39173 0.508019 0.345068
0.394644 0.5066 0.338476
0.398764 0.506233 0.331044
0.40354 0.507698 0.322148
0.408118 0.51107 0.311254
0.432456 0.508751 0.308248
0.457771 0.508324 0.303822
0.482963 0.510109 0.297963
0.505974 0.51487 0.295888
0.532341 0.521798 0.288609
0.562524 0.530587 0.27541
0.607736 0.531182 0.277363
0.658427 0.530861 0.276799
0.708995 0.531823 0.273182
0.758053 0.533974 0.269169
0.805295 0.537408 0.265263
0.84947 0.542031 0.262226
0.891432 0.548348 0.260456
0.930861 0.556023 0.260319
0.967193 0.564904 0.261326
1 0.575357 0.263935
1 0.586679 0.26743
1 0.598215 0.271107
1 0.610376 0.275181
1 0.622827 0.279789
1 0.635538 0.284489
1 0.64863 0.289876
0.398108 0.561593 0.419745
0.402655 0.558419 0.412589
0.406729 0.555367 0.405432
0.41088 0.552605 0.398795
0.414557 0.550164 0.392355
0.418235 0.547936 0.385595
0.421332 0.546014 0.378897
0.424033 0.544305 0.37232
0.427588 0.543313 0.365164
0.432364 0.543725 0.357092
0.4374 0.546059 0.347616
0.4486 0.547997 0.33933
0.473655 0.54583 0.335927
0.49897 0.545922 0.330846
0.523873 0.548363 0.325063
0.54728 0.553597 0.321675
0.574166 0.560708 0.313344
0.604379 0.569604 0.299443
0.649744 0.569604 0.302586
0.699092 0.569482 0.302129
0.747723 0.570687 0.299062
0.794949 0.573037 0.295018
0.839841 0.576669 0.291539
0.882567 0.581613 0.288884
0.921889 0.587671 0.287114
0.959243 0.595209 0.286946
0.993454 0.604044 0.287694
1 0.614191 0.29012
1 0.624338 0.292378
1 0.635172 0.295644
1 0.646159 0.298894
1 0.657618 0.302831
1 0.669566 0.307347
0.431067 0.600107 0.454078
0.434775 0.596597 0.446433
0.438331 0.593454 0.439673
0.442039 0.590616 0.433127
0.44535 0.588098 0.426352
0.448646 0.586007 0.420111
0.45182 0.583917 0.413764
0.454582 0.581964 0.407156
0.457298 0.58053 0.400565
0.461631 0.580194 0.393042
0.46659 0.581491 0.384085
0.471687 0.584421 0.373449
0.489433 0.584161 0.367819
0.514748 0.582803 0.364141
0.539712 0.583368 0.358282
0.564828 0.586603 0.352834
0.58851 0.592111 0.348547
0.615442 0.599435 0.339254
0.645365 0.608347 0.325032
0.690791 0.607813 0.329076
0.738216 0.607813 0.328695
0.785 0.608957 0.325444
0.830121 0.61149 0.321675
0.872877 0.615244 0.318227
0.913176 0.620295 0.315755
0.95082 0.626581 0.314397
0.985412 0.633829 0.313634
1 0.642618 0.315053
1 0.651591 0.316182
1 0.661021 0.31812
1 0.670726 0.320409
1 0.681117 0.323186
1 0.691569 0.326329
0.463645 0.637644 0.488014
0.466773 0.634104 0.480919
0.470222 0.631006 0.474342
0.473564 0.628351 0.467658
0.476616 0.625711 0.46125
0.479332 0.623285 0.455055
0.482124 0.620996 0.448508
0.484672 0.618875 0.442252
0.486778 0.617197 0.435477
0.490547 0.616342 0.428397
0.495415 0.616648 0.420325
0.500816 0.618585 0.411231
0.505974 0.622629 0.399924
0.530556 0.620157 0.397208
0.555398 0.619104 0.392782
0.58053 0.620584 0.386481
0.604685 0.624048 0.380591
0.628779 0.629694 0.375219
0.655604 0.63714 0.365057
0.685069 0.645838 0.351141
0.729809 0.64509 0.355474
0.775769 0.645304 0.355184
0.820783 0.646784 0.352453
0.8636 0.6495 0.349172
0.90396 0.653025 0.345418
0.941802 0.658152 0.34316
0.977356 0.664378 0.341726
1 0.671656 0.341543
1 0.679637 0.34168
1 0.687846 0.342428
1 0.696208 0.343297
1 0.705333 0.345251
1 0.714443 0.347295
0.4963 0.67425 0.522301
0.499214 0.670985 0.515724
0.502037 0.667796 0.508751
0.504799 0.664912 0.502327
0.507485 0.662211 0.496147
0.510109 0.659815 0.489845
0.512673 0.657694 0.483818
0.514916 0.655512 0.47744
0.517067 0.653468 0.471199
0.519982 0.652186 0.464576
0.524468 0.651881 0.456809
0.529519 0.652949 0.44831
0.535027 0.65565 0.438239
0.546319 0.657282 0.429541
0.570718 0.65539 0.426383
0.59527 0.654932 0.421622
0.620279 0.656825 0.41471
0.644022 0.660655 0.408713
0.668132 0.666453 0.402228
0.694499 0.674006 0.391287
0.723247 0.682475 0.377752
0.767376 0.681453 0.382177
0.811429 0.681819 0.381979
0.854093 0.683482 0.379705
0.89482 0.68632 0.376394
0.933349 0.690089 0.373602
0.968658 0.694926 0.370855
1 0.701152 0.369604
1 0.708125 0.3691
1 0.714916 0.368307
1 0.722362 0.368612
1 0.730114 0.368902
1 0.738155 0.369909
0.528969 0.710033 0.556817
0.531197 0.706538 0.54992
0.533516 0.703395 0.54316
0.536324 0.700755 0.537285
0.538796 0.698039 0.530953
0.540688 0.695613 0.524819
0.542901 0.693172 0.518791
0.545007 0.690898 0.512612
0.546914 0.688762 0.506676
0.549538 0.687419 0.500404
0.553368 0.686641 0.493294
0.558297 0.686778 0.485374
0.563378 0.688273 0.476188
0.56875 0.691676 0.465431
0.586435 0.691524 0.459571
0.610361 0.689784 0.455894
0.63476 0.690135 0.450874
0.658885 0.692256 0.443214
0.682414 0.69633 0.43682
0.706355 0.702281 0.429618
0.732235 0.709773 0.41767
0.760708 0.717708 0.405035
0.803357 0.716716 0.409674
0.84535 0.717205 0.409552
0.885695 0.719051 0.407187
0.924254 0.721935 0.404334
0.960143 0.725917 0.401266
0.99379 0.730846 0.399329
1 0.736736 0.397604
1 0.742657 0.395987
1 0.748882 0.395148
1 0.755413 0.394232
1 0.762387 0.394202
0.561059 0.74435 0.590631
0.562936 0.741222 0.583902
0.565164 0.738109 0.577722
0.567346 0.735225 0.571435
0.569268 0.73257 0.565347
0.571069 0.730053 0.559594
0.573343 0.727916 0.553796
0.575189 0.725582 0.547997
0.57673 0.723476 0.541695
0.578729 0.721523 0.535729
0.581827 0.720409 0.529015
0.586343 0.720104 0.521569
0.591379 0.721004 0.513313
0.59704 0.723201 0.503777
0.602014 0.72697 0.492348
0.625666 0.724529 0.489509
0.649348 0.723583 0.485985
0.672999 0.724132 0.479881
0.696605 0.72665 0.471748
0.719966 0.731228 0.465263
0.743313 0.737255 0.456947
0.768826 0.744656 0.444587
0.796735 0.751614 0.433005
0.837736 0.751019 0.437278
0.877302 0.751553 0.43714
0.91548 0.753368 0.435142
0.951751 0.756359 0.432181
0.985367 0.760342 0.429465
1 0.765301 0.427268
1 0.770382 0.425254
1 0.775402 0.42298
1 0.781003 0.421195
1 0.786923 0.420371
0.59263 0.777798 0.624048
0.594324 0.774395 0.617609
0.596155 0.771282 0.611429
0.597848 0.768505 0.605295
0.599954 0.76611 0.599847
0.601587 0.763607 0.593957
0.60322 0.761181 0.588357
0.604685 0.758923 0.582254
0.60618 0.756695 0.576608
0.608026 0.754925 0.570916
0.610605 0.753475 0.564767
0.614511 0.752743 0.557961
0.619379 0.752987 0.549996
0.624506 0.754223 0.541192
0.629725 0.756954 0.531029
0.640558 0.758999 0.522423
0.663905 0.756802 0.51931
0.686809 0.756176 0.51519
0.709926 0.757107 0.508705
0.733318 0.760189 0.500511
0.755642 0.764691 0.4934
0.778775 0.770642 0.48452
0.803525 0.777951 0.471626
0.83122 0.784558 0.461143
0.869917 0.783993 0.465126
0.907561 0.784741 0.465202
0.943587 0.786679 0.463172
0.977172 0.789502 0.460166
1 0.793454 0.457725
1 0.797757 0.454856
1 0.802106 0.452201
1 0.806714 0.449714
1 0.811353 0.447425
0.623697 0.809491 0.65684
0.625116 0.806165 0.650675
0.626871 0.803449 0.644755
0.628351 0.800702 0.639048
0.629923 0.798077 0.633234
0.63122 0.795621 0.627817
0.632715 0.793439 0.622065
0.634211 0.791226 0.616724
0.635523 0.788998 0.611124
0.63679 0.786847 0.605554
0.638773 0.785199 0.599557
0.641947 0.784207 0.59292
0.646372 0.783932 0.585809
0.651316 0.784649 0.57792
0.657084 0.786419 0.56907
0.662287 0.789792 0.558556
0.678294 0.789532 0.5523
0.701167 0.7879 0.54905
0.723247 0.787594 0.544396
0.745846 0.789181 0.537713
0.768383 0.792187 0.528893
0.790143 0.796811 0.521309
0.81268 0.802747 0.511772
0.836606 0.809888 0.498421
0.863386 0.815961 0.488853
0.900175 0.815518 0.492683
0.935622 0.816403 0.492683
0.969329 0.818402 0.49073
1 0.821454 0.488518
1 0.82504 0.485725
1 0.828199 0.482216
1 0.831983 0.478798
1 0.835981 0.476005
0.654276 0.839811 0.689036
0.655619 0.83682 0.68304
0.656703 0.833936 0.677241
0.658045 0.83125 0.671534
0.659525 0.828855 0.666362
0.660578 0.826581 0.660777
0.661753 0.824216 0.655497
0.662928 0.821912 0.650248
0.664057 0.819699 0.644724
0.665019 0.817639 0.639368
0.666865 0.816007 0.633829
0.669474 0.81474 0.627878
0.673442 0.814084 0.620996
0.678218 0.814221 0.613672
0.683207 0.815244 0.605417
0.68835 0.817502 0.595956
0.693797 0.82121 0.585092
0.715297 0.819135 0.582116
0.737041 0.8177 0.578607
0.758663 0.818051 0.573556
0.780179 0.819669 0.566476
0.801785 0.822919 0.557229
0.823102 0.827543 0.54902
0.844984 0.833417 0.538872
0.867933 0.840391 0.52549
0.89395 0.845823 0.51696
0.928679 0.845594 0.520241
0.961913 0.846586 0.520302
0.99321 0.84863 0.518776
1 0.851591 0.516228
1 0.854261 0.51284
1 0.857084 0.509026
1 0.859983 0.505257
0.684321 0.868788 0.720226
0.685023 0.865766 0.714366
0.686091 0.863005 0.708721
0.687358 0.860578 0.703685
0.688258 0.858137 0.698344
0.689281 0.855756 0.693049
0.69012 0.853468 0.688029
0.691218 0.851377 0.682826
0.692164 0.849317 0.677791
