luts/Arrakis-SLog.cube
TITLE "Generated by Resolve"
LUT_3D_SIZE 5
0 0.0122377 0.0149538
0.303243 0.0075227 0
0.733471 0.126757 0.0237736
1 0.323201 0.121889
1 0.530694 0.228733
0.100725 0.188235 0.130617
0.220691 0.198337 0.0892805
0.645884 0.221546 0.0638437
1 0.353399 0.120012
1 0.53373 0.214557
0.33341 0.483848 0.353109
0.369787 0.4692 0.296605
0.564889 0.492424 0.25272
0.939223 0.525261 0.235508
1 0.629145 0.274617
0.59263 0.777798 0.624048
0.60618 0.756695 0.576608
0.663905 0.756802 0.51931
0.869917 0.783993 0.465126
1 0.811353 0.447425
0.82092 0.990417 0.860609
0.822232 0.974746 0.827024
0.836118 0.965759 0.789059
0.921004 0.96968 0.742596
1 0.992401 0.678599
0.0521553 0.156863 0.164996
0.249165 0.13753 0.197589
0.728206 0.156588 0.221576
1 0.292042 0.242557
1 0.517433 0.328908
0.0884871 0.233326 0.214206
0.239124 0.224475 0.17969
0.639933 0.243336 0.182818
0.990967 0.374792 0.228305
1 0.547112 0.304845
0.30486 0.493523 0.401465
0.386297 0.466072 0.351644
0.558877 0.49366 0.310155
0.93257 0.52607 0.294377
1 0.63032 0.335042
0.588708 0.773968 0.648295
0.608621 0.751675 0.603082
0.657877 0.754711 0.543954
0.862562 0.77998 0.499138
1 0.807416 0.483452
0.817075 0.98674 0.871397
0.820798 0.970413 0.839261
0.837507 0.959915 0.804013
0.915343 0.96643 0.757
1 0.988663 0.698787
0.188952 0.394614 0.429328
0.304768 0.377249 0.420279
0.643168 0.362722 0.524178
1 0.430991 0.591821
1 0.528313 0.595193
0.163149 0.39852 0.422873
0.268315 0.383108 0.386587
0.574243 0.369802 0.454017
0.979202 0.420981 0.49749
1 0.514672 0.495827
0.332601 0.55378 0.525551
0.395651 0.524208 0.481361
0.580163 0.526818 0.444266
0.924132 0.553948 0.451499
1 0.653162 0.48188
0.543648 0.797848 0.717189
0.585641 0.767376 0.675441
0.685481 0.750423 0.625818
0.858396 0.782849 0.574228
1 0.808209 0.553796
0.814099 0.986374 0.900435
0.819898 0.968887 0.867292
0.840238 0.95613 0.832319
0.909148 0.965591 0.780331
1 0.985443 0.728939
0.357244 0.659251 0.725338
0.437385 0.64358 0.693721
0.63859 0.617563 0.756313
0.958343 0.627222 0.851987
1 0.69099 0.90808
0.319173 0.634424 0.693126
0.385153 0.613397 0.658671
0.575891 0.599527 0.681636
0.900359 0.598398 0.782422
1 0.664469 0.83566
0.353338 0.698528 0.738277
0.405982 0.67013 0.699306
0.566506 0.66389 0.663462
0.862181 0.650629 0.73283
1 0.696193 0.760891
0.605097 0.848081 0.829206
0.630289 0.82034 0.79237
0.703441 0.801144 0.756863
0.871122 0.811353 0.727443
1 0.83241 0.721233
0.768246 1 0.964813
0.784207 0.993591 0.936339
0.819562 0.974411 0.907469
0.930022 0.966476 0.866484
1 0.989731 0.817197
0.540032 0.887831 0.961898
0.589502 0.870649 0.937835
0.727047 0.854856 0.938521
0.924788 0.82884 1
1 0.849515 1
0.498558 0.858869 0.931212
0.538613 0.83888 0.905196
0.6692 0.828138 0.88719
0.870893 0.80267 0.958221
1 0.820157 1
0.495964 0.87425 0.9364
0.528969 0.850156 0.907393
0.637613 0.8365 0.877852
0.835889 0.821759 0.90808
1 0.824338 0.976654
0.586603 0.950607 0.987091
0.610651 0.925978 0.958877
0.677791 0.906447 0.930373
0.845212 0.904051 0.899138
1 0.893248 0.948669
0.836118 1 1
0.845457 1 1
0.866072 1 0.988418
0.946349 0.999176 0.963027
1 1 0.94316
