luts/Arrakis-SLog3.cube
TITLE "Generated by Resolve"
LUT_3D_SIZE 33
0.00529488 0.023621 0.0228122
0.0176547 0.0239567 0.0203403
0.032578 0.0222477 0.0240177
0.0542916 0.0202029 0.0271305
0.0780499 0.0201114 0.0294041
0.103288 0.0193484 0.0284276
0.133776 0.0180209 0.0256657
0.172946 0.0164034 0.0213321
0.219165 0.014725 0.0153964
0.267597 0.0184634 0.0124819
0.322377 0.0256657 0.0111391
0.383017 0.0370489 0.0107881
0.448661 0.0511482 0.0117189
0.517571 0.0680858 0.0144961
0.587839 0.0876631 0.0192569
0.658122 0.110185 0.026978
0.726314 0.135409 0.0367742
0.791547 0.163699 0.0487373
0.853162 0.192569 0.0616922
0.910353 0.223377 0.0766918
0.962127 0.255451 0.0927901
1 0.288899 0.11017
1 0.321508 0.127306
1 0.352834 0.143267
1 0.382513 0.158587
1 0.410361 0.173129
1 0.435584 0.186038
1 0.458244 0.197543
1 0.478035 0.207233
1 0.495323 0.216159
1 0.509667 0.223438
1 0.521767 0.229435
1 0.531487 0.234455
0.00758373 0.0325322 0.029572
0.0207218 0.0325322 0.0267185
0.0358129 0.0335241 0.0243534
0.0562753 0.0308843 0.0290684
0.0793774 0.0302892 0.0304112
0.104005 0.0290684 0.0280766
0.133028 0.0278325 0.0248569
0.166598 0.0294499 0.0227512
0.20679 0.0324712 0.0206302
0.254322 0.0377966 0.0190127
0.308858 0.0459449 0.0177615
0.369833 0.0561837 0.0174411
0.435782 0.0689097 0.0182803
0.504967 0.0842451 0.0205539
0.576593 0.100908 0.0242771
0.647883 0.120241 0.0302586
0.717418 0.14287 0.0385595
0.783856 0.168261 0.0490883
0.846143 0.195941 0.0615244
0.903624 0.226123 0.0758984
0.955901 0.257542 0.0916762
1 0.290425 0.108736
1 0.322881 0.126116
1 0.353765 0.141726
1 0.383108 0.157107
1 0.410849 0.171527
1 0.435798 0.184314
1 0.458381 0.195895
1 0.478157 0.205661
1 0.49514 0.214572
1 0.509407 0.221622
1 0.521447 0.227649
1 0.531121 0.232654
0.0133211 0.0427558 0.0352483
0.0275273 0.042359 0.0319371
0.0415351 0.0429389 0.0296483
0.0528115 0.044892 0.0379644
0.0766155 0.0439155 0.0341192
0.0981308 0.0437171 0.0318608
0.123354 0.0442359 0.0297704
0.156527 0.0455787 0.027512
0.196918 0.0486152 0.0255589
0.244419 0.0533761 0.0236362
0.299397 0.0597848 0.0220645
0.360479 0.0679026 0.0207218
0.426856 0.0784314 0.0208133
0.496666 0.0915389 0.0220645
0.568185 0.107301 0.0254673
0.639658 0.126131 0.03122
0.709499 0.147936 0.0392767
0.775982 0.17232 0.0490578
0.838865 0.199527 0.0612955
0.896956 0.228946 0.0754253
0.949554 0.25977 0.0907149
0.997192 0.291981 0.107652
1 0.3243 0.124834
1 0.354711 0.140551
1 0.383993 0.155734
1 0.411276 0.169863
1 0.436027 0.182605
1 0.458442 0.194156
1 0.478187 0.203998
1 0.494957 0.212833
1 0.509133 0.219821
1 0.521111 0.225864
1 0.530755 0.230854
0.0139315 0.0557565 0.0433204
0.0285954 0.0547951 0.039826
0.0444343 0.054902 0.0369421
0.0598154 0.0571145 0.0327306
0.0705119 0.0591592 0.0407568
0.0927443 0.0585336 0.0382849
0.118914 0.0580606 0.0349737
0.152071 0.0587472 0.0319982
0.19205 0.0609293 0.0294499
0.238636 0.0644388 0.0268711
0.292729 0.0699474 0.0249332
0.35317 0.0772106 0.0233463
0.419074 0.0870069 0.0232395
0.488594 0.0992752 0.0242161
0.559976 0.114229 0.0272831
0.631495 0.132189 0.0326085
0.701259 0.153124 0.0399329
0.768368 0.17673 0.0495308
0.831525 0.203235 0.0612192
0.889982 0.231861 0.0749065
0.94316 0.262074 0.0899672
0.99118 0.293706 0.106462
1 0.325673 0.123522
1 0.355901 0.139361
1 0.384817 0.154284
1 0.411719 0.168215
1 0.436255 0.18088
1 0.458518 0.192416
1 0.478111 0.202213
1 0.494789 0.211032
1 0.50901 0.218143
1 0.52076 0.224262
1 0.530373 0.229038
0.0183108 0.0699779 0.051957
0.0339818 0.0686656 0.0482032
0.0514382 0.067689 0.0449989
0.0655375 0.0693675 0.0402686
0.0756542 0.071931 0.0422217
0.0877089 0.0739147 0.0449073
0.113252 0.0733654 0.04271
0.146822 0.0729381 0.038468
0.186267 0.0733959 0.0342412
0.233051 0.0757916 0.0310369
0.286427 0.0799573 0.028336
0.346456 0.0863661 0.0265049
0.411551 0.0949569 0.0256046
0.481041 0.106523 0.0265049
0.5523 0.120897 0.0290684
0.623941 0.137987 0.034226
0.693614 0.157916 0.0408331
0.761105 0.181033 0.0500038
0.824781 0.206744 0.0614786
0.883268 0.234592 0.074403
0.937179 0.264271 0.0893873
0.98555 0.295399 0.10544
1 0.327016 0.122621
1 0.357 0.138293
1 0.38558 0.152941
1 0.412253 0.166796
1 0.436576 0.1794
1 0.458671 0.190875
1 0.478096 0.200809
1 0.494697 0.209445
1 0.50898 0.216678
1 0.520516 0.222629
1 0.530083 0.22742
0.0242771 0.0830701 0.0598917
0.0407263 0.0814984 0.0564126
0.0591897 0.0801404 0.0526436
0.0723278 0.0819715 0.0478981
0.0830396 0.0839857 0.0446784
0.0909743 0.0865797 0.0490425
0.108415 0.0879377 0.0498665
0.141253 0.0870069 0.0459144
0.181323 0.0867781 0.0409705
0.228046 0.087953 0.0365911
0.28101 0.0907454 0.0328222
0.340276 0.0960403 0.0302586
0.405447 0.103563 0.0289464
0.474174 0.113802 0.0289921
0.545266 0.126986 0.0310979
0.616785 0.143145 0.0352789
0.686976 0.162463 0.041825
0.754803 0.184787 0.0506294
0.818448 0.21004 0.061677
0.877546 0.237095 0.0743572
0.931762 0.266377 0.0888991
0.980529 0.296971 0.104616
1 0.328115 0.121584
1 0.357916 0.13724
1 0.386267 0.151766
1 0.412726 0.165545
1 0.436896 0.178119
1 0.458839 0.189563
1 0.47808 0.19971
1 0.494652 0.208072
1 0.508858 0.215274
1 0.520409 0.221286
1 0.530022 0.226154
0.0335699 0.0986648 0.0699931
0.0507362 0.0968185 0.0664225
0.0683299 0.0956588 0.062089
0.080766 0.0969558 0.0574807
0.0881208 0.099733 0.052491
0.099321 0.100084 0.0538338
0.109682 0.103593 0.0556497
0.135943 0.104372 0.0558022
0.175402 0.103532 0.0511025
0.221607 0.103288 0.0448615
0.274861 0.104967 0.0402991
0.33402 0.108614 0.0365454
0.398642 0.114824 0.0342565
0.466926 0.123644 0.0331273
0.53817 0.13576 0.0349889
0.609415 0.150759 0.0383612
0.679805 0.168856 0.043946
0.747631 0.190112 0.0518959
0.811704 0.214008 0.0623178
0.871122 0.240375 0.074464
0.925734 0.268833 0.0884871
0.975082 0.298695 0.104036
1 0.329397 0.12047
1 0.359045 0.136156
1 0.387076 0.150591
1 0.413199 0.164462
1 0.437507 0.17702
1 0.459007 0.188251
1 0.478111 0.19826
1 0.494789 0.206714
1 0.508736 0.213748
1 0.520455 0.219974
1 0.529931 0.224765
0.0475471 0.118914 0.0836042
0.0675517 0.116228 0.0795758
0.0817884 0.116075 0.0747387
0.0929427 0.116915 0.0701915
0.0999466 0.118914 0.0653544
0.108949 0.119875 0.0624094
0.119768 0.120974 0.0647746
0.134508 0.125704 0.0639353
0.168292 0.125521 0.0640421
0.214313 0.124788 0.0585336
0.267185 0.124788 0.0521706
0.326482 0.126864 0.0469825
0.390692 0.13135 0.0432136
0.458717 0.138277 0.0409552
0.529427 0.148669 0.0412909
0.600565 0.162081 0.0433967
0.671031 0.178561 0.0480507
0.73904 0.198291 0.054963
0.803388 0.221012 0.0644541
0.8636 0.246189 0.0761425
0.918593 0.273472 0.0893873
0.968185 0.302358 0.104097
1 0.332082 0.119875
1 0.360998 0.135515
1 0.388495 0.149737
1 0.414237 0.163287
1 0.438163 0.175814
1 0.459449 0.186755
1 0.478279 0.196536
1 0.494911 0.205051
1 0.508568 0.212024
1 0.520195 0.218067
1 0.52961 0.223056
0.0687266 0.142779 0.0999008
0.0869306 0.140703 0.0953078
0.0981918 0.140536 0.0906386
0.108232 0.140963 0.0860456
0.115236 0.142153 0.081178
0.119005 0.144472 0.0765393
0.13257 0.144091 0.0744488
0.145541 0.146304 0.0776989
0.164126 0.152041 0.0739452
0.205661 0.150835 0.0743725
0.258183 0.150088 0.0682841
0.317754 0.150576 0.0616922
0.381765 0.152926 0.0560311
0.449775 0.15819 0.0524147
0.520165 0.166445 0.0509041
0.591287 0.177798 0.0516365
0.661707 0.192432 0.054963
0.730114 0.210636 0.0608377
0.794553 0.231617 0.0690623
0.855161 0.255238 0.0797742
0.910582 0.281041 0.0919966
0.960723 0.308522 0.105837
1 0.336812 0.120562
1 0.365377 0.135729
1 0.392096 0.14963
1 0.417166 0.162768
1 0.440497 0.175128
1 0.461357 0.186206
1 0.479805 0.195499
1 0.496147 0.203891
1 0.509544 0.21088
1 0.520989 0.216709
1 0.530236 0.221668
0.0972763 0.17113 0.119829
0.108217 0.170092 0.114748
0.11809 0.16968 0.109834
0.126711 0.169482 0.104921
0.133562 0.170184 0.100496
0.138231 0.171542 0.0960555
0.143725 0.173281 0.0916762
0.160967 0.172625 0.0902724
0.176349 0.17615 0.0928054
0.200183 0.18233 0.0880598
0.248981 0.180758 0.0877699
0.307118 0.179873 0.0809949
0.371771 0.180758 0.0738689
0.439796 0.183627 0.0683299
0.510246 0.189654 0.0649119
0.58146 0.198901 0.0638895
0.651774 0.211307 0.0655985
0.720088 0.227237 0.0696422
0.78526 0.246296 0.0766003
0.846006 0.268055 0.0856641
0.901823 0.29218 0.0967117
0.952438 0.318044 0.109483
0.99762 0.345083 0.123476
1 0.37232 0.137881
1 0.398199 0.1514
1 0.422538 0.164172
1 0.445121 0.175738
1 0.46537 0.186297
1 0.483421 0.195697
1 0.499245 0.204074
1 0.512337 0.210605
1 0.523476 0.216587
1 0.532616 0.221164
0.123186 0.205066 0.142657
0.132586 0.203845 0.13756
0.141482 0.203098 0.13254
0.149416 0.202792 0.127886
0.155749 0.202991 0.12343
0.160479 0.203647 0.119356
0.163867 0.204837 0.114275
0.174533 0.205661 0.109651
0.193606 0.205905 0.108812
0.212146 0.2103 0.110109
0.241825 0.216571 0.104799
0.296651 0.214939 0.103777
0.36022 0.214282 0.0964675
0.428702 0.21561 0.0893111
0.499382 0.219074 0.0838636
0.570871 0.225834 0.0807813
0.641398 0.235843 0.0802167
0.709682 0.249317 0.0824445
0.775021 0.265812 0.0872969
0.836454 0.285573 0.0951247
0.892576 0.307652 0.104524
0.943587 0.33164 0.115908
0.989258 0.356924 0.128649
1 0.383169 0.142504
1 0.407599 0.155261
1 0.431006 0.16762
1 0.452583 0.178531
1 0.472206 0.188769
1 0.489632 0.197543
1 0.504829 0.205524
1 0.517693 0.212039
1 0.528496 0.217838
1 0.537285 0.222293
0.1523 0.243397 0.169238
0.160555 0.241932 0.164019
0.168338 0.240925 0.159045
0.175433 0.240269 0.154391
0.181277 0.24007 0.149874
0.18587 0.240192 0.145983
0.189807 0.240879 0.141238
0.193606 0.242741 0.134646
0.210025 0.242222 0.130785
0.23122 0.243275 0.130556
0.252781 0.248936 0.129961
0.288228 0.254994 0.123842
0.34818 0.253407 0.122332
0.416251 0.253193 0.115251
0.487266 0.254597 0.10808
0.55903 0.258808 0.102464
0.630137 0.266209 0.0996567
0.699092 0.277043 0.0997177
0.76463 0.291295 0.10277
0.826108 0.308202 0.108324
0.882902 0.328206 0.116091
0.934478 0.349905 0.125994
0.98056 0.373144 0.137194
1 0.397559 0.149828
1 0.420813 0.1617
1 0.442985 0.17322
1 0.463569 0.18352
1 0.482231 0.193133
1 0.499031 0.201892
1 0.513436 0.209125
1 0.525887 0.215625
1 0.535973 0.220722
1 0.544533 0.22533
0.184604 0.285771 0.199466
0.191791 0.284062 0.194324
0.198718 0.28278 0.189364
0.20502 0.281834 0.184512
0.210224 0.281285 0.180117
0.214542 0.281025 0.175982
0.218509 0.281102 0.171649
0.222782 0.281743 0.165774
0.226505 0.28455 0.157412
0.250233 0.282689 0.154711
0.272725 0.284611 0.154269
0.298253 0.291218 0.151965
0.338643 0.297475 0.145785
0.403494 0.29604 0.144045
0.474281 0.295811 0.136904
0.546838 0.29807 0.129885
0.618204 0.302953 0.124559
0.687648 0.310964 0.122316
0.753841 0.322286 0.122835
0.815793 0.33637 0.126116
0.873091 0.353674 0.131792
0.925063 0.373236 0.139834
0.971618 0.394217 0.149477
1 0.416526 0.160464
1 0.438285 0.171374
1 0.458991 0.181689
1 0.47834 0.191592
1 0.495995 0.200351
1 0.511635 0.208591
1 0.52517 0.21532
1 0.537026 0.221561
1 0.546975 0.226291
1 0.554955 0.230442
0.219547 0.33138 0.233371
0.225666 0.329671 0.227832
0.231815 0.328161 0.223026
0.237385 0.32697 0.218112
0.242359 0.326009 0.213733
0.246143 0.325429 0.209659
0.25008 0.324926 0.205249
0.253849 0.324773 0.199496
0.258335 0.325978 0.192462
0.267872 0.328099 0.184894
0.294209 0.326802 0.181323
0.319127 0.329686 0.181048
0.347677 0.337469 0.176471
0.392889 0.343038 0.170275
0.460655 0.341878 0.168612
0.532982 0.342458 0.161547
0.60528 0.3449 0.154604
0.675532 0.35024 0.149676
0.742214 0.358694 0.147906
0.804852 0.370245 0.148745
0.862608 0.38468 0.152285
0.915099 0.401556 0.158145
0.96202 0.419974 0.165347
1 0.439918 0.174884
1 0.460212 0.18471
1 0.47895 0.193881
1 0.496818 0.202426
1 0.513313 0.210697
1 0.528069 0.217868
1 0.540749 0.224201
1 0.551843 0.229648
1 0.561044 0.234424
1 0.568551 0.238361
0.257053 0.380133 0.270344
0.262516 0.378012 0.264851
0.26775 0.376287 0.260029
0.272755 0.374823 0.255039
0.277073 0.373648 0.250706
0.280766 0.372763 0.246601
0.284245 0.37203 0.242374
0.288258 0.371389 0.236728
0.292165 0.371389 0.230411
0.297276 0.37348 0.221881
0.313329 0.374289 0.215396
0.341772 0.373465 0.210422
0.368399 0.377539 0.209766
0.400092 0.386221 0.203021
0.449897 0.391684 0.197482
0.519097 0.390463 0.195377
0.591485 0.391455 0.188815
0.662104 0.394537 0.182284
0.729915 0.400275 0.177829
0.793347 0.40914 0.176349
0.851499 0.420508 0.177035
0.904662 0.434501 0.180484
0.952224 0.450584 0.186099
0.994629 0.467964 0.193606
1 0.486305 0.201831
1 0.503456 0.209674
1 0.519707 0.217029
1 0.534615 0.22414
1 0.548058 0.23064
1 0.559991 0.236332
1 0.570199 0.241474
1 0.578698 0.245792
1 0.585718 0.249012
0.296635 0.430579 0.310155
0.30135 0.42829 0.304631
0.305959 0.426505 0.299916
0.310597 0.424964 0.295033
0.314382 0.423651 0.290822
0.317571 0.422599 0.286625
0.320851 0.421561 0.282139
0.324392 0.420554 0.276753
0.328115 0.419715 0.270695
0.332815 0.420325 0.262852
0.338323 0.423102 0.252689
0.361852 0.422248 0.2477
0.392355 0.422324 0.241688
0.420478 0.427512 0.240635
0.45481 0.437003 0.23151
0.507591 0.441993 0.226749
0.577188 0.441077 0.224735
0.648249 0.442527 0.218692
0.716548 0.446006 0.212451
0.780835 0.452094 0.208469
0.840177 0.461128 0.207156
0.89398 0.472343 0.208118
0.942336 0.485588 0.211292
0.984985 0.500496 0.216434
1 0.516381 0.222934
1 0.531762 0.229374
1 0.546197 0.235492
1 0.559564 0.241459
1 0.571939 0.247257
1 0.582513 0.251865
1 0.591806 0.256184
1 0.599619 0.259876
1 0.606058 0.262928
0.338125 0.482429 0.352544
0.342092 0.480079 0.347158
0.34609 0.47805 0.342061
0.34995 0.476173 0.337255
0.352987 0.474754 0.332494
0.355901 0.473442 0.328725
0.358999 0.47216 0.324239
0.362219 0.470817 0.319097
0.365682 0.469535 0.312917
0.369894 0.46891 0.305898
0.375357 0.470298 0.296956
0.382284 0.474372 0.285466
0.412711 0.471611 0.281727
0.445014 0.472892 0.274617
0.474525 0.478859 0.272862
0.510826 0.48893 0.261463
0.565393 0.493339 0.258015
0.634043 0.492744 0.256168
0.702678 0.494606 0.250462
0.767605 0.498436 0.244694
0.828046 0.504967 0.241337
0.882582 0.513512 0.239628
0.931563 0.524132 0.240726
0.974701 0.536431 0.243366
1 0.549935 0.247684
1 0.563699 0.252979
1 0.576318 0.257801
1 0.588083 0.262242
1 0.598962 0.266911
1 0.608545 0.271107
1 0.616861 0.274571
1 0.623804 0.27776
1 0.629725 0.280064
0.380484 0.534279 0.396216
0.383719 0.531777 0.391058
0.387198 0.529625 0.385946
0.390524 0.527642 0.381216
0.393286 0.526024 0.376455
0.395697 0.524651 0.372564
0.398413 0.523186 0.368338
0.401541 0.521569 0.362936
0.4047 0.520211 0.357427
0.40827 0.518959 0.350927
0.41326 0.518975 0.342443
0.419318 0.521035 0.331716
0.433753 0.523323 0.322042
0.465446 0.521401 0.317601
0.498482 0.523873 0.310399
0.529686 0.530785 0.306767
0.566659 0.541115 0.293141
0.622492 0.544793 0.290547
0.688899 0.544549 0.289067
0.754086 0.546777 0.28394
0.81471 0.550896 0.278798
0.870359 0.557412 0.275273
0.920241 0.56553 0.273991
0.964019 0.575418 0.274372
1 0.586755 0.276844
1 0.598367 0.280354
1 0.60914 0.283604
1 0.619562 0.286809
1 0.629053 0.290333
1 0.637125 0.293294
1 0.64448 0.29601
1 0.650614 0.298558
1 0.656001 0.30074
0.42327 0.585397 0.441062
0.425971 0.582864 0.435798
0.428931 0.580621 0.430945
0.431785 0.578592 0.425956
0.434287 0.576898 0.421637
0.436515 0.575677 0.41796
0.438926 0.574105 0.413809
0.441688 0.572305 0.408606
0.444526 0.570443 0.40293
0.447196 0.568719 0.396368
0.451484 0.567803 0.388693
0.45745 0.568597 0.379477
0.464225 0.572091 0.367437
0.486366 0.571923 0.360037
0.519265 0.571283 0.354498
0.552163 0.574472 0.346654
0.584436 0.581994 0.340856
0.621851 0.592615 0.32578
0.677241 0.595651 0.324529
0.740566 0.595697 0.32314
0.801663 0.598169 0.318822
0.857755 0.602472 0.313909
0.908324 0.608652 0.310765
0.95317 0.616236 0.309209
0.992172 0.625406 0.309712
1 0.635096 0.311315
1 0.644495 0.313115
1 0.652949 0.3149
1 0.661006 0.317205
1 0.668299 0.319249
1 0.674495 0.321294
1 0.679805 0.322881
1 0.684169 0.324315
0.46598 0.635065 0.486198
0.468193 0.632517 0.480903
0.470863 0.630426 0.476417
0.473365 0.628504 0.471611
0.475517 0.626688 0.467079
0.477287 0.625132 0.463523
0.47924 0.623499 0.459236
0.481636 0.621561 0.454337
0.484184 0.619562 0.448508
0.486442 0.617609 0.442222
0.489754 0.616037 0.43508
0.495171 0.615702 0.426352
0.501778 0.617456 0.415839
0.508659 0.622202 0.402625
0.539483 0.619486 0.398154
0.572595 0.619837 0.39176
0.605203 0.623957 0.383185
0.637781 0.631983 0.375647
0.674968 0.642741 0.359091
0.729229 0.644968 0.359289
0.78883 0.645258 0.358144
0.845273 0.647944 0.354116
0.896422 0.652308 0.350118
0.941558 0.65803 0.346807
0.981552 0.665171 0.345632
1 0.672938 0.345129
1 0.680858 0.345922
1 0.688151 0.346578
1 0.694606 0.347082
1 0.700603 0.348241
1 0.705959 0.349248
1 0.710643 0.350607
1 0.714336 0.351339
0.508309 0.682887 0.530816
0.510109 0.680323 0.525963
0.512062 0.678126 0.520989
0.514046 0.67602 0.516487
0.515969 0.674144 0.512169
0.517617 0.672557 0.508354
0.519158 0.670878 0.504509
0.521279 0.668971 0.499535
0.523583 0.66714 0.494285
0.525795 0.665003 0.487953
0.528298 0.662974 0.481361
0.532692 0.661906 0.473487
0.538781 0.662394 0.463996
0.546044 0.665141 0.452079
0.55964 0.667781 0.440604
0.592203 0.665705 0.43624
0.624872 0.666697 0.428428
0.656611 0.671641 0.41976
0.689433 0.679957 0.410239
0.725643 0.690623 0.392203
0.777966 0.692088 0.393881
0.833021 0.692912 0.393256
0.88426 0.695354 0.389899
0.930266 0.699535 0.386084
0.970275 0.704784 0.383169
1 0.711131 0.381659
1 0.717632 0.381033
1 0.723629 0.38027
1 0.729168 0.379965
1 0.734005 0.380255
1 0.738369 0.380316
1 0.742123 0.380514
1 0.745144 0.380911
0.549111 0.727565 0.574182
0.550439 0.725078 0.569436
0.552041 0.722911 0.564614
0.553964 0.721004 0.560494
0.555673 0.719203 0.55642
0.557061 0.717617 0.552728
0.558526 0.715892 0.548943
0.560037 0.713985 0.543847
0.561746 0.711864 0.538659
0.563714 0.709621 0.532616
0.565759 0.707332 0.526329
0.569543 0.705943 0.519097
0.574884 0.705486 0.510201
0.581506 0.706645 0.499519
0.588754 0.710536 0.486641
0.611246 0.710781 0.478614
0.643076 0.709361 0.473365
0.675029 0.711345 0.464149
0.706233 0.716854 0.455131
0.738369 0.725322 0.443946
0.772961 0.735744 0.425162
0.822766 0.736461 0.428733
0.873121 0.737499 0.428367
0.918898 0.739986 0.425269
0.959472 0.743755 0.421927
0.994751 0.748623 0.419577
1 0.754086 0.417746
1 0.758755 0.41593
1 0.763104 0.414679
1 0.767178 0.413809
1 0.770657 0.413016
1 0.773648 0.412467
1 0.776257 0.412482
0.588144 0.769284 0.615732
0.589471 0.766842 0.611124
0.590799 0.764691 0.606668
0.592111 0.762661 0.602289
0.593408 0.760815 0.598505
0.5944 0.759304 0.594766
0.595804 0.757717 0.590982
0.597436 0.755871 0.586664
0.599069 0.753719 0.581353
0.600595 0.751461 0.575723
0.601968 0.749187 0.56965
0.604746 0.747189 0.562524
0.609415 0.746105 0.554437
0.615564 0.746441 0.544915
0.622797 0.748745 0.533379
0.630014 0.753765 0.519188
0.661067 0.750607 0.515358
0.692027 0.75024 0.508827
0.722988 0.753353 0.498939
0.753002 0.759106 0.489296
0.783948 0.76759 0.476478
0.816815 0.777813 0.458259
0.863355 0.777584 0.462837
0.908583 0.778668 0.462593
0.949157 0.78117 0.459907
0.984573 0.784756 0.457237
1 0.789014 0.454704
1 0.792813 0.452415
1 0.796201 0.450278
1 0.79942 0.448508
1 0.802197 0.447333
1 0.804562 0.446159
1 0.806699 0.445533
0.624811 0.807187 0.654704
0.625895 0.804807 0.650355
0.627115 0.80296 0.646067
0.62829 0.800961 0.641871
0.629404 0.79913 0.638209
0.63035 0.797589 0.634791
0.631205 0.795987 0.631067
0.632258 0.794064 0.626581
0.633921 0.792203 0.621744
0.635325 0.789929 0.616388
0.636759 0.787549 0.610574
0.63856 0.785397 0.603738
0.642176 0.783932 0.596338
0.647837 0.783505 0.587549
0.654612 0.78468 0.577173
0.662104 0.787945 0.564767
0.67805 0.789685 0.554147
0.708598 0.787762 0.549783
0.738338 0.788403 0.542489
0.768109 0.79202 0.531609
0.796582 0.798367 0.521492
0.82594 0.806638 0.507378
0.856214 0.815885 0.490639
0.899809 0.815396 0.495689
0.939696 0.816526 0.495567
0.975158 0.818814 0.493324
1 0.82179 0.49099
1 0.825055 0.488563
1 0.82768 0.485817
1 0.830091 0.483589
1 0.832242 0.481575
1 0.834104 0.479927
1 0.835843 0.478813
0.659098 0.841459 0.69073
0.659876 0.839124 0.686503
0.661006 0.837354 0.682643
0.661692 0.835477 0.678767
0.662577 0.833738 0.674983
0.663386 0.832227 0.671687
0.66424 0.830594 0.66833
0.665309 0.828656 0.663951
0.666514 0.826871 0.659373
0.66772 0.824643 0.653971
0.66891 0.822293 0.648447
0.670176 0.820005 0.642206
0.673091 0.81825 0.635065
0.677958 0.817334 0.626917
0.684169 0.8177 0.617487
0.691463 0.819715 0.60647
0.698543 0.82417 0.592676
0.723918 0.822492 0.587045
0.75288 0.821439 0.581537
0.781506 0.823224 0.573434
0.809812 0.827497 0.561624
0.836683 0.833799 0.551171
0.864149 0.841749 0.536461
0.89305 0.849714 0.522484
0.932128 0.849287 0.526925
0.966842 0.850401 0.526894
0.997131 0.852369 0.525017
1 0.854902 0.523064
1 0.856962 0.520241
1 0.858747 0.517464
1 0.860319 0.515145
1 0.86186 0.513497
1 0.863035 0.511849
0.690242 0.871809 0.723735
0.690974 0.869871 0.719707
0.691722 0.867872 0.715999
0.692348 0.866056 0.711925
0.693095 0.864363 0.708324
0.693751 0.862867 0.705455
0.694484 0.861326 0.701961
0.695583 0.859648 0.698268
0.696345 0.857679 0.693355
0.697337 0.855467 0.688472
0.698222 0.853208 0.682918
0.699123 0.850889 0.67715
0.701671 0.849165 0.670481
0.705898 0.847898 0.662943
0.711482 0.8477 0.654261
0.717952 0.84863 0.64387
0.725338 0.851652 0.631907
0.73846 0.854353 0.620661
0.766781 0.851896 0.616678
0.794064 0.851881 0.610239
0.821103 0.854505 0.601083
0.847654 0.859068 0.588785
0.872816 0.865538 0.577981
0.898405 0.873304 0.562646
0.92575 0.87953 0.552224
0.959838 0.879377 0.555825
0.989685 0.880415 0.55584
1 0.88217 0.554467
1 0.883619 0.552285
1 0.884916 0.549584
1 0.886091 0.547112
1 0.88719 0.545083
1 0.887953 0.543404
0.718563 0.898405 0.753353
0.718898 0.896315 0.749233
0.719295 0.894499 0.745281
0.720027 0.89279 0.741894
0.720745 0.891279 0.738537
0.721279 0.889845 0.735683
0.721752 0.88835 0.732326
0.722393 0.886549 0.728206
0.72314 0.88455 0.723949
0.724025 0.88246 0.719066
0.724865 0.880446 0.713954
0.725689 0.878111 0.708232
0.727291 0.876036 0.702159
0.7308 0.874525 0.695079
0.735775 0.873899 0.687037
0.742275 0.874388 0.677684
0.749294 0.876493 0.666728
0.756069 0.880415 0.6533
0.779263 0.879347 0.64773
0.806043 0.878035 0.64268
0.832197 0.879164 0.635782
0.857267 0.882383 0.625528
0.881941 0.887434 0.613611
0.905425 0.893645 0.601358
0.928695 0.900969 0.586206
0.954101 0.905531 0.579293
0.983459 0.905592 0.581979
1 0.906538 0.582132
1 0.907485 0.580819
1 0.9084 0.578607
1 0.909255 0.576349
1 0.909911 0.574197
1 0.910613 0.572732
0.743297 0.921279 0.77911
0.743618 0.919234 0.775082
0.744076 0.917388 0.771481
0.744381 0.915709 0.767849
0.744732 0.914153 0.764553
0.745281 0.912993 0.762142
0.745754 0.911528 0.758923
0.746303 0.909758 0.755016
0.746792 0.907851 0.750805
