luts/Arrakis-SLog3.cube
TITLE "Generated by Resolve"
LUT_3D_SIZE 5
0.00529488 0.023621 0.0228122
0.219165 0.014725 0.0153964
0.726314 0.135409 0.0367742
1 0.382513 0.158587
1 0.531487 0.234455
0.0687266 0.142779 0.0999008
0.164126 0.152041 0.0739452
0.661707 0.192432 0.054963
1 0.392096 0.14963
1 0.530236 0.221668
0.338125 0.482429 0.352544
0.365682 0.469535 0.312917
0.565393 0.493339 0.258015
1 0.549935 0.247684
1 0.629725 0.280064
0.659098 0.841459 0.69073
0.666514 0.826871 0.659373
0.698543 0.82417 0.592676
0.932128 0.849287 0.526925
1 0.863035 0.511849
0.8206 0.988602 0.858366
0.821836 0.977172 0.83418
0.836362 0.965301 0.790234
0.955596 0.973983 0.728496
1 0.992172 0.680247
0.0418555 0.120272 0.123857
0.177829 0.106844 0.146181
0.734615 0.127657 0.150591
1 0.369558 0.233127
1 0.527718 0.299916
0.0649577 0.178653 0.162203
0.180026 0.174289 0.139132
0.656184 0.209903 0.143374
1 0.406149 0.222492
1 0.539712 0.284031
0.331853 0.483879 0.384558
0.373205 0.467781 0.347341
0.560769 0.493629 0.296864
1 0.550286 0.289815
1 0.630396 0.323766
0.656489 0.838361 0.705104
0.666407 0.823224 0.674754
0.706996 0.816556 0.614389
0.927062 0.846189 0.548379
1 0.859907 0.534218
0.818082 0.98584 0.866438
0.820584 0.97409 0.843091
0.837537 0.960998 0.801221
0.951965 0.970916 0.740917
1 0.989441 0.695079
0.192432 0.391455 0.423713
0.268299 0.382635 0.404074
0.637903 0.362615 0.518929
1 0.456321 0.591226
1 0.527016 0.588129
0.170138 0.386725 0.412665
0.239261 0.375586 0.387243
0.584772 0.361151 0.465278
1 0.443534 0.520775
1 0.514611 0.515862
0.338704 0.551766 0.522301
0.383154 0.529641 0.489937
0.58114 0.527718 0.445121
0.995331 0.578042 0.45803
1 0.653605 0.482521
0.621302 0.852857 0.766537
0.650217 0.831281 0.73753
0.725109 0.81091 0.682216
0.920546 0.845304 0.613825
1 0.857923 0.596185
0.814343 0.984695 0.89752
0.818662 0.971984 0.873838
0.840406 0.956115 0.832349
0.946807 0.967117 0.771603
1 0.985428 0.729107
0.405325 0.720699 0.790524
0.448875 0.707317 0.768673
0.652964 0.684443 0.800885
1 0.691936 0.916945
1 0.722469 0.963714
0.375051 0.697368 0.763256
0.412604 0.682063 0.739895
0.606378 0.665064 0.750561
0.976638 0.666316 0.870939
1 0.703456 0.91841
0.39089 0.742855 0.791028
0.424353 0.722698 0.764446
0.580087 0.709102 0.723262
0.927413 0.69659 0.807141
1 0.727947 0.836576
0.674647 0.908248 0.891661
0.688212 0.889662 0.867613
0.746502 0.865324 0.828931
0.930571 0.873655 0.793896
1 0.88275 0.785489
0.770809 1 0.981888
0.780545 1 0.96228
0.81529 0.98439 0.930053
0.962142 0.974762 0.883452
1 0.992828 0.848997
0.538628 0.883162 0.956786
0.568734 0.870359 0.939864
0.72256 0.852171 0.934478
0.983078 0.834073 1
1 0.847074 1
0.507271 0.86009 0.932784
0.533257 0.845914 0.914839
0.679835 0.831418 0.897017
0.945922 0.80824 0.985397
1 0.825467 1
0.498955 0.872129 0.93402
0.522454 0.854566 0.912856
0.638041 0.836545 0.877806
0.895842 0.812726 0.937926
1 0.824445 0.976577
0.638132 0.974731 1
0.652583 0.957671 0.981201
0.710689 0.933669 0.948852
0.906889 0.930709 0.910735
1 0.921263 0.944869
0.83682 1 1
0.843458 1 1
0.866224 1 0.988357
0.974609 0.999435 0.957229
1 1 0.94316
