luts/Arrakis-SLog2.cube
TITLE "Generated by Resolve"
LUT_3D_SIZE 9
0 0.0122377 0.0149538
0.125246 0.00503548 0.0148013
0.366506 0.0172274 0
0.602609 0.0788281 0.00668345
0.810544 0.161837 0.0394751
0.977722 0.257542 0.0872816
1 0.359091 0.14081
1 0.452491 0.188952
1 0.530694 0.228733
0.0167697 0.0890822 0.0630808
0.0974289 0.0930953 0.0435187
0.31284 0.0975357 0.0246433
0.548562 0.129503 0.0221103
0.763867 0.188769 0.0422217
0.939254 0.271214 0.0821088
1 0.365103 0.132464
1 0.45362 0.1794
1 0.528939 0.218357
0.13196 0.228016 0.1579
0.173465 0.225422 0.126635
0.268513 0.237949 0.109026
0.498451 0.238804 0.0897078
0.716365 0.26656 0.0848707
0.897734 0.322133 0.105013
1 0.39733 0.142458
1 0.473182 0.182071
1 0.54049 0.217014
0.255268 0.38616 0.274556
0.283726 0.376791 0.243641
0.331701 0.376761 0.212009
0.454582 0.395346 0.194476
0.674296 0.398978 0.178943
0.861753 0.425925 0.174228
1 0.475334 0.191394
1 0.533303 0.218173
1 0.586908 0.244343
0.384833 0.546044 0.405951
0.403525 0.533501 0.375296
0.421836 0.529442 0.341176
0.504982 0.532647 0.314031
0.632929 0.554131 0.292195
0.823865 0.56051 0.28098
0.974411 0.585779 0.27631
1 0.623636 0.286549
1 0.660777 0.299962
0.514214 0.694087 0.541192
0.525628 0.680934 0.512596
0.536873 0.67126 0.482628
0.566979 0.676204 0.445747
0.666102 0.680629 0.423789
0.787289 0.700938 0.397177
0.940948 0.708965 0.389258
1 0.729305 0.383551
1 0.751415 0.383154
0.634379 0.820233 0.668101
0.640742 0.807813 0.642252
0.646922 0.797253 0.616236
0.663432 0.795514 0.586252
0.71902 0.798062 0.558297
0.806241 0.808743 0.52929
0.91043 0.826032 0.502388
1 0.83386 0.496651
1 0.844251 0.486107
0.73843 0.919203 0.776547
0.740993 0.908339 0.754101
0.744137 0.898512 0.731502
0.753719 0.893309 0.708064
0.773587 0.899016 0.674662
0.845243 0.897536 0.656794
0.917891 0.910857 0.622736
1 0.924208 0.599374
1 0.927001 0.591959
0.82092 0.990417 0.860609
0.821363 0.98114 0.841398
0.822568 0.97261 0.822049
0.827405 0.966552 0.803265
0.843366 0.966934 0.778393
0.879835 0.96994 0.752621
0.942901 0.972061 0.733501
1 0.985885 0.697353
1 0.992401 0.678599
0.0162661 0.0747539 0.0803693
0.0997177 0.0621805 0.0935531
0.34876 0.0582589 0.109224
0.610864 0.0677348 0.0846723
0.818799 0.139605 0.0979782
0.980621 0.243931 0.140703
1 0.352743 0.191043
1 0.451286 0.236408
1 0.532952 0.274067
0.0184176 0.11574 0.108019
0.107744 0.113634 0.091249
0.320272 0.107042 0.0926528
0.545663 0.142443 0.0912337
0.757961 0.204715 0.108675
0.934188 0.284855 0.142153
1 0.376135 0.186786
1 0.462348 0.228702
1 0.53579 0.264256
0.103487 0.241062 0.186923
0.186038 0.227878 0.164782
0.269505 0.243473 0.151034
0.496498 0.24477 0.135058
0.711559 0.273518 0.133715
0.892744 0.329473 0.154177
1 0.404105 0.190707
1 0.479362 0.228
1 0.545464 0.260655
0.247379 0.38851 0.299794
0.289662 0.376471 0.271397
0.32958 0.380682 0.236011
0.451774 0.39707 0.228214
0.670771 0.400473 0.213413
0.857923 0.427955 0.211109
1 0.477653 0.229618
1 0.53576 0.256672
1 0.589044 0.282139
0.383169 0.545098 0.426337
0.406226 0.531685 0.397116
0.432593 0.524742 0.366201
0.503944 0.532235 0.335637
0.628931 0.553628 0.3196
0.820356 0.559686 0.308354
0.970993 0.585107 0.305165
1 0.62324 0.316732
1 0.660578 0.330846
0.512535 0.692149 0.556985
0.526665 0.678538 0.52929
0.541314 0.667643 0.500923
0.56997 0.672969 0.464836
0.664973 0.678401 0.440848
0.783154 0.699168 0.419257
0.937652 0.707027 0.411292
1 0.727398 0.406455
1 0.749706 0.40679
0.632593 0.817914 0.679637
0.640543 0.805142 0.654582
0.64863 0.794079 0.629511
0.668086 0.790906 0.60148
0.714626 0.797375 0.570001
0.803738 0.806088 0.544503
0.906508 0.823804 0.519631
1 0.831556 0.514153
1 0.842054 0.503975
0.73666 0.916945 0.784802
0.740154 0.905837 0.762875
0.744625 0.895766 0.741283
0.755489 0.889769 0.718883
0.778485 0.893889 0.688258
0.841886 0.895659 0.667002
0.915206 0.908095 0.635859
0.997116 0.921843 0.613062
1 0.924743 0.605829
0.819013 0.988434 0.866529
0.820233 0.978943 0.847959
0.822187 0.970306 0.829099
0.827604 0.963775 0.81091
0.845212 0.963317 0.787396
0.875425 0.969177 0.759136
0.9402 0.969879 0.742565
0.998032 0.983352 0.708461
1 0.990463 0.689754
0.0693065 0.188418 0.198672
0.136934 0.180148 0.192447
0.30576 0.166613 0.239902
0.565728 0.168505 0.272541
0.804364 0.19646 0.272038
0.985016 0.241947 0.270207
1 0.322606 0.28748
1 0.425406 0.323934
1 0.510536 0.353887
0.0532845 0.197742 0.203769
0.126802 0.193362 0.186938
0.277699 0.184741 0.21532
0.525109 0.187991 0.237949
0.765621 0.209384 0.22977
0.947631 0.262043 0.23209
1 0.360143 0.269718
1 0.452567 0.305577
1 0.530694 0.336294
0.120928 0.27808 0.255848
0.184527 0.266117 0.234012
0.28806 0.26627 0.214115
0.504341 0.260441 0.221988
0.708003 0.290684 0.219532
0.88574 0.347143 0.236027
1 0.419944 0.265919
1 0.49218 0.297139
1 0.55584 0.324437
0.214435 0.41236 0.345647
0.268559 0.395544 0.321294
0.351293 0.382803 0.295003
0.452781 0.404578 0.283543
0.669337 0.407065 0.266926
0.853254 0.434211 0.264317
0.996628 0.483177 0.281559
1 0.540703 0.306554
1 0.593576 0.329809
0.354269 0.555901 0.460441
0.403876 0.535317 0.433707
0.439994 0.52433 0.402579
0.50103 0.535729 0.365515
0.625391 0.554742 0.355901
0.816831 0.560174 0.342855
0.967178 0.585138 0.33994
1 0.623178 0.351629
1 0.660792 0.365469
0.509392 0.691829 0.580697
0.525414 0.677485 0.552132
0.543755 0.665476 0.523964
0.581369 0.66659 0.491569
0.663142 0.676539 0.462409
0.77879 0.697322 0.443778
0.933761 0.704952 0.435294
1 0.725307 0.430701
1 0.747692 0.432471
0.629847 0.815961 0.694255
0.63888 0.802823 0.669291
0.648905 0.79115 0.644327
0.671458 0.786374 0.618128
0.708247 0.796979 0.582055
0.801175 0.803021 0.560143
0.902342 0.821103 0.538231
1 0.828779 0.532815
1 0.839399 0.523293
0.733791 0.914626 0.794156
0.738415 0.903441 0.772931
0.743847 0.893019 0.751583
0.755901 0.886198 0.730053
0.782544 0.888624 0.702068
0.838117 0.893828 0.677791
0.9122 0.905135 0.649409
0.993545 0.919249 0.628046
1 0.922103 0.620905
0.816327 0.986175 0.873106
0.818311 0.976761 0.855024
0.82121 0.967742 0.836683
0.82707 0.960723 0.819104
0.846448 0.959396 0.796826
0.869764 0.968231 0.765438
0.937179 0.96759 0.752056
0.995209 0.980362 0.720272
1 0.988037 0.701885
0.142397 0.314458 0.338628
0.196475 0.307362 0.319722
0.31133 0.28954 0.362661
0.520699 0.285145 0.413779
0.761212 0.292638 0.457313
0.95555 0.340673 0.472374
1 0.389502 0.480766
1 0.43714 0.47895
1 0.480522 0.471153
0.121767 0.308812 0.328649
0.176608 0.300862 0.309697
0.284672 0.294209 0.323232
0.480095 0.286748 0.375296
0.719524 0.297261 0.410849
0.922332 0.336187 0.420432
1 0.383536 0.426352
1 0.431083 0.423575
1 0.504021 0.440406
0.1337 0.352331 0.3608
0.190158 0.340566 0.338857
0.282979 0.338354 0.318334
0.457237 0.328328 0.351278
0.686 0.333471 0.372732
0.890867 0.35816 0.371603
1 0.398581 0.37142
1 0.472923 0.394217
1 0.540948 0.416022
0.249943 0.45069 0.422538
0.293278 0.43415 0.39707
0.353887 0.422629 0.373312
0.473091 0.42887 0.354376
0.674937 0.426505 0.363958
0.849088 0.454673 0.362707
0.989395 0.503426 0.37673
1 0.559106 0.398032
1 0.608881 0.416297
0.337667 0.582666 0.51635
0.374624 0.56434 0.490333
0.421134 0.548119 0.465278
0.523384 0.541695 0.438163
0.627832 0.564965 0.425116
0.817105 0.569253 0.409705
0.96408 0.593423 0.406561
1 0.630854 0.417395
1 0.66746 0.42945
0.470314 0.711284 0.622812
0.499763 0.6925 0.597513
0.538445 0.673518 0.571237
0.59469 0.667674 0.541115
0.663828 0.681849 0.505211
0.776852 0.700481 0.490959
0.931777 0.707103 0.479622
1 0.727001 0.474769
1 0.749157 0.47538
0.614054 0.822828 0.726116
0.638529 0.805081 0.701427
0.650294 0.792615 0.675807
0.677195 0.785687 0.649332
0.720165 0.792477 0.615747
0.800839 0.802579 0.589151
0.899168 0.820676 0.568246
1 0.827863 0.560739
1 0.838285 0.550546
0.732128 0.915007 0.814984
0.737408 0.903105 0.793072
0.744305 0.892287 0.770932
0.757778 0.884459 0.749371
0.788403 0.884764 0.722499
0.834119 0.893751 0.693004
0.910506 0.902983 0.667597
0.990372 0.917311 0.646616
1 0.920333 0.638773
0.814588 0.985443 0.886412
0.817136 0.975647 0.867704
0.820752 0.966186 0.848997
0.827131 0.958862 0.830854
0.848173 0.956359 0.809216
0.874556 0.963455 0.780041
0.93434 0.965759 0.762844
0.992798 0.978058 0.732906
1 0.985962 0.714549
0.220127 0.447318 0.488991
0.263355 0.437736 0.46949
0.357382 0.426474 0.48278
0.503685 0.403143 0.556954
0.716762 0.41471 0.595132
0.918761 0.424643 0.647715
1 0.484474 0.663767
1 0.526375 0.67126
1 0.560754 0.669108
0.19736 0.433051 0.47013
0.240391 0.422904 0.450477
0.328298 0.418967 0.44329
0.466636 0.400458 0.506844
0.675273 0.405539 0.551568
0.88246 0.419318 0.59588
1 0.471855 0.612543
1 0.513085 0.619104
1 0.548119 0.616632
0.193423 0.452842 0.482155
0.2383 0.439704 0.459998
0.313069 0.434073 0.439185
0.445075 0.426703 0.464195
0.639399 0.420493 0.513146
0.84593 0.433555 0.545113
1 0.473014 0.5579
1 0.510887 0.562051
1 0.544671 0.558541
0.240345 0.519661 0.532021
0.281682 0.503349 0.507637
0.339605 0.491493 0.484611
0.455879 0.494835 0.46392
0.630091 0.483757 0.498512
0.828122 0.491081 0.515755
0.991409 0.515602 0.517189
1 0.547082 0.515785
1 0.590204 0.521447
0.386694 0.618235 0.590921
0.415991 0.600061 0.565347
0.452308 0.584222 0.540841
0.530007 0.578988 0.519692
0.645563 0.588296 0.50277
0.819883 0.589487 0.509407
0.958724 0.613947 0.508141
1 0.650568 0.517189
1 0.685222 0.526864
0.465599 0.73724 0.679438
0.490166 0.719173 0.654658
0.517769 0.702358 0.630564
0.578286 0.691707 0.608377
0.683589 0.689632 0.582086
0.779995 0.711513 0.565942
0.932509 0.716762 0.551843
1 0.735592 0.547814
1 0.756771 0.548348
0.582528 0.842939 0.768734
0.602197 0.826001 0.745785
0.624125 0.809781 0.723201
0.668528 0.796429 0.701625
0.736828 0.793545 0.672374
0.803632 0.808209 0.640558
0.898482 0.824948 0.622599
1 0.831266 0.612894
1 0.841215 0.602838
0.701656 0.928298 0.848692
0.718135 0.913039 0.828153
0.739712 0.897505 0.806882
0.760006 0.887175 0.786038
0.796963 0.884947 0.76051
0.838865 0.895109 0.728374
0.911116 0.903624 0.705699
0.98822 0.918166 0.684932
1 0.920836 0.675731
0.806027 0.989837 0.911559
0.816632 0.97731 0.893004
0.821042 0.967483 0.874144
0.82858 0.959625 0.856596
0.852689 0.955825 0.835309
0.885573 0.959548 0.809583
0.932906 0.966644 0.78645
0.991867 0.976944 0.760525
1 0.985504 0.741604
0.303059 0.579553 0.637644
0.337346 0.568551 0.618784
0.417762 0.561105 0.611856
0.533486 0.545068 0.655573
0.693889 0.534188 0.716564
0.877119 0.546563 0.761059
1 0.553689 0.819379
1 0.611063 0.824567
1 0.643641 0.82768
0.27837 0.560388 0.614221
0.312947 0.549004 0.595163
0.386419 0.545357 0.576944
0.497337 0.532418 0.612085
0.652399 0.517693 0.67866
0.840665 0.530251 0.719112
1 0.542107 0.771771
1 0.595728 0.77937
1 0.628 0.783886
0.266941 0.564706 0.612161
0.302739 0.551064 0.591028
0.362631 0.542489 0.570382
0.471107 0.539712 0.572931
0.615152 0.518883 0.642695
0.803571 0.527947 0.676844
0.972976 0.542046 0.719722
1 0.587747 0.729412
1 0.617655 0.733059
0.287663 0.606332 0.64303
0.322011 0.590204 0.619974
0.370687 0.577554 0.597803
0.469902 0.577523 0.578714
0.608118 0.568551 0.608911
0.783291 0.563699 0.65098
0.950103 0.577539 0.678447
1 0.610529 0.687312
1 0.635416 0.687495
0.361975 0.679881 0.695521
0.391165 0.662272 0.671962
0.426551 0.646387 0.648829
0.503914 0.639887 0.628351
0.623758 0.64538 0.60798
0.780163 0.634943 0.641459
0.939803 0.642924 0.652796
1 0.662669 0.653483
1 0.68127 0.647898
0.523033 0.766888 0.744549
0.54165 0.749447 0.721065
0.562753 0.733135 0.698161
0.610742 0.72285 0.677546
0.692088 0.721614 0.659068
0.792676 0.731624 0.644892
0.93257 0.735271 0.647105
1 0.75404 0.645121
1 0.774258 0.645808
0.589105 0.865873 0.819944
0.60441 0.849622 0.798352
0.621851 0.834226 0.777111
0.655543 0.822217 0.757397
0.72372 0.815381 0.737423
0.819745 0.816083 0.713939
0.901091 0.834958 0.695247
1 0.840299 0.683803
1 0.849027 0.674678
0.683726 0.946059 0.888136
0.696071 0.931731 0.868772
0.71075 0.917723 0.849409
0.733837 0.905867 0.83154
0.78764 0.896239 0.812238
0.856565 0.895659 0.786221
0.914702 0.908919 0.759472
0.988052 0.922774 0.740322
1 0.924727 0.729564
0.776455 1 0.943008
0.785626 0.992416 0.926101
0.79678 0.980163 0.90898
0.813184 0.969299 0.893141
0.855375 0.959472 0.874174
0.895903 0.959808 0.850752
0.932464 0.97174 0.821408
0.993378 0.978317 0.803861
1 0.987198 0.784054
0.387518 0.701595 0.770901
0.414679 0.690028 0.753674
0.483955 0.684611 0.735607
0.578683 0.670619 0.760052
0.701442 0.654856 0.811505
0.852338 0.657649 0.853391
0.996796 0.670115 0.896895
1 0.663279 0.9505
1 0.713466 0.946777
0.362066 0.680827 0.747158
0.389563 0.669078 0.729549
0.449668 0.662242 0.711894
0.543496 0.654414 0.722194
0.664698 0.639902 0.770779
0.816144 0.638239 0.818753
0.967849 0.65066 0.861234
1 0.650828 0.913146
1 0.698329 0.911513
0.346197 0.676188 0.737591
0.374426 0.662562 0.718013
0.422705 0.652171 0.698558
0.514931 0.651484 0.68574
0.631128 0.63679 0.728588
0.778683 0.627573 0.783612
0.935805 0.638209 0.822019
1 0.644511 0.869474
1 0.686778 0.870069
0.353491 0.699977 0.753079
0.381643 0.684443 0.732067
0.420783 0.671275 0.711284
0.503716 0.667933 0.693187
0.619043 0.664439 0.701152
0.756451 0.646555 0.762844
0.912932 0.654963 0.792767
1 0.665568 0.83032
1 0.698375 0.830808
0.395041 0.750484 0.790066
0.420706 0.7337 0.768292
0.451331 0.718441 0.746853
0.519982 0.710674 0.727718
0.626032 0.712551 0.7093
0.755459 0.702983 0.740658
0.900603 0.699992 0.774578
1 0.711788 0.797345
1 0.73228 0.79678
0.488975 0.818967 0.835584
0.508354 0.80209 0.814771
0.530053 0.786252 0.793881
0.57821 0.775525 0.774823
0.661997 0.771954 0.756481
0.771313 0.777966 0.738323
0.900145 0.769223 0.767773
1 0.776394 0.774243
1 0.786145 0.769345
0.648356 0.888502 0.87129
0.659556 0.873045 0.851637
0.672648 0.858381 0.831968
0.699351 0.847089 0.81416
0.754833 0.840604 0.796338
0.828504 0.84155 0.78114
0.909575 0.851331 0.76997
1 0.855512 0.76791
1 0.864302 0.761898
0.699702 0.964157 0.929717
0.708659 0.950515 0.912108
0.719615 0.937438 0.894331
0.73727 0.926177 0.878172
0.781735 0.917937 0.86125
0.847623 0.913909 0.844739
0.927047 0.91606 0.824628
0.990127 0.931228 0.806455
1 0.932113 0.793927
0.768093 1 0.977218
0.775555 1 0.961334
0.784817 0.996475 0.945556
0.797467 0.986236 0.93106
0.83212 0.977371 0.915328
0.887373 0.97084 0.898787
0.94992 0.971359 0.876707
0.996689 0.982712 0.85568
1 0.991547 0.836942
0.468589 0.806027 0.880522
0.49044 0.794934 0.865415
0.547463 0.787564 0.848753
0.629236 0.778119 0.853849
0.730037 0.764965 0.88513
0.846021 0.748867 0.937285
0.973602 0.76495 0.95993
1 0.773831 0.995056
1 0.758556 1
0.443198 0.785809 0.858625
0.465064 0.774075 0.842618
0.514275 0.765896 0.826596
0.595392 0.760891 0.821057
0.695232 0.748425 0.851179
0.812726 0.733471 0.903029
0.944472 0.744823 0.930907
1 0.75523 0.968002
1 0.740429 1
0.424521 0.776379 0.845319
0.447013 0.763272 0.828138
0.486244 0.752514 0.810605
0.563867 0.749508 0.794644
0.66186 0.739101 0.815381
0.778714 0.724498 0.864271
0.912291 0.728862 0.899001
1 0.738994 0.93579
1 0.72607 0.979614
0.424414 0.788495 0.851362
0.446693 0.773999 0.832761
0.478431 0.760906 0.81416
0.547723 0.755093 0.797131
0.646616 0.753979 0.790722
0.759457 0.739559 0.833326
0.888884 0.735302 0.875425
1 0.743923 0.908461
1 0.738918 0.946487
0.448844 0.822202 0.8748
0.46949 0.806332 0.855406
0.495171 0.791882 0.836179
0.553597 0.78323 0.81886
0.645335 0.782162 0.80206
0.75642 0.777859 0.813001
0.87599 0.764569 0.862043
0.995422 0.770825 0.887327
1 0.77229 0.915297
0.507469 0.872587 0.909468
0.525185 0.857023 0.890745
0.545068 0.841993 0.87219
0.588525 0.831067 0.854719
0.666255 0.825879 0.837079
0.766918 0.828687 0.820523
0.877012 0.819379 0.849577
0.988083 0.818112 0.874342
1 0.82237 0.88896
0.611658 0.929534 0.944335
0.62327 0.914794 0.926619
0.637461 0.900633 0.909239
0.6645 0.88925 0.893095
0.721767 0.881743 0.876631
0.800427 0.88014 0.861021
0.891081 0.885954 0.845792
0.988754 0.87924 0.869642
1 0.881163 0.870085
0.755352 0.979782 0.96701
0.761547 0.966995 0.95111
0.769589 0.954681 0.935256
0.783444 0.944213 0.920714
0.819577 0.936263 0.905318
0.873365 0.932738 0.890761
0.934966 0.935073 0.878828
0.99556 0.94342 0.871122
1 0.944045 0.863416
0.791257 1 1
0.796735 1 0.994263
0.802945 1 0.979904
0.8121 1 0.966918
0.84065 0.993484 0.953216
0.886763 0.987854 0.939101
0.943999 0.985992 0.925765
1 0.988876 0.910292
1 0.998138 0.892409
0.540032 0.887831 0.961898
0.557412 0.877165 0.948821
0.605432 0.869062 0.934157
0.677775 0.862425 0.92845
0.762188 0.850202 0.947387
0.859648 0.838376 0.980545
0.964538 0.832944 1
1 0.848539 1
1 0.849515 1
0.514595 0.868757 0.942535
0.532525 0.857939 0.928923
0.573327 0.849165 0.914397
0.645518 0.845945 0.900542
0.729274 0.833814 0.919203
0.828153 0.822339 0.952285
0.93521 0.813153 0.994339
1 0.830564 1
1 0.833265 1
0.494621 0.857466 0.928939
0.512993 0.845243 0.913939
0.545327 0.834516 0.898268
0.611582 0.82948 0.883558
0.696925 0.822049 0.888334
0.795377 0.809979 0.92015
0.90248 0.795544 0.968994
1 0.81294 0.984787
1 0.817273 1
0.490059 0.862928 0.92932
0.508339 0.849241 0.91313
0.534371 0.836942 0.89691
0.593027 0.82977 0.881224
0.679835 0.829297 0.866529
0.775692 0.816938 0.894652
0.881056 0.802411 0.94139
0.990021 0.811933 0.962371
1 0.816571 0.989075
0.50428 0.88513 0.943587
0.521782 0.870634 0.926802
0.542779 0.857176 0.910094
0.592401 0.848051 0.89395
0.67219 0.844633 0.878599
0.769268 0.842496 0.877317
0.871046 0.829175 0.91754
0.975387 0.829114 0.945846
1 0.832914 0.969772
0.544274 0.922225 0.968612
0.559594 0.907561 0.952209
0.57673 0.893568 0.935546
0.614923 0.882948 0.919829
0.684108 0.876585 0.903731
0.774639 0.876844 0.888197
0.872831 0.872175 0.901167
0.968307 0.863233 0.937194
1 0.865507 0.95491
0.616678 0.967208 0.997391
0.627909 0.953338 0.98172
0.641505 0.939849 0.966155
0.666697 0.928771 0.951354
0.721477 0.920729 0.93611
0.797375 0.917449 0.920806
0.884108 0.920577 0.906279
0.970413 0.912352 0.931792
1 0.910521 0.945968
0.720851 1 1
0.727764 0.997574 1
0.7364 0.985748 0.992325
0.750576 0.975525 0.979309
0.788495 0.966964 0.965103
0.845212 0.96199 0.951278
0.9122 0.96199 0.938827
0.981491 0.967193 0.926833
1 0.96051 0.94258
0.836118 1 1
0.841016 1 1
0.846952 1 1
0.853941 1 0.99588
0.877546 1 0.983383
0.916503 1 0.970672
0.963897 0.999084 0.959304
1 1 0.950591
1 1 0.94316
