luts/Arrakis-CLog.cube
TITLE "Generated by Resolve"
LUT_3D_SIZE 33
0 0.0122377 0.0149538
0 0.0122377 0.0149538
0.0359503 0.0089723 0.017319
0.11281 0.00588998 0.0163424
0.19028 0.00120546 0.00613413
0.259022 0.00265507 0
0.321202 0.0100252 0
0.38117 0.0198825 0
0.438514 0.0327459 0
0.493355 0.0469978 0
0.545495 0.061326 0.00224308
0.595254 0.0763409 0.00596628
0.642725 0.0922103 0.0107424
0.687709 0.108431 0.0164797
0.73106 0.125673 0.0233005
0.771954 0.143633 0.0311894
0.811032 0.162036 0.0395209
0.8486 0.180438 0.0482185
0.884611 0.199344 0.0573281
0.918624 0.219074 0.0673075
0.951202 0.239536 0.0778058
0.981949 0.260639 0.0888533
1 0.282582 0.100465
1 0.305135 0.112245
1 0.327718 0.124239
1 0.350484 0.13608
1 0.374121 0.148501
1 0.398322 0.161028
1 0.423163 0.173877
1 0.448875 0.187091
1 0.475807 0.200824
1 0.504128 0.215106
1 0.530694 0.228733
0 0.0128481 0.0154574
0 0.0124056 0.0150912
0.0379034 0.00862135 0.017731
0.114855 0.00569162 0.0160372
0.192004 0.00111391 0.00588998
0.260349 0.00276188 0
0.322286 0.0101778 0
0.382071 0.0200504 0
0.439109 0.0329595 0
0.493996 0.0471504 0
0.546029 0.0614786 0.00230411
0.595682 0.0764782 0.00601205
0.643091 0.0923323 0.0107881
0.688014 0.108553 0.0165255
0.731304 0.12578 0.0233463
0.772152 0.14374 0.0312352
0.81117 0.162097 0.0395361
0.848753 0.180514 0.0482643
0.884733 0.19942 0.0573739
0.918746 0.219135 0.0673533
0.951278 0.239597 0.0778363
0.981994 0.260685 0.0888685
1 0.282628 0.100496
1 0.30518 0.112276
1 0.327764 0.124254
1 0.350515 0.13611
1 0.374151 0.148516
1 0.398337 0.161028
1 0.423178 0.173892
1 0.44889 0.187106
1 0.475822 0.200824
1 0.504143 0.215106
1 0.530694 0.228733
0 0.0476997 0.0376745
0 0.0468757 0.0370489
0.0445716 0.0456703 0.0241398
0.100328 0.0465248 0.0247654
0.165988 0.0471504 0.0186007
0.22977 0.0513924 0.0148775
0.291844 0.0569162 0.0121614
0.352178 0.0639048 0.0103304
0.410483 0.071809 0.00979629
0.466239 0.0804913 0.00979629
0.520424 0.0903029 0.0110933
0.572244 0.100938 0.0131991
0.622156 0.112581 0.0165713
0.669779 0.125078 0.0205997
0.715526 0.138247 0.0260166
0.759289 0.15259 0.0324102
0.801556 0.16788 0.0398871
0.841886 0.184146 0.0479744
0.880781 0.201358 0.0570993
0.918105 0.219501 0.0673686
0.951354 0.239643 0.0778515
0.98204 0.260716 0.0888838
1 0.282673 0.100511
1 0.305211 0.112291
1 0.327779 0.124269
1 0.350545 0.13611
1 0.374166 0.148531
1 0.398352 0.161044
1 0.423209 0.173907
1 0.44892 0.187121
1 0.475837 0.200824
1 0.504158 0.215106
1 0.530694 0.228733
0.0177005 0.0908675 0.0642252
0.0183413 0.0899519 0.0634928
0.0656138 0.0867628 0.0482643
0.0942855 0.0918593 0.0440223
0.149935 0.0917372 0.0391546
0.212634 0.0907454 0.0314183
0.272923 0.0918898 0.0256962
0.331228 0.0952316 0.0219577
0.387854 0.100038 0.019501
0.443168 0.106477 0.0186007
0.496361 0.113848 0.0183719
0.547524 0.12253 0.0195773
0.59704 0.13225 0.0215763
0.6448 0.143206 0.024918
0.691096 0.15494 0.0291905
0.735317 0.167788 0.0348974
0.77792 0.181521 0.041062
0.819165 0.196201 0.0482795
0.858854 0.211826 0.0562448
0.897154 0.228504 0.065568
0.933822 0.246235 0.0755322
0.969116 0.264958 0.0865187
1 0.285039 0.0985885
1 0.306127 0.111452
1 0.32781 0.124285
1 0.350576 0.136141
1 0.374197 0.148531
1 0.398367 0.161044
1 0.423224 0.173907
1 0.448936 0.187121
1 0.475853 0.200824
1 0.504158 0.215106
1 0.530694 0.228733
0.047776 0.131807 0.0917983
0.0499275 0.130739 0.0905928
0.0925002 0.127672 0.0743725
0.116838 0.129976 0.0637369
0.143801 0.135912 0.0611582
0.198352 0.134783 0.0582437
0.257877 0.133318 0.0502632
0.315755 0.13312 0.0433509
0.371603 0.135042 0.0381018
0.42565 0.138033 0.0346685
0.478325 0.142855 0.0328985
0.528862 0.14873 0.0319219
0.577752 0.15581 0.0322118
0.62504 0.164218 0.0340429
0.670771 0.173846 0.0367895
0.714702 0.184482 0.0404059
0.757046 0.196109 0.0448463
0.798047 0.208942 0.0504463
0.837369 0.22295 0.0569772
0.875517 0.238132 0.0649882
0.912245 0.254749 0.0738689
0.947875 0.272465 0.0837568
0.982513 0.291249 0.0948348
1 0.311299 0.10695
1 0.331792 0.119982
1 0.353033 0.133059
1 0.375021 0.146822
1 0.398383 0.161044
1 0.423255 0.173922
1 0.448951 0.187137
1 0.475853 0.200839
1 0.504173 0.215122
1 0.530694 0.228733
0.0869612 0.171008 0.119036
0.0890364 0.170138 0.117464
0.120058 0.167681 0.100999
0.134646 0.170596 0.0866407
0.163149 0.170718 0.086244
0.191379 0.178164 0.0787366
0.24538 0.17586 0.0778821
0.302235 0.174258 0.0706798
0.358099 0.173861 0.0639658
0.411749 0.174578 0.0580301
0.463554 0.176974 0.0540322
0.514046 0.180774 0.0514992
0.562539 0.185534 0.0498817
0.609659 0.191867 0.049485
0.654917 0.199176 0.0502937
0.698543 0.207553 0.0519265
0.741161 0.21735 0.0551003
0.78172 0.228031 0.0590219
0.821027 0.239979 0.0639048
0.859159 0.252964 0.0699931
0.895582 0.267033 0.0767987
0.930953 0.282261 0.0850538
0.964965 0.298848 0.0939803
0.997986 0.316976 0.10425
1 0.336629 0.116182
1 0.357168 0.128481
1 0.378225 0.141375
1 0.40058 0.155276
1 0.423972 0.170321
1 0.449058 0.186358
1 0.475883 0.200839
1 0.504189 0.215122
1 0.530694 0.228733
0.118242 0.210559 0.145968
0.120958 0.209613 0.143938
0.147417 0.206424 0.127123
0.160357 0.207782 0.113405
0.184161 0.207065 0.105928
0.207889 0.210773 0.106813
0.238529 0.217945 0.0982986
0.29102 0.215503 0.0979019
0.345708 0.213947 0.091371
0.399176 0.213275 0.0846418
0.451102 0.213703 0.0786297
0.501472 0.215442 0.074403
0.549966 0.218647 0.0711528
0.596674 0.222766 0.0690471
0.641871 0.228351 0.0681163
0.685817 0.235142 0.0686046
0.727794 0.242802 0.0699168
0.768795 0.25182 0.0725261
0.80763 0.261845 0.0757153
0.845457 0.272862 0.0800031
0.882017 0.285267 0.0854047
0.917098 0.298497 0.0917372
0.951003 0.312947 0.0988937
0.984161 0.328923 0.107668
1 0.345983 0.117342
1 0.363943 0.127718
1 0.383001 0.138567
1 0.40325 0.150454
1 0.426062 0.164096
1 0.450095 0.179141
1 0.475975 0.195666
1 0.504341 0.214099
1 0.530694 0.228733
0.148074 0.248936 0.17261
0.151385 0.247822 0.170153
0.174716 0.2439 0.153552
0.187259 0.243961 0.140185
0.20058 0.244816 0.130037
0.228138 0.244587 0.127718
0.251789 0.250004 0.125856
0.28423 0.256168 0.117861
0.335164 0.253819 0.117464
0.387533 0.252445 0.111788
0.439414 0.251804 0.10544
0.489494 0.251957 0.0995193
0.538293 0.253391 0.0948806
0.585382 0.256107 0.0914168
0.630579 0.260121 0.0890822
0.674327 0.265202 0.0880598
0.71632 0.271168 0.0876326
0.757031 0.27866 0.088777
0.796246 0.286809 0.0906386
0.834211 0.296468 0.0938888
0.870527 0.307042 0.0976272
0.90573 0.318853 0.102541
0.939452 0.331548 0.108461
0.972396 0.345708 0.115709
1 0.36083 0.123491
1 0.377127 0.132433
1 0.39382 0.141543
1 0.411795 0.151415
1 0.431235 0.162463
1 0.452247 0.174701
1 0.476417 0.189181
1 0.503288 0.205432
1 0.529397 0.222736
0.177172 0.286198 0.199207
0.180957 0.284886 0.196246
0.20145 0.280446 0.179583
0.213336 0.279606 0.166613
0.219257 0.28191 0.154604
0.246143 0.27953 0.149126
0.27039 0.281834 0.149065
0.294743 0.28806 0.144564
0.328374 0.293278 0.137484
0.377707 0.291127 0.137072
0.428458 0.289754 0.132082
0.478599 0.289219 0.126055
0.527535 0.28957 0.120363
0.574594 0.290959 0.115618
0.620172 0.2934 0.112261
0.663844 0.296727 0.109331
0.705943 0.301579 0.107881
0.746944 0.307408 0.107836
0.786206 0.314488 0.108629
0.823911 0.322332 0.110048
0.860548 0.331563 0.112947
0.895628 0.341634 0.116442
0.929641 0.35317 0.120958
0.962173 0.365469 0.126482
0.993912 0.379294 0.133364
1 0.394095 0.14081
1 0.409323 0.148699
1 0.425483 0.157214
1 0.442725 0.16643
1 0.46157 0.176715
1 0.482246 0.18822
1 0.505364 0.201328
1 0.528588 0.215198
0.205676 0.322667 0.226139
0.209949 0.321248 0.222507
0.228428 0.316335 0.205966
0.239384 0.314763 0.193362
0.245212 0.315435 0.181811
0.262074 0.315496 0.173754
0.289631 0.314839 0.169284
0.311177 0.318624 0.169512
0.336599 0.325124 0.162707
0.371176 0.329397 0.157
0.419104 0.327398 0.156725
0.46833 0.326131 0.15198
0.516823 0.325658 0.146532
0.564034 0.32607 0.141146
0.609628 0.327459 0.136507
0.653849 0.329809 0.132677
0.696345 0.333257 0.130266
0.737453 0.337804 0.128603
0.77673 0.343526 0.127993
0.814755 0.350042 0.128405
0.851087 0.35787 0.129854
0.886641 0.366796 0.132479
0.92047 0.376547 0.135698
0.95349 0.387747 0.140169
0.984848 0.399863 0.145388
1 0.413489 0.152087
1 0.427634 0.159091
1 0.442374 0.166155
1 0.458122 0.174151
1 0.475196 0.182742
1 0.493736 0.192782
1 0.514336 0.203571
1 0.534142 0.214664
0.233448 0.358419 0.253178
0.238254 0.356451 0.248447
0.254795 0.351141 0.23183
0.264683 0.349035 0.219593
0.270771 0.348775 0.208804
0.277989 0.351461 0.197787
0.305425 0.349004 0.193805
0.32961 0.350027 0.190875
0.351553 0.354604 0.189181
0.377295 0.361303 0.181018
0.412436 0.364721 0.176562
0.45951 0.363119 0.176638
0.507027 0.362081 0.172442
0.553933 0.361746 0.167239
0.599893 0.362173 0.161868
0.644099 0.363577 0.157412
0.687007 0.365866 0.153811
0.728237 0.369223 0.150958
0.767834 0.373678 0.149401
0.805936 0.378882 0.148608
0.84268 0.385428 0.14876
0.878141 0.393088 0.150225
0.912306 0.401892 0.152453
0.944991 0.411475 0.155612
0.976791 0.422553 0.160006
1 0.434577 0.165042
1 0.447959 0.17142
1 0.461402 0.1776
1 0.475914 0.184237
1 0.491524 0.191821
1 0.508644 0.200412
1 0.527474 0.210086
1 0.545281 0.21912
0.26125 0.393469 0.280522
0.266346 0.391089 0.274372
0.281544 0.385428 0.258076
0.290593 0.382879 0.246235
0.296162 0.381949 0.23595
0.301335 0.384039 0.224857
0.320821 0.383429 0.218616
0.346838 0.3823 0.213642
0.369177 0.385046 0.212512
0.39118 0.390234 0.209033
0.417014 0.397101 0.199527
0.452964 0.399573 0.196429
0.49836 0.397894 0.196033
0.544274 0.396994 0.192462
0.590005 0.396719 0.187366
0.634684 0.397482 0.182971
0.677852 0.398932 0.178439
0.719081 0.401266 0.174884
0.758907 0.40444 0.171832
0.797269 0.408865 0.170108
0.834348 0.414084 0.16939
0.86981 0.420615 0.169512
0.904372 0.428107 0.170794
0.937255 0.436851 0.172915
0.968963 0.446342 0.175937
0.999832 0.457389 0.18027
1 0.469398 0.185199
1 0.482063 0.190784
1 0.495323 0.196628
1 0.509728 0.20322
1 0.525505 0.210391
1 0.543008 0.218845
1 0.559319 0.226749
0.288563 0.427955 0.307652
0.294362 0.424826 0.300771
0.307774 0.419181 0.284276
0.315938 0.416327 0.272877
0.321279 0.414847 0.262882
0.326543 0.415702 0.252781
0.335988 0.417975 0.242954
0.361776 0.415625 0.239322
0.386725 0.415976 0.233661
0.407218 0.419364 0.233188
0.429984 0.424842 0.228382
0.455711 0.431876 0.218296
0.492149 0.433783 0.216541
0.5364 0.432212 0.216403
0.581201 0.431388 0.212879
0.625223 0.431312 0.208423
0.668376 0.431968 0.203525
0.70988 0.433494 0.199268
0.750134 0.435874 0.195575
0.788678 0.439277 0.192889
0.826185 0.443534 0.19115
0.861845 0.448951 0.190326
0.896376 0.455375 0.190448
0.929732 0.462882 0.19173
0.961746 0.471534 0.193713
0.992401 0.481041 0.196689
1 0.492195 0.201022
1 0.503624 0.20528
1 0.515999 0.210361
1 0.529366 0.216037
1 0.543862 0.222354
1 0.560113 0.229496
1 0.575219 0.236439
0.31545 0.461677 0.334813
0.322087 0.458 0.32668
0.333944 0.452277 0.310765
0.341253 0.449226 0.299672
0.346334 0.447318 0.290181
0.351354 0.447333 0.280537
0.356405 0.450248 0.269444
0.376913 0.449058 0.264302
0.401328 0.447791 0.259876
0.424414 0.4495 0.25565
0.445045 0.453376 0.254093
0.467658 0.459098 0.247959
0.493172 0.466117 0.237079
0.529931 0.467018 0.236454
0.57322 0.465919 0.236698
0.616541 0.465263 0.233448
0.659403 0.465278 0.229175
0.70103 0.466102 0.224537
0.741482 0.467689 0.220447
0.780285 0.470192 0.216815
0.817914 0.473518 0.214282
0.854063 0.477897 0.212528
0.888792 0.483314 0.21149
0.922087 0.489769 0.211734
0.954543 0.49723 0.212848
0.985214 0.505699 0.214542
1 0.515618 0.217807
1 0.52639 0.221714
1 0.537591 0.225437
1 0.549661 0.230015
1 0.563073 0.235416
1 0.578012 0.241718
1 0.592096 0.247517
0.342321 0.49485 0.362432
0.349538 0.490486 0.352758
0.360281 0.484672 0.337011
0.366766 0.481483 0.326345
0.371435 0.479362 0.317128
0.375937 0.478737 0.30811
0.38114 0.480537 0.298009
0.391806 0.482399 0.289174
0.416159 0.480186 0.285878
0.439857 0.480018 0.280735
0.461173 0.482322 0.277317
0.482063 0.486824 0.274769
0.50454 0.492714 0.267689
0.529961 0.499702 0.256168
0.56669 0.499977 0.256947
0.608606 0.49868 0.25687
0.651026 0.498451 0.254185
0.692348 0.498665 0.250141
0.73286 0.499565 0.245747
0.771908 0.50132 0.241825
0.809873 0.503838 0.238331
0.846357 0.50724 0.235752
0.881224 0.511696 0.23389
0.914794 0.517205 0.232898
0.947311 0.52369 0.233036
0.978546 0.531273 0.234257
1 0.539864 0.235966
1 0.549737 0.239078
1 0.559747 0.242008
1 0.571191 0.245716
1 0.583459 0.250111
1 0.597238 0.255421
1 0.610162 0.260502
0.369497 0.527428 0.390082
0.376791 0.522286 0.378744
0.386282 0.516518 0.363333
0.392279 0.513191 0.353048
0.396368 0.510933 0.344259
0.400732 0.509926 0.335836
0.405554 0.510781 0.32636
0.410544 0.514015 0.315526
0.43093 0.512535 0.311391
0.453956 0.511208 0.307362
0.476982 0.512062 0.301411
0.497124 0.514839 0.299214
0.517983 0.519738 0.295537
0.540825 0.525582 0.287739
0.565545 0.532692 0.275624
0.602579 0.532265 0.277592
0.643183 0.531136 0.277638
0.684092 0.530953 0.274983
0.724529 0.531426 0.271107
0.763577 0.532494 0.267109
0.801617 0.534295 0.263005
0.838376 0.536919 0.260044
0.873686 0.540505 0.257267
0.907561 0.545007 0.255573
0.940124 0.550561 0.254536
0.97171 0.557168 0.25478
1 0.56492 0.255879
1 0.573739 0.257633
1 0.583047 0.259953
1 0.593011 0.262592
1 0.604349 0.265904
1 0.617182 0.270359
1 0.629007 0.27451
0.396384 0.559548 0.417945
0.404028 0.553399 0.404501
0.412665 0.547585 0.390082
0.417472 0.544396 0.380179
0.421515 0.542077 0.371817
0.425299 0.540887 0.363668
0.430121 0.541009 0.354726
0.434867 0.54313 0.344778
0.445457 0.544854 0.336583
0.46865 0.542733 0.333623
0.490898 0.542092 0.329091
0.513298 0.543664 0.322591
0.532586 0.546883 0.32079
0.55317 0.551827 0.316152
0.575784 0.557977 0.307836
0.600519 0.56492 0.295537
0.637171 0.564065 0.298512
0.676783 0.563012 0.298451
0.716365 0.562768 0.295949
0.755505 0.563607 0.292531
0.79353 0.564782 0.28867
0.830335 0.566735 0.284779
0.86598 0.569436 0.281758
0.900114 0.573175 0.279042
0.933074 0.577829 0.277363
0.96463 0.583535 0.276341
0.99527 0.59028 0.276539
1 0.598062 0.277577
1 0.60647 0.278996
1 0.615625 0.280613
1 0.625925 0.283268
1 0.637339 0.286503
1 0.648295 0.289601
0.423194 0.590829 0.445777
0.431128 0.583795 0.430442
0.438483 0.578241 0.416419
0.443137 0.575204 0.407218
0.44654 0.572869 0.399298
0.449943 0.57113 0.391577
0.454551 0.570962 0.383078
0.459495 0.572442 0.37409
0.463905 0.575448 0.363378
0.483146 0.574044 0.359579
0.50518 0.572793 0.356191
0.526589 0.572854 0.351064
0.547875 0.574975 0.345159
0.566903 0.578485 0.342672
0.587243 0.583383 0.336996
0.609995 0.589654 0.328176
0.634394 0.596353 0.316487
0.670985 0.595209 0.319646
0.709392 0.594324 0.31957
0.747555 0.594217 0.317342
0.785595 0.595071 0.313924
0.822477 0.59649 0.310338
0.858198 0.598581 0.30663
0.892607 0.601465 0.30367
0.925841 0.60528 0.300969
0.957748 0.610132 0.299367
0.988434 0.616037 0.298466
1 0.622782 0.298466
1 0.630411 0.299138
1 0.638712 0.300175
1 0.647807 0.301335
1 0.658228 0.303609
1 0.668208 0.306188
0.449775 0.621729 0.473686
0.458061 0.613565 0.456092
0.464622 0.608392 0.443107
0.468452 0.605432 0.434562
0.471626 0.602914 0.426596
0.474617 0.601038 0.419272
0.47866 0.600519 0.411627
0.483604 0.601328 0.403204
0.488289 0.6038 0.393683
0.497536 0.605371 0.385183
0.519341 0.60325 0.382513
0.540658 0.602594 0.378912
0.561471 0.603204 0.373083
0.581781 0.605753 0.367926
0.600702 0.609476 0.36463
0.620874 0.614466 0.358206
0.643259 0.6206 0.348714
0.666957 0.627253 0.337682
0.703548 0.625788 0.341146
0.740963 0.625025 0.341192
0.778134 0.625025 0.339101
0.814786 0.62591 0.335775
0.850675 0.627527 0.332296
0.885191 0.629831 0.328801
0.918578 0.632929 0.32575
0.950698 0.636927 0.323125
0.981643 0.641947 0.321477
1 0.647868 0.320439
1 0.654673 0.320302
1 0.662028 0.320439
1 0.670115 0.320958
1 0.679713 0.322194
1 0.688472 0.323598
0.477348 0.651133 0.499794
0.485145 0.642618 0.481651
0.490532 0.638071 0.469688
0.493935 0.635004 0.461524
0.496635 0.632486 0.454276
0.499138 0.630579 0.447135
0.503014 0.629725 0.439841
0.507454 0.630121 0.432074
0.512383 0.631785 0.423407
0.516976 0.634974 0.413504
0.533913 0.633844 0.409125
0.554665 0.632212 0.405921
0.575174 0.632105 0.401862
0.595346 0.633158 0.395575
0.614878 0.635996 0.390784
0.633631 0.639887 0.386694
0.653681 0.644923 0.379751
0.675395 0.651026 0.369741
0.699031 0.657374 0.359304
0.735164 0.655772 0.362905
0.771511 0.655131 0.362997
0.807431 0.65536 0.361044
0.84303 0.656245 0.357794
0.877775 0.658061 0.354299
0.91133 0.660517 0.350988
0.943679 0.663859 0.347845
0.974884 0.66807 0.345571
1 0.673182 0.343633
1 0.67924 0.342748
1 0.685725 0.341924
1 0.69308 0.341695
1 0.701305 0.341878
1 0.709224 0.342245
0.505043 0.67924 0.524697
0.511833 0.671168 0.507317
0.516518 0.666896 0.496361
0.519173 0.664057 0.488548
0.521553 0.66157 0.481743
0.523888 0.659556 0.475227
0.527459 0.658503 0.468147
0.531548 0.658549 0.460883
0.536339 0.659617 0.452888
0.540825 0.662058 0.444022
0.548394 0.664439 0.435477
0.568597 0.661952 0.433036
0.588708 0.661006 0.429648
0.608515 0.661387 0.424918
0.628092 0.662776 0.418555
0.647135 0.665766 0.413748
0.665461 0.669779 0.409079
0.685389 0.6748 0.401617
0.706828 0.680797 0.391012
0.730343 0.686732 0.381262
0.76556 0.685298 0.385031
0.800839 0.684749 0.385092
0.83595 0.685039 0.382986
0.870283 0.686091 0.380148
0.90399 0.687938 0.376577
0.936461 0.690578 0.373404
0.967788 0.694011 0.370214
0.998093 0.698451 0.367956
1 0.704005 0.366217
1 0.709529 0.36463
1 0.716045 0.363348
1 0.723308 0.362463
1 0.730312 0.362325
0.532464 0.706462 0.549157
0.538903 0.699321 0.532967
0.542214 0.695247 0.52285
0.544656 0.69247 0.515877
0.546746 0.690105 0.509224
0.548714 0.688258 0.503258
0.551965 0.687251 0.497032
0.555993 0.6869 0.489891
0.560067 0.687373 0.482353
0.564752 0.689052 0.474189
0.569024 0.692042 0.464988
0.58323 0.691859 0.459922
0.602731 0.689982 0.457084
0.621942 0.689403 0.45359
0.641154 0.690166 0.448554
0.660166 0.691844 0.441901
0.678706 0.695033 0.437034
0.696773 0.699092 0.431754
0.716442 0.704082 0.423529
0.737408 0.710048 0.412497
0.760723 0.715358 0.403632
0.795178 0.71426 0.407477
0.82945 0.713832 0.407523
0.863279 0.714244 0.405493
0.896788 0.715389 0.40267
0.929335 0.717403 0.399207
0.960861 0.72018 0.396017
0.991348 0.723888 0.39292
1 0.728664 0.390814
1 0.733654 0.388281
1 0.739147 0.386435
1 0.745464 0.384375
1 0.751644 0.383429
0.560067 0.733211 0.573114
0.565347 0.726772 0.558862
0.568185 0.723079 0.549462
0.570077 0.720531 0.543038
0.571832 0.71841 0.53727
0.573831 0.716655 0.531456
0.576623 0.715389 0.525444
0.579995 0.714961 0.518959
0.584375 0.71519 0.512032
0.588785 0.716274 0.504494
0.592935 0.718303 0.495964
0.597864 0.72137 0.486839
0.617014 0.719158 0.484733
0.635737 0.717739 0.481636
0.654231 0.71751 0.477546
0.672877 0.718517 0.472511
0.691356 0.720439 0.465339
0.709224 0.723491 0.46038
0.727291 0.727886 0.454536
0.746639 0.73283 0.446159
0.76704 0.738705 0.434958
0.790219 0.743633 0.426535
0.823545 0.742596 0.430182
0.856977 0.742428 0.43035
0.890013 0.742931 0.428351
0.922347 0.744228 0.425483
0.953979 0.746395 0.422171
0.984695 0.749432 0.41912
1 0.753445 0.416083
1 0.757763 0.413214
1 0.7626 0.410147
1 0.76791 0.40763
1 0.773159 0.405417
0.587533 0.759564 0.597559
0.591684 0.753826 0.584558
0.593927 0.750484 0.576333
0.595605 0.748089 0.570352
0.597192 0.746029 0.56492
0.598901 0.744335 0.559808
0.60119 0.743114 0.554009
0.604547 0.742412 0.548119
0.608515 0.742428 0.541466
0.612589 0.743236 0.53463
0.61677 0.744564 0.526757
0.620844 0.747234 0.518273
0.631266 0.74815 0.511986
0.649622 0.746349 0.509682
0.667536 0.745235 0.506447
0.685527 0.745342 0.502297
0.703487 0.746593 0.496696
0.721599 0.748577 0.489647
0.738888 0.75169 0.484245
0.756832 0.756115 0.478004
0.775769 0.761074 0.469337
0.795987 0.766842 0.457832
0.818769 0.77142 0.449897
0.851148 0.770291 0.453208
0.883803 0.770428 0.453544
0.915785 0.771145 0.451682
0.947234 0.77261 0.448646
0.977966 0.774914 0.445518
1 0.778225 0.442359
1 0.782055 0.439033
1 0.785931 0.435355
1 0.790509 0.4318
1 0.79498 0.429114
0.614862 0.785321 0.621561
0.618158 0.780331 0.610651
0.620066 0.777279 0.60325
0.621042 0.775189 0.597925
0.622522 0.773434 0.59295
0.62388 0.771679 0.588052
0.626154 0.770382 0.582589
0.62916 0.769589 0.577111
0.632609 0.769451 0.571023
0.636698 0.769833 0.564721
0.640711 0.771038 0.557824
0.64477 0.772747 0.549569
0.648753 0.775723 0.54081
0.663828 0.774655 0.537682
0.681529 0.773205 0.535241
0.698772 0.772366 0.531655
0.716091 0.772793 0.527398
0.73341 0.773983 0.521599
0.751186 0.776257 0.514611
0.767987 0.779431 0.508339
0.78558 0.783612 0.502007
0.804196 0.788724 0.492927
0.823911 0.794491 0.48127
0.846586 0.798749 0.473716
0.877882 0.797757 0.476677
0.909377 0.797711 0.476875
0.940566 0.798642 0.475181
0.97142 0.800534 0.472435
1 0.803037 0.469306
1 0.806134 0.465476
1 0.80943 0.461433
1 0.813275 0.457404
1 0.816892 0.453696
0.6421 0.810819 0.646418
0.644495 0.8065 0.636835
0.646021 0.8038 0.630457
0.646937 0.801877 0.625452
0.648188 0.80029 0.620996
0.649363 0.798657 0.616434
0.651148 0.797452 0.611475
0.653864 0.796597 0.606439
0.657176 0.796216 0.600946
0.6607 0.796429 0.594995
0.664775 0.797162 0.588647
0.668681 0.798566 0.581338
0.672572 0.800641 0.573297
0.678492 0.802899 0.565774
0.695613 0.800977 0.563668
0.712413 0.799649 0.560815
0.729107 0.799237 0.557549
0.746044 0.799802 0.553048
0.762707 0.801068 0.547189
0.779965 0.803571 0.539803
0.796414 0.806745 0.533318
0.813504 0.810697 0.526406
0.831464 0.815717 0.51696
0.851041 0.821546 0.505226
0.873503 0.825681 0.497948
0.904051 0.82475 0.500923
0.934432 0.824872 0.500832
0.964752 0.825895 0.499123
0.99469 0.827802 0.496361
1 0.830488 0.49308
1 0.833036 0.488624
1 0.83624 0.484062
1 0.839155 0.479683
0.669596 0.83595 0.671641
0.671016 0.832441 0.663401
0.67216 0.830076 0.657938
0.67303 0.82829 0.653498
0.673716 0.826749 0.649393
0.674922 0.825406 0.645197
0.676722 0.82417 0.640803
0.679057 0.823331 0.635935
0.681865 0.822919 0.630732
0.685298 0.822843 0.625391
0.688884 0.823331 0.619684
0.692821 0.824277 0.612985
0.69659 0.825772 0.605798
0.700511 0.828183 0.598138
0.710094 0.828901 0.592447
0.726482 0.827222 0.590341
0.742535 0.825971 0.58761
0.75877 0.825818 0.583993
0.774823 0.826337 0.579034
0.791241 0.827893 0.573266
0.807584 0.830213 0.565835
0.824231 0.833585 0.558984
0.840696 0.837583 0.551553
0.858412 0.842329 0.541863
0.877302 0.847944 0.529564
0.899077 0.852003 0.522591
0.929198 0.851408 0.525826
0.958923 0.851606 0.52578
0.988479 0.852766 0.523873
1 0.854887 0.521233
1 0.856947 0.516716
1 0.859113 0.511437
1 0.861311 0.506645
0.696544 0.860945 0.697444
0.697887 0.858152 0.690364
0.698543 0.856123 0.685695
0.699153 0.854536 0.681773
0.699718 0.852979 0.678172
0.700694 0.851591 0.674189
0.702144 0.850507 0.669795
0.704265 0.849683 0.665537
0.706798 0.849226 0.660807
