luts/Arrakis-CLog.cube
TITLE "Generated by Resolve"
LUT_3D_SIZE 5
0 0.0122377 0.0149538
0.438514 0.0327459 0
0.811032 0.162036 0.0395209
1 0.327718 0.124239
1 0.530694 0.228733
0.177172 0.286198 0.199207
0.328374 0.293278 0.137484
0.705943 0.301579 0.107881
0.993912 0.379294 0.133364
1 0.528588 0.215198
0.396384 0.559548 0.417945
0.445457 0.544854 0.336583
0.637171 0.564065 0.298512
0.933074 0.577829 0.277363
1 0.648295 0.289601
0.614862 0.785321 0.621561
0.632609 0.769451 0.571023
0.716091 0.772793 0.527398
0.877882 0.797757 0.476677
1 0.816892 0.453696
0.822599 0.972396 0.821622
0.827787 0.96643 0.802579
0.84828 0.968597 0.769955
0.930205 0.970504 0.739406
1 0.992401 0.678599
0.10724 0.253101 0.269963
0.354742 0.227024 0.318379
0.778668 0.250324 0.372946
1 0.328466 0.383032
1 0.495094 0.412314
0.159716 0.328405 0.302235
0.33994 0.311192 0.251987
0.70251 0.315343 0.255116
0.989715 0.390997 0.281239
1 0.526024 0.360388
0.391028 0.555016 0.439338
0.453803 0.535286 0.366186
0.630442 0.559838 0.329198
0.928878 0.573938 0.309636
1 0.646464 0.327764
0.612314 0.786542 0.625559
0.63093 0.76846 0.57116
0.714458 0.771771 0.526726
0.877348 0.79675 0.476036
1 0.816098 0.452781
0.822538 0.972854 0.822629
0.827451 0.966537 0.803174
0.848096 0.968536 0.770291
0.9299 0.970474 0.739528
1 0.992401 0.678599
0.240513 0.480949 0.527199
0.384054 0.459007 0.519692
0.697398 0.447929 0.620859
1 0.487251 0.698283
1 0.582055 0.713527
0.20734 0.475914 0.507836
0.336095 0.455421 0.461753
0.62417 0.438804 0.533974
0.959991 0.468788 0.597879
1 0.572198 0.686275
0.389303 0.617578 0.588937
0.466606 0.580652 0.533547
0.642252 0.585245 0.499565
0.921996 0.593912 0.502754
1 0.662684 0.522026
0.571984 0.800015 0.706783
0.635096 0.760693 0.644739
0.706844 0.767315 0.590768
0.86479 0.790265 0.55227
1 0.808927 0.529091
0.822309 0.974289 0.825971
0.826581 0.966873 0.804669
0.847547 0.968322 0.771389
0.92903 0.970382 0.739864
1 0.992401 0.678599
0.386191 0.699763 0.768948
0.447883 0.683879 0.741192
0.678172 0.656382 0.799405
0.944625 0.666255 0.875776
1 0.712612 0.945388
0.359701 0.676646 0.74287
0.420783 0.661082 0.715511
0.653986 0.642725 0.770657
0.945617 0.663523 0.873808
1 0.711116 0.942626
0.377676 0.730236 0.770825
0.426062 0.70135 0.732754
0.604257 0.692836 0.691524
0.851453 0.676661 0.753964
1 0.706798 0.797894
0.612589 0.852018 0.831769
0.641398 0.820127 0.789502
0.729854 0.803449 0.753719
0.873014 0.813306 0.729442
1 0.828473 0.722072
0.791074 0.987991 0.916915
0.814527 0.968444 0.88954
0.859113 0.957855 0.861158
0.919951 0.967254 0.818708
1 0.986664 0.773007
0.540032 0.887831 0.961898
0.540032 0.887831 0.961898
0.708476 0.85742 0.934264
0.90901 0.831434 1
1 0.849897 1
0.540032 0.887831 0.961898
0.540032 0.887831 0.961898
0.709331 0.857313 0.934539
0.909346 0.831388 1
1 0.849897 1
0.490013 0.862715 0.929213
0.489967 0.862531 0.929122
0.628595 0.828244 0.874556
0.830625 0.807752 0.919814
1 0.815167 1
0.573831 0.942885 0.982086
0.573632 0.942763 0.98201
0.664668 0.898848 0.925826
0.831235 0.895506 0.894148
1 0.881331 0.949889
0.836164 1 1
0.842451 1 1
0.870512 1 0.986328
0.944411 0.999207 0.963455
1 1 0.943465
