luts/Arrakis-DLog.cube
TITLE "Generated by Resolve"
LUT_3D_SIZE 33
0.00131228 0.0201877 0.020264
0.0130159 0.0201114 0.0176547
0.0271458 0.0190738 0.0211032
0.0483101 0.0174411 0.0236362
0.0718547 0.0177462 0.0258335
0.0992294 0.0172885 0.0243839
0.13257 0.0161135 0.0205081
0.172396 0.0150912 0.0152438
0.213596 0.019379 0.0126955
0.260151 0.0275731 0.0115969
0.31313 0.0395819 0.0112764
0.371405 0.0556344 0.0122225
0.436011 0.0700236 0.0122072
0.502525 0.0871901 0.0134737
0.568826 0.107118 0.0162051
0.633524 0.130373 0.0210117
0.695094 0.156497 0.0296788
0.753597 0.184771 0.0406806
0.808133 0.216007 0.0536202
0.858442 0.249958 0.0686198
0.904128 0.286091 0.0855573
0.945678 0.324178 0.104646
0.982696 0.362737 0.124666
1 0.401709 0.145418
1 0.438926 0.165621
1 0.47393 0.184878
1 0.506035 0.203082
1 0.534783 0.219577
1 0.560281 0.234714
1 0.58204 0.247837
1 0.600275 0.258747
1 0.615579 0.268284
1 0.627573 0.275761
0.00418097 0.0289769 0.026276
0.0177462 0.0289311 0.0233768
0.0328985 0.0301213 0.0213779
0.0525063 0.0291752 0.0267491
0.0778058 0.0282139 0.0251774
0.101045 0.0286412 0.0230106
0.127733 0.0309453 0.0213931
0.160388 0.034699 0.0199435
0.201709 0.0391546 0.0180819
0.25005 0.0454719 0.0161746
0.304692 0.0544137 0.0147097
0.364492 0.0653849 0.0135958
0.428275 0.0790265 0.0135042
0.494255 0.0954147 0.0146181
0.56054 0.114672 0.01738
0.625711 0.136904 0.0230259
0.688228 0.161669 0.03122
0.747875 0.189883 0.0423743
0.803342 0.220752 0.0551919
0.854856 0.254582 0.0708629
0.901518 0.290303 0.0878462
0.943618 0.32784 0.106477
0.980987 0.366278 0.12639
1 0.404562 0.146944
1 0.441657 0.167361
1 0.476341 0.186419
1 0.508141 0.204471
1 0.53666 0.220859
1 0.561944 0.235904
1 0.583551 0.248646
1 0.601648 0.25977
1 0.616678 0.26894
1 0.628748 0.276677
0.0100404 0.0400092 0.0318761
0.0240635 0.0399176 0.0288396
0.0396429 0.0408942 0.0267185
0.0506447 0.0439612 0.0327459
0.0739757 0.0437324 0.0300298
0.0970779 0.0439918 0.0275578
0.12459 0.0451057 0.0252079
0.158022 0.0475013 0.0227665
0.198138 0.0518044 0.0205539
0.245045 0.0576333 0.0186465
0.29868 0.0656901 0.0169375
0.357534 0.0759747 0.0158389
0.420768 0.0885481 0.0155184
0.486427 0.103807 0.0165103
0.553231 0.121721 0.0191501
0.618616 0.142916 0.0247654
0.682521 0.167514 0.0336309
0.742687 0.195087 0.0444495
0.799512 0.225834 0.0576638
0.851453 0.258961 0.0728466
0.899031 0.294652 0.0900435
0.941375 0.331624 0.108461
0.9794 0.369772 0.128328
1 0.407477 0.148699
1 0.444343 0.168978
1 0.478645 0.18819
1 0.510231 0.205859
1 0.538521 0.222141
1 0.563592 0.237079
1 0.585031 0.249729
1 0.603006 0.260792
1 0.617807 0.269764
1 0.629892 0.277455
0.0139925 0.0531167 0.0393225
0.0297704 0.052842 0.0359503
0.0470283 0.0533608 0.0326085
0.0589914 0.0571298 0.031342
0.0708019 0.0602731 0.0353246
0.0929274 0.0605325 0.0341192
0.120821 0.0610208 0.0307927
0.154208 0.0626993 0.0277104
0.193729 0.0655222 0.0246586
0.239948 0.0701457 0.021973
0.292653 0.076936 0.0198825
0.351186 0.0859998 0.0184329
0.413977 0.0973373 0.0176547
0.479698 0.111635 0.0183108
0.546731 0.129122 0.0219577
0.61297 0.149889 0.0278325
0.677363 0.173922 0.0366674
0.73843 0.200885 0.0471046
0.795651 0.23122 0.0602579
0.848325 0.263874 0.075227
0.896696 0.298955 0.0923171
0.93962 0.3355 0.110903
0.977951 0.372976 0.130343
1 0.410513 0.150515
1 0.447028 0.170626
1 0.48098 0.189441
1 0.512215 0.207462
1 0.540352 0.223423
1 0.56524 0.238117
1 0.586465 0.250782
1 0.604364 0.261814
1 0.618982 0.270878
1 0.631006 0.278447
0.0226444 0.0680247 0.0477913
0.0401007 0.0670787 0.04448
0.0549477 0.0683146 0.0400702
0.0661326 0.0716106 0.035462
0.0766155 0.0744945 0.039292
0.0907301 0.0771344 0.0393683
0.116793 0.077409 0.0378119
0.150225 0.0780499 0.0341039
0.189685 0.079942 0.030396
0.235767 0.0833448 0.026978
0.287846 0.0887465 0.0240787
0.345892 0.0967422 0.0220645
0.408209 0.107012 0.0209049
0.474128 0.120623 0.0222629
0.541131 0.137392 0.0255741
0.607675 0.157076 0.0311589
0.672541 0.180331 0.0395361
0.734432 0.206928 0.0502174
0.792248 0.236286 0.0627146
0.845747 0.268727 0.0780041
0.894102 0.303105 0.0944839
0.937926 0.339406 0.112902
0.976257 0.376303 0.132204
1 0.41355 0.152361
1 0.449714 0.17232
1 0.483085 0.190753
1 0.514153 0.208469
1 0.542168 0.224689
1 0.566491 0.239109
1 0.587655 0.251667
1 0.605692 0.262821
1 0.620172 0.271885
1 0.632151 0.279347
0.0332341 0.0823987 0.05626
0.0515145 0.0815137 0.0524758
0.063798 0.0832685 0.0476234
0.0732738 0.0867475 0.0427253
0.0855116 0.0880293 0.0446326
0.0948348 0.0914778 0.0446784
0.114794 0.0934005 0.0442206
0.146639 0.0939803 0.0418097
0.185748 0.0950332 0.0374456
0.231647 0.0974594 0.0333104
0.283482 0.101732 0.0295872
0.3411 0.108446 0.0271
0.40354 0.117983 0.0262608
0.46894 0.130312 0.0268559
0.536141 0.145937 0.0299382
0.603174 0.164996 0.0356909
0.668315 0.187533 0.0435187
0.730678 0.213001 0.0532998
0.789014 0.242069 0.0660105
0.842771 0.273655 0.080354
0.891966 0.307683 0.0970169
0.935912 0.343313 0.115099
0.974853 0.379904 0.134218
1 0.416648 0.15436
1 0.452186 0.173785
1 0.485512 0.19234
1 0.516152 0.209781
1 0.54403 0.226047
1 0.568154 0.240299
1 0.589105 0.252949
1 0.606958 0.263752
1 0.621439 0.272862
1 0.633371 0.280308
0.0507515 0.0994888 0.0667124
0.0643778 0.099794 0.0620127
0.0761425 0.101472 0.0575265
0.0830243 0.104875 0.0520333
0.0960403 0.105241 0.0514687
0.104799 0.107393 0.053315
0.117586 0.111879 0.0514687
0.143999 0.113481 0.0512551
0.181689 0.113832 0.0478828
0.227039 0.115373 0.0429999
0.27895 0.118639 0.0389563
0.336172 0.123934 0.0356756
0.398032 0.131838 0.0337224
0.463539 0.143023 0.0340581
0.530449 0.157336 0.0365759
0.597848 0.175158 0.0413062
0.663386 0.196643 0.0483864
0.726284 0.221454 0.0581521
0.785321 0.249546 0.0701152
0.839582 0.280262 0.0842451
0.889372 0.313603 0.100496
0.9337 0.348363 0.118227
0.973251 0.384405 0.137057
1 0.42034 0.156466
1 0.45565 0.175982
1 0.488518 0.194644
1 0.518883 0.211627
1 0.546365 0.227726
1 0.570321 0.241871
1 0.591043 0.254383
1 0.608469 0.26511
1 0.623087 0.274144
1 0.634913 0.281529
0.0695811 0.121859 0.0797436
0.0818341 0.12221 0.0747234
0.0919509 0.123629 0.0703288
0.0982681 0.12639 0.0652934
0.1084 0.127153 0.0626078
0.118532 0.127977 0.063386
0.129091 0.130907 0.0646525
0.145266 0.136355 0.0605783
0.178286 0.137331 0.0612955
0.22208 0.138201 0.0577096
0.273426 0.140215 0.0527352
0.330526 0.144045 0.0483558
0.39205 0.150423 0.0453956
0.457465 0.15996 0.0444648
0.52433 0.172595 0.0456855
0.591592 0.18883 0.0491951
0.657771 0.208774 0.0553597
0.721157 0.232273 0.0644236
0.780621 0.259159 0.0758221
0.836011 0.288991 0.0893568
0.886015 0.320989 0.104952
0.931228 0.355154 0.12224
0.97081 0.390051 0.140673
1 0.425559 0.159716
1 0.460258 0.178958
1 0.492592 0.197116
1 0.522347 0.214282
1 0.549203 0.229603
1 0.573129 0.243915
1 0.593576 0.256077
1 0.610788 0.266773
1 0.625223 0.275822
1 0.636927 0.283131
0.0923934 0.14847 0.095491
0.102647 0.148882 0.0910506
0.11133 0.150042 0.0865339
0.117006 0.152117 0.0816052
0.122393 0.154055 0.0775921
0.134005 0.153643 0.0763867
0.145357 0.15491 0.0779583
0.158343 0.158938 0.0785382
0.178225 0.165377 0.0728313
0.218097 0.165759 0.0743572
0.267643 0.16669 0.0698863
0.324224 0.169268 0.0649729
0.385687 0.173953 0.0607309
0.450828 0.181384 0.0581521
0.5178 0.192416 0.0580453
0.585122 0.206668 0.0603342
0.651347 0.22472 0.0653391
0.715251 0.246494 0.0729992
0.775326 0.271809 0.0832685
0.831327 0.300099 0.0961166
0.882155 0.331044 0.111131
0.92752 0.36376 0.12723
0.968017 0.397848 0.145357
1 0.432303 0.16405
1 0.465888 0.182849
1 0.497551 0.200626
1 0.526986 0.217227
1 0.553262 0.232593
1 0.576699 0.24654
1 0.596841 0.258488
1 0.613825 0.268971
1 0.628031 0.277745
1 0.639185 0.2851
0.118227 0.179782 0.114855
0.127016 0.180011 0.110155
0.134188 0.180575 0.105455
0.139391 0.182101 0.101106
0.142565 0.184268 0.0966506
0.150622 0.184527 0.0945144
0.16376 0.184146 0.0927596
0.176547 0.186419 0.0948196
0.192477 0.191211 0.094316
0.2168 0.198062 0.0886549
0.262806 0.198428 0.0899062
0.317479 0.199741 0.0852979
0.378683 0.202914 0.0803388
0.443717 0.208408 0.0763714
0.510582 0.217044 0.0744488
0.577813 0.229129 0.0748608
0.644556 0.245228 0.0783856
0.708904 0.264744 0.0844129
0.769574 0.287999 0.0934615
0.825803 0.314549 0.104997
0.877562 0.343694 0.118959
0.923781 0.374823 0.134569
0.964584 0.407462 0.151431
1 0.44065 0.169451
1 0.473472 0.187961
1 0.504173 0.204913
1 0.53254 0.221332
1 0.558465 0.236316
1 0.581216 0.249821
1 0.600778 0.261662
1 0.617655 0.272206
1 0.631266 0.280537
1 0.642603 0.287602
0.147494 0.215045 0.136965
0.154925 0.215091 0.132158
0.161028 0.215641 0.127855
0.165148 0.216419 0.123507
0.168154 0.217838 0.119646
0.17026 0.219806 0.115511
0.182803 0.218967 0.114458
0.197986 0.219196 0.112627
0.212573 0.222095 0.114733
0.231632 0.227909 0.112902
0.260884 0.234958 0.10721
0.312169 0.235492 0.108125
0.371283 0.237171 0.103578
0.435798 0.240894 0.0985428
0.502754 0.247364 0.0949416
0.570123 0.256931 0.0934615
0.636881 0.270512 0.0950484
0.70164 0.287465 0.0994278
0.763088 0.308507 0.106996
0.819944 0.332738 0.11693
0.87219 0.359808 0.129259
0.919142 0.388983 0.143679
0.960555 0.419745 0.159396
0.996902 0.451377 0.176654
1 0.48278 0.194232
1 0.512352 0.210773
1 0.540139 0.22652
1 0.564843 0.241199
1 0.58706 0.25417
1 0.60621 0.265705
1 0.62237 0.275578
1 0.63592 0.284138
1 0.646998 0.291142
0.180453 0.254154 0.162188
0.18645 0.254078 0.157473
0.191089 0.254383 0.153475
0.194614 0.254902 0.149416
0.197147 0.25565 0.145785
0.199039 0.257008 0.142046
0.204562 0.258259 0.13843
0.219547 0.25745 0.137026
0.236255 0.258076 0.13518
0.25333 0.261967 0.137285
0.27538 0.268879 0.133669
0.309422 0.275715 0.128283
0.365118 0.276387 0.12874
0.427985 0.278737 0.124865
0.494255 0.283131 0.119814
0.561852 0.290425 0.116686
0.628901 0.301183 0.116091
0.693767 0.315312 0.118318
0.755703 0.333577 0.123796
0.813138 0.355001 0.131731
0.865995 0.379507 0.142382
0.913619 0.406455 0.155444
0.955856 0.435187 0.16997
0.992767 0.464912 0.185718
1 0.494636 0.202365
1 0.52311 0.218418
1 0.549325 0.233173
1 0.573327 0.247486
1 0.594476 0.259861
1 0.613046 0.271138
1 0.628656 0.280873
1 0.641733 0.288899
1 0.652277 0.295354
0.216022 0.296773 0.189654
0.220493 0.296407 0.185443
0.224109 0.296407 0.18146
0.226856 0.296757 0.178164
0.229145 0.297292 0.174777
0.231128 0.2981 0.171588
0.2336 0.299901 0.167041
0.24361 0.30013 0.164279
0.260624 0.299474 0.162341
0.279316 0.300816 0.160937
0.298192 0.305379 0.161776
0.323323 0.313252 0.156771
0.362234 0.320119 0.152239
0.421027 0.321065 0.15259
0.485847 0.323796 0.148592
0.553033 0.328832 0.144274
0.620157 0.336873 0.141665
0.685634 0.348409 0.141695
0.747829 0.363622 0.144717
0.80589 0.381979 0.150668
0.859632 0.40383 0.159426
0.907744 0.428077 0.170397
0.950591 0.454276 0.183322
0.98819 0.481605 0.197543
1 0.509453 0.212848
1 0.536217 0.228
1 0.5608 0.241901
1 0.583642 0.255222
1 0.603891 0.267231
1 0.621561 0.277836
1 0.636347 0.286976
1 0.648997 0.294759
1 0.659281 0.301442
0.254032 0.34197 0.220142
0.257465 0.341665 0.216358
0.260258 0.341558 0.213046
0.262348 0.341711 0.209857
0.264195 0.341924 0.20705
0.266056 0.342504 0.203937
0.268391 0.343771 0.199802
0.271 0.346242 0.1944
0.286534 0.344686 0.192706
0.305531 0.34461 0.190188
0.325444 0.346654 0.188663
0.347204 0.352316 0.188968
0.374929 0.360906 0.182361
0.417517 0.367437 0.178103
0.47895 0.368688 0.179004
0.544274 0.371847 0.175341
0.611017 0.377493 0.171511
0.676768 0.386435 0.169482
0.739315 0.39826 0.170047
0.797909 0.413809 0.173632
0.852064 0.432517 0.180041
0.900816 0.453666 0.188693
0.944396 0.477058 0.199603
0.982788 0.502022 0.21236
1 0.527306 0.225971
1 0.552254 0.239933
1 0.575143 0.25272
1 0.596429 0.265141
1 0.615442 0.276448
1 0.632059 0.286229
1 0.646311 0.295125
1 0.658061 0.302235
1 0.667765 0.308568
0.29395 0.389563 0.253025
0.296407 0.389212 0.24976
0.298482 0.389029 0.246677
0.300206 0.388952 0.243946
0.301534 0.389105 0.241398
0.303258 0.389487 0.238514
0.305241 0.390173 0.234714
0.307897 0.391821 0.229953
0.315435 0.393103 0.225574
0.333318 0.391974 0.22414
0.353811 0.392096 0.22063
0.375326 0.395285 0.219547
0.399023 0.40148 0.218219
0.429297 0.411032 0.210117
0.474662 0.416968 0.206577
0.537041 0.418555 0.207645
0.602167 0.422156 0.204242
0.667369 0.428458 0.201099
0.730266 0.437842 0.199725
0.789151 0.450004 0.200671
0.843976 0.465187 0.204608
0.893431 0.483513 0.211093
0.937774 0.503838 0.219974
0.97641 0.525856 0.230274
1 0.54876 0.242222
1 0.571206 0.254398
1 0.592416 0.266316
1 0.611948 0.277485
1 0.629633 0.287739
1 0.644892 0.297047
1 0.658351 0.305165
1 0.669245 0.311742
1 0.678325 0.317632
0.335103 0.438071 0.287816
0.336812 0.437705 0.284977
0.338323 0.437446 0.282414
0.339681 0.437308 0.280095
0.340948 0.437476 0.277653
0.342504 0.437812 0.275074
0.344488 0.438468 0.272023
0.34699 0.439811 0.267628
0.349828 0.442252 0.261906
0.363256 0.44152 0.259251
0.382544 0.440742 0.257023
0.404883 0.441825 0.252964
0.427359 0.445426 0.251942
0.452735 0.452415 0.249317
0.48481 0.462593 0.239551
0.532631 0.467887 0.23714
0.594507 0.469871 0.23827
0.658366 0.473762 0.235492
0.720897 0.480735 0.232837
0.78027 0.490059 0.232074
0.835416 0.502327 0.233509
0.885359 0.517296 0.237507
0.930251 0.534295 0.243641
0.969604 0.553399 0.25211
1 0.573465 0.262028
1 0.593637 0.272404
1 0.612512 0.282582
1 0.630167 0.292683
1 0.646403 0.301885
1 0.660548 0.310033
1 0.672679 0.317678
1 0.682719 0.32372
1 0.691218 0.328695
0.377401 0.487358 0.32462
0.378576 0.487007 0.322316
0.379828 0.486824 0.320241
0.381186 0.486809 0.317998
0.382239 0.486992 0.31577
0.383597 0.48719 0.313375
0.38526 0.487572 0.310567
0.387472 0.488563 0.3066
0.390204 0.490425 0.301442
0.396139 0.492302 0.296422
0.413962 0.490913 0.294926
0.434195 0.490394 0.291829
0.457679 0.492149 0.28716
0.480964 0.496529 0.285893
0.507881 0.504112 0.281483
0.541085 0.514702 0.270466
0.590082 0.519356 0.269444
0.650813 0.521599 0.270497
0.711879 0.525856 0.268605
0.771069 0.532967 0.266453
0.826322 0.542351 0.265858
0.876997 0.554192 0.26743
0.922225 0.568429 0.271443
0.962386 0.584375 0.277424
0.997223 0.601572 0.285298
1 0.619333 0.294011
1 0.63595 0.302556
1 0.651667 0.311025
1 0.665949 0.318761
1 0.67863 0.325917
1 0.689494 0.332586
1 0.698924 0.337911
1 0.706569 0.342809
0.419638 0.536187 0.362234
0.420783 0.536034 0.360296
0.422004 0.536019 0.358267
0.423056 0.536126 0.356313
0.424247 0.536324 0.354391
0.425574 0.536568 0.352514
0.427298 0.537011 0.350195
0.429389 0.537865 0.346807
0.431891 0.53933 0.34229
0.434348 0.54168 0.336477
0.447242 0.541115 0.333608
0.46598 0.540124 0.331655
0.487343 0.540505 0.328466
0.511315 0.542641 0.322271
0.534981 0.547738 0.320745
0.563058 0.555764 0.3149
0.596597 0.566674 0.302434
0.64596 0.570565 0.302922
0.704448 0.573037 0.304448
0.762295 0.577447 0.302754
0.817227 0.584619 0.301167
0.86807 0.593683 0.301106
0.913832 0.604868 0.302739
0.954452 0.617929 0.306462
0.989548 0.632273 0.311727
1 0.647456 0.318349
1 0.66212 0.32549
1 0.675715 0.332357
1 0.688136 0.338933
1 0.699413 0.345006
1 0.708965 0.350545
1 0.717281 0.355261
1 0.7243 0.359365
0.462852 0.584421 0.400519
0.463935 0.584405 0.398718
0.46482 0.584512 0.396963
0.465827 0.58468 0.395239
0.466941 0.584878 0.393606
0.468025 0.585168 0.39202
0.469474 0.585611 0.389761
0.47126 0.586374 0.38677
0.473655 0.587518 0.383017
0.476173 0.589471 0.378271
0.482856 0.590921 0.373373
0.49958 0.589548 0.372091
0.518547 0.588724 0.369436
0.54049 0.5897 0.365225
0.564675 0.592508 0.358816
0.588769 0.598184 0.356451
0.617288 0.606546 0.349172
0.650813 0.617472 0.335454
0.699763 0.620584 0.337575
0.75494 0.623301 0.339239
0.808728 0.627802 0.338155
0.85922 0.634745 0.336919
0.905226 0.643305 0.336812
0.946044 0.65362 0.338399
0.982025 0.665599 0.341955
1 0.678065 0.346532
1 0.690486 0.351781
1 0.702159 0.357214
1 0.712795 0.362051
1 0.72253 0.367163
1 0.731044 0.371588
1 0.738186 0.375402
1 0.744137 0.378973
0.50631 0.631632 0.438773
0.507073 0.631815 0.437278
0.508019 0.631968 0.435798
0.508965 0.632151 0.434592
0.509896 0.63241 0.433082
0.510887 0.632685 0.431571
0.512093 0.633127 0.429587
0.513664 0.633799 0.427024
0.515572 0.634821 0.423804
0.517754 0.636439 0.419516
0.520256 0.638498 0.413748
0.534203 0.637324 0.412161
0.551339 0.636347 0.410285
0.570825 0.636271 0.407095
0.592996 0.637552 0.402335
0.616709 0.641093 0.395819
0.641413 0.647105 0.392065
0.669978 0.655619 0.3832
0.702495 0.666514 0.368948
0.750225 0.668849 0.372549
0.80174 0.67158 0.37435
0.851331 0.676265 0.373831
0.896803 0.682612 0.373053
0.937758 0.690547 0.373098
0.973709 0.700114 0.374533
1 0.710231 0.377203
1 0.72079 0.381018
1 0.730358 0.384604
1 0.739422 0.388296
1 0.747631 0.391959
1 0.754772 0.395285
1 0.760983 0.398611
1 0.766079 0.400961
0.548806 0.677089 0.476555
0.54963 0.677195 0.475242
0.550423 0.677333 0.47393
0.551217 0.677485 0.472633
0.55201 0.677653 0.471351
0.552758 0.677913 0.469978
0.55378 0.678325 0.468284
0.555123 0.67892 0.466102
0.556741 0.679805 0.463478
0.558694 0.681147 0.459693
0.56083 0.683162 0.455039
0.570153 0.683177 0.452232
0.585321 0.681941 0.450721
0.60238 0.681102 0.448157
0.622034 0.681682 0.444556
0.643839 0.683543 0.438773
0.667308 0.68751 0.432593
0.692058 0.693889 0.427314
0.720027 0.702342 0.417197
0.751461 0.713039 0.40235
0.797498 0.714794 0.408042
0.844541 0.71722 0.409628
0.889158 0.721889 0.409323
0.929808 0.727672 0.408682
0.965774 0.735073 0.40885
0.996948 0.743114 0.410239
1 0.751842 0.412558
1 0.759869 0.414603
1 0.767132 0.416815
1 0.773877 0.419272
1 0.779873 0.421546
1 0.78497 0.423865
1 0.789517 0.425971
0.590066 0.719783 0.512566
0.590768 0.719982 0.511482
0.591485 0.720195 0.510414
0.592126 0.720455 0.509316
0.592782 0.720714 0.508232
0.593454 0.720974 0.507317
0.594339 0.72134 0.506004
0.595392 0.721904 0.504097
0.596796 0.722667 0.501656
0.598627 0.723751 0.498543
0.600427 0.725429 0.494697
0.6065 0.725826 0.49102
0.619318 0.72462 0.489891
0.634638 0.723751 0.488045
0.651896 0.723674 0.485588
0.671199 0.724483 0.480995
0.692729 0.726955 0.474617
0.71577 0.731594 0.468223
0.739681 0.73814 0.461601
0.766659 0.746349 0.450309
0.796567 0.756374 0.436423
0.840269 0.757458 0.44271
0.883162 0.760082 0.444572
0.922728 0.764218 0.444358
0.958618 0.76968 0.444053
0.989548 0.775982 0.444114
1 0.78291 0.445121
1 0.789502 0.446067
1 0.795483 0.447349
1 0.801083 0.448707
1 0.80592 0.450263
1 0.810117 0.45153
1 0.813535 0.452811
0.629679 0.759808 0.547509
0.630259 0.760021 0.546609
0.630823 0.76025 0.545693
0.631388 0.760479 0.544793
0.631952 0.760708 0.543893
0.632471 0.760998 0.542931
0.633158 0.761349 0.541695
0.634073 0.761837 0.540108
0.635172 0.762509 0.538308
0.636454 0.763348 0.535424
0.637995 0.764599 0.53164
0.642374 0.765469 0.528664
0.653422 0.764355 0.527733
0.666575 0.763424 0.526284
0.68162 0.762936 0.524086
0.698528 0.763134 0.520577
0.717784 0.764721 0.515953
0.738994 0.767575 0.508675
0.760754 0.77232 0.501961
0.784314 0.778866 0.494301
0.810513 0.787213 0.482551
0.838453 0.796017 0.470146
0.878737 0.796765 0.476112
0.917067 0.799405 0.477806
0.952102 0.803265 0.478508
0.982879 0.808057 0.478218
1 0.813321 0.478096
1 0.818692 0.478538
1 0.823499 0.47866
1 0.827817 0.479194
1 0.831769 0.479728
1 0.835279 0.480583
1 0.838178 0.4813
0.66688 0.796551 0.580011
0.667323 0.796765 0.579309
0.66775 0.796994 0.578515
0.668101 0.797238 0.577768
0.668452 0.797498 0.57702
0.668849 0.797742 0.576242
0.669444 0.798062 0.575235
0.67013 0.798505 0.573846
0.670909 0.798993 0.571939
0.671946 0.799664 0.569757
0.67332 0.800855 0.56669
0.677546 0.801404 0.564111
0.686717 0.800473 0.563241
0.697688 0.799649 0.562081
0.710887 0.799023 0.560311
0.725505 0.798733 0.557794
0.742458 0.799603 0.553948
0.761166 0.801358 0.548272
0.781888 0.804883 0.540627
0.80293 0.809812 0.533928
0.825467 0.816312 0.525093
0.85008 0.824231 0.512688
0.877028 0.831724 0.503014
0.913222 0.832654 0.508171
0.947005 0.835081 0.51014
0.977172 0.83856 0.51046
1 0.84242 0.510445
1 0.846662 0.510445
1 0.850477 0.510033
1 0.854093 0.509911
1 0.85713 0.509941
1 0.859785 0.509896
1 0.862028 0.509987
0.700771 0.829831 0.610178
0.701152 0.83003 0.609537
0.701534 0.830228 0.608896
0.701885 0.830427 0.60824
0.702205 0.83064 0.607584
0.702571 0.830869 0.606897
0.703014 0.831159 0.606027
0.703609 0.831556 0.604883
0.704387 0.832074 0.603387
0.705257 0.832792 0.601434
0.706081 0.833631 0.598886
0.710567 0.8336 0.597253
0.718273 0.832807 0.596521
0.727657 0.832013 0.595514
0.738949 0.831373 0.594049
0.751827 0.831113 0.591943
0.766522 0.83125 0.588693
0.783352 0.832471 0.584619
0.801251 0.834791 0.578332
0.821027 0.838437 0.56968
0.841108 0.843503 0.562783
0.86276 0.850019 0.553323
0.885771 0.857755 0.540719
0.911498 0.86363 0.534112
0.943465 0.864607 0.538689
0.972625 0.86688 0.540307
0.998215 0.869871 0.540978
1 0.873243 0.540948
1 0.87599 0.540337
1 0.878676 0.539696
1 0.881086 0.539117
1 0.88336 0.538872
1 0.884993 0.538643
0.731624 0.859342 0.637491
0.731914 0.859525 0.636927
0.732189 0.859709 0.636362
0.732479 0.859892 0.635813
0.732769 0.860075 0.635264
0.733059 0.860273 0.634684
0.733455 0.860533 0.633951
0.733822 0.860899 0.632975
0.734295 0.861418 0.631693
0.735042 0.862043 0.630198
0.736278 0.862776 0.628199
0.741634 0.862135 0.62768
0.748089 0.861463 0.627054
0.755932 0.860716 0.626123
0.765316 0.859953 0.624704
0.776486 0.859602 0.622965
0.789532 0.859663 0.620417
0.803906 0.860212 0.616892
0.820249 0.861952 0.611872
0.83798 0.864561 0.605173
0.856641 0.868559 0.596582
0.875975 0.873686 0.5888
0.896391 0.880049 0.57879
0.917494 0.887358 0.566323
0.94139 0.891829 0.562478
0.969238 0.89279 0.566445
0.994247 0.894728 0.56817
1 0.897246 0.56875
1 0.899382 0.5682
1 0.901305 0.567391
1 0.903288 0.566888
1 0.904845 0.566262
1 0.90634 0.56585
0.759075 0.88539 0.66183
0.759319 0.885542 0.661357
0.759548 0.88571 0.660883
0.759762 0.885878 0.660395
0.759976 0.886046 0.660029
0.760189 0.886229 0.659648
0.760479 0.886458 0.659037
0.7608 0.886778 0.658198
0.761288 0.88719 0.657191
0.761959 0.887724 0.655833
0.765225 0.887404 0.655329
0.76939 0.886839 0.65478
0.774762 0.886152 0.653971
0.781491 0.885588 0.653193
0.789639 0.885039 0.652125
0.79939 0.884642 0.650614
0.810666 0.88455 0.648753
0.823468 0.884718 0.645594
0.838102 0.885847 0.641596
0.853803 0.887785 0.635981
0.870756 0.890898 0.628321
0.88893 0.895277 0.620233
0.907149 0.90045 0.611948
0.925948 0.906401 0.601205
0.945022 0.913222 0.589014
0.967514 0.916091 0.588617
0.991318 0.917098 0.591546
1 0.918883 0.593149
1 0.920577 0.593317
1 0.921981 0.592782
1 0.923201 0.592309
1 0.924498 0.591791
1 0.925429 0.591058
0.782849 0.907668 0.68333
0.783032 0.90782 0.682918
0.78323 0.907973 0.682506
0.783444 0.90811 0.682109
0.783673 0.908263 0.681727
0.783886 0.9084 0.681331
0.784192 0.908598 0.680812
0.784543 0.908843 0.680201
0.785534 0.908949 0.679713
