luts/Arrakis-CLog3.cube
TITLE "Generated by Resolve"
LUT_3D_SIZE 33
0 0.0122377 0.0149538
0 0.0122377 0.0149538
0 0.0122377 0.0149538
0.00189212 0.0126192 0.0124819
0.0623178 0.0081178 0.0196231
0.151476 0.00344854 0.0114443
0.230228 4.57771e-05 0.00109865
0.300969 0.00714122 0
0.370535 0.0180514 0
0.438773 0.0328374 0
0.505135 0.0500496 0
0.568902 0.0682383 0.00396735
0.629313 0.0877394 0.00939956
0.687068 0.108156 0.0164034
0.741588 0.130144 0.0251621
0.792935 0.153384 0.0356146
0.841169 0.176761 0.0466316
0.886244 0.200381 0.0578622
0.928222 0.224826 0.0700999
0.967086 0.250355 0.0833753
1 0.276097 0.0969406
1 0.30193 0.110567
1 0.32726 0.123995
1 0.351797 0.136782
1 0.375998 0.149477
1 0.399161 0.161364
1 0.421698 0.173114
1 0.443351 0.184115
1 0.463722 0.194766
1 0.483009 0.204547
1 0.500877 0.213565
1 0.517479 0.221866
1 0.530694 0.228733
0 0.0122377 0.0149538
0 0.0122377 0.0149538
0 0.0122377 0.0149538
0.00314336 0.0124971 0.0120851
0.0659342 0.00805676 0.0196231
0.154421 0.00326543 0.0110323
0.232334 0.000228885 0.0010071
0.302571 0.00740063 0
0.371923 0.0183108 0
0.439796 0.0331426 0
0.50605 0.0502937 0
0.569635 0.068452 0.00401312
0.629816 0.087953 0.00947585
0.687388 0.108293 0.0164492
0.741863 0.130251 0.0251926
0.793194 0.15349 0.0356451
0.841382 0.176867 0.0466773
0.886412 0.200473 0.057908
0.928359 0.224903 0.0701305
0.967178 0.250431 0.0834058
1 0.276158 0.0969863
1 0.301976 0.110582
1 0.327306 0.124025
1 0.351827 0.136797
1 0.376028 0.149493
1 0.399176 0.161379
1 0.421714 0.173129
1 0.443366 0.184131
1 0.463737 0.194781
1 0.483009 0.204547
1 0.500877 0.213565
1 0.517494 0.221881
1 0.530694 0.228733
0 0.0122377 0.0149538
0 0.0122377 0.0149538
0 0.0122377 0.0149538
0.00424201 0.0124208 0.0117647
0.0689097 0.00796521 0.0195468
0.15668 0.00315862 0.0107576
0.234104 0.000366217 0.000915541
0.303899 0.00761425 0
0.373083 0.0185245 0
0.440726 0.0333715 0
0.506783 0.0504921 3.0518e-05
0.570214 0.0686351 0.0040589
0.630289 0.0881056 0.00953689
0.687633 0.1084 0.0164797
0.742061 0.130358 0.0252079
0.793378 0.153567 0.0356603
0.84155 0.176944 0.0467231
0.886549 0.200549 0.0579385
0.92845 0.224964 0.070161
0.967254 0.250477 0.0834363
1 0.276204 0.0970016
1 0.302007 0.110597
1 0.327337 0.124025
1 0.351858 0.136812
1 0.376043 0.149508
1 0.399207 0.161395
1 0.421729 0.173129
1 0.443381 0.184131
1 0.463737 0.194781
1 0.483024 0.204562
1 0.500893 0.213565
1 0.517494 0.221881
1 0.530694 0.228733
0 0.0267185 0.0250095
0 0.0257115 0.0245365
0 0.0250248 0.0243687
0.0074464 0.0230564 0.01944
0.0728466 0.0199588 0.0187381
0.148577 0.0198367 0.0125887
0.218494 0.0238041 0.00865187
0.289525 0.0304265 0.00595102
0.360189 0.040177 0.00427253
0.429786 0.0516365 0.00389105
0.497642 0.0644083 0.00518807
0.563256 0.0784924 0.00772107
0.626337 0.0937209 0.0115206
0.686778 0.110201 0.0170596
0.742214 0.130434 0.0252384
0.793545 0.153628 0.0356756
0.841703 0.17702 0.0467536
0.886656 0.20061 0.057969
0.928542 0.225025 0.0701915
0.96733 0.250523 0.0834669
1 0.276249 0.0970321
1 0.302052 0.110628
1 0.327367 0.124056
1 0.351873 0.136812
1 0.376059 0.149508
1 0.399222 0.161395
1 0.421744 0.173129
1 0.443397 0.184146
1 0.463752 0.194781
1 0.483024 0.204562
1 0.500893 0.213565
1 0.517494 0.221881
1 0.530694 0.228733
0.00820935 0.0735027 0.0533913
0.00741588 0.0721294 0.05243
0.00688182 0.0709392 0.0516976
0.0247349 0.0675364 0.0463569
0.0692454 0.0698863 0.035523
0.127703 0.0709392 0.0316472
0.195407 0.0706035 0.0241855
0.263462 0.07364 0.0191653
0.331762 0.0791791 0.0159609
0.399771 0.0868391 0.0142824
0.466575 0.0964218 0.0140536
0.531991 0.107271 0.0152285
0.595346 0.120226 0.0182956
0.656214 0.13434 0.0225071
0.714626 0.150317 0.028748
0.770321 0.167773 0.0369421
0.822873 0.186526 0.0462043
0.872908 0.207095 0.0571756
0.919738 0.228672 0.0691386
0.964034 0.251743 0.0828412
1 0.27628 0.0970474
1 0.302068 0.110643
1 0.327382 0.124056
1 0.351888 0.136828
1 0.376074 0.149523
1 0.399237 0.16141
1 0.421744 0.173144
1 0.443397 0.184146
1 0.463767 0.194797
1 0.48304 0.204578
1 0.500908 0.213581
1 0.51751 0.221881
1 0.530694 0.228733
0.0361181 0.118044 0.0822766
0.0352483 0.116869 0.0814832
0.034638 0.115877 0.0807813
0.0579995 0.111803 0.0749523
0.090074 0.115236 0.0566873
0.122896 0.1187 0.0556954
0.179171 0.118242 0.050782
0.24654 0.116945 0.0416419
0.313298 0.117662 0.0345312
0.379797 0.120836 0.0297093
0.445197 0.126314 0.0268711
0.509255 0.134005 0.0260166
0.57145 0.143297 0.026566
0.631998 0.154864 0.0293278
0.690013 0.168246 0.0338903
0.745357 0.1832 0.0398718
0.798184 0.200275 0.0474556
0.848295 0.218784 0.0567178
0.896162 0.238804 0.0677501
0.941039 0.259815 0.0797436
0.984131 0.281956 0.0933242
1 0.305089 0.108034
1 0.328298 0.122957
1 0.351919 0.136843
1 0.376089 0.149523
1 0.399252 0.16141
1 0.421759 0.173144
1 0.443412 0.184146
1 0.463767 0.194797
1 0.48304 0.204578
1 0.500908 0.213581
1 0.51751 0.221897
1 0.530694 0.228733
0.0758068 0.15938 0.111116
0.0747845 0.158419 0.110414
0.07393 0.157626 0.109834
0.090898 0.155154 0.102556
0.119188 0.15555 0.0853132
0.145113 0.156268 0.0785077
0.173785 0.1635 0.0735485
0.232593 0.162066 0.0711376
0.298497 0.160235 0.0622873
0.364446 0.160418 0.054612
0.429465 0.162493 0.0489357
0.492485 0.166812 0.0450599
0.55436 0.173251 0.0434119
0.614115 0.181628 0.0435187
0.671794 0.191989 0.0455024
0.726833 0.204135 0.0491035
0.779263 0.218097 0.0542458
0.829084 0.23357 0.0611429
0.876143 0.250538 0.0693828
0.920516 0.269001 0.078996
0.962768 0.289235 0.0907149
1 0.310948 0.103838
1 0.333364 0.117983
1 0.355062 0.132433
1 0.377142 0.14728
1 0.399252 0.161425
1 0.421775 0.173144
1 0.443412 0.184161
1 0.463783 0.194797
1 0.483055 0.204578
1 0.500908 0.213581
1 0.51751 0.221897
1 0.530694 0.228733
0.111986 0.202441 0.140276
0.11133 0.201602 0.139788
0.11078 0.2009 0.139422
0.123934 0.198566 0.131502
0.14844 0.197284 0.114214
0.165911 0.198581 0.102449
0.193393 0.200092 0.102022
0.224796 0.20853 0.0931106
0.285695 0.205844 0.0924544
0.350301 0.203937 0.0842756
0.415061 0.203906 0.0766308
0.478325 0.205447 0.0702068
0.540078 0.209216 0.0662699
0.599603 0.214862 0.0639963
0.656779 0.222385 0.0634928
0.711498 0.231876 0.0648508
0.763653 0.243061 0.0678416
0.813169 0.255909 0.072282
0.860121 0.270146 0.078233
0.904189 0.285863 0.0854353
0.945739 0.302754 0.094255
0.984878 0.320867 0.10428
1 0.340322 0.115816
1 0.360174 0.127825
1 0.38085 0.140993
1 0.401862 0.155138
1 0.42237 0.170321
1 0.443427 0.184161
1 0.463798 0.194797
1 0.483055 0.204578
1 0.500923 0.213581
1 0.517525 0.221897
1 0.530694 0.228733
0.145953 0.245884 0.170565
0.145418 0.245212 0.170077
0.144991 0.244633 0.16968
0.157061 0.241932 0.161028
0.178973 0.239582 0.144259
0.187533 0.242039 0.13019
0.216724 0.239948 0.124178
0.242435 0.244404 0.124819
0.277577 0.252171 0.11548
0.33785 0.249577 0.114717
0.401785 0.248035 0.1075
0.465034 0.247623 0.0996567
0.526589 0.249256 0.0933089
0.586221 0.252308 0.0888685
0.643595 0.257771 0.0862745
0.698268 0.264698 0.0853437
0.750286 0.273472 0.0861982
0.8 0.284169 0.0889601
0.846815 0.296025 0.0928817
0.890608 0.309316 0.098085
0.931945 0.32369 0.10454
0.970626 0.339132 0.112291
1 0.355505 0.121172
1 0.372366 0.130526
1 0.389075 0.140032
1 0.406348 0.15053
1 0.424964 0.162448
1 0.444526 0.176379
1 0.463859 0.191485
1 0.48307 0.204593
1 0.500923 0.213596
1 0.517525 0.221912
1 0.530694 0.228733
0.179889 0.289708 0.201755
0.179446 0.289143 0.201343
0.17908 0.288685 0.201007
0.190707 0.285405 0.191791
0.209964 0.28217 0.175235
0.218753 0.282658 0.16231
0.235966 0.282689 0.153017
0.265171 0.283009 0.150225
0.29192 0.289158 0.147509
0.329503 0.295689 0.138354
0.389364 0.293202 0.13753
0.45182 0.29189 0.130861
0.513664 0.291859 0.123629
0.573571 0.29308 0.117296
0.630991 0.296269 0.11281
0.685939 0.301411 0.110002
0.738293 0.30782 0.108721
0.787793 0.316167 0.109575
0.834485 0.326085 0.111574
0.878431 0.337163 0.114809
0.919554 0.349477 0.119356
0.95845 0.363073 0.125429
0.994125 0.377234 0.132235
1 0.39205 0.13994
1 0.406317 0.147189
1 0.420539 0.154971
1 0.434943 0.163394
1 0.449439 0.172137
1 0.465095 0.182437
1 0.482918 0.195315
1 0.500526 0.209934
1 0.51754 0.221912
1 0.530694 0.228733
0.213733 0.333059 0.234104
0.213474 0.332708 0.233875
0.213275 0.332418 0.233661
0.224567 0.328664 0.223301
0.241489 0.324742 0.206973
0.250034 0.324041 0.194446
0.255024 0.326818 0.181277
0.28629 0.323919 0.177157
0.312901 0.326345 0.175616
0.341253 0.333349 0.170321
0.381384 0.339193 0.162219
0.440314 0.336934 0.161364
0.501137 0.335836 0.155352
0.561013 0.335897 0.148486
0.618723 0.337179 0.142061
0.674159 0.340352 0.137621
0.726818 0.345174 0.134768
0.77641 0.351354 0.133394
0.82356 0.35938 0.133837
0.867323 0.368566 0.135195
0.908721 0.378973 0.138186
0.947372 0.390555 0.142458
0.983063 0.402853 0.147494
1 0.416159 0.153613
1 0.429038 0.159808
1 0.441367 0.165545
1 0.453651 0.171908
1 0.4654 0.177905
1 0.476921 0.184497
1 0.488563 0.191516
1 0.500969 0.200031
1 0.516075 0.211322
1 0.529717 0.224216
0.247608 0.376486 0.267018
0.247318 0.376104 0.266712
0.247074 0.375799 0.266468
0.258549 0.371588 0.25536
0.273182 0.367224 0.239109
0.281376 0.365621 0.2271
0.2869 0.366735 0.215824
0.30515 0.366644 0.207141
0.335668 0.365911 0.201419
0.360998 0.369955 0.201205
0.390326 0.377615 0.193256
0.432074 0.382483 0.186603
0.490089 0.380377 0.185763
0.54902 0.379477 0.180163
0.606592 0.379507 0.173495
0.662287 0.381201 0.167544
0.715282 0.38439 0.163134
0.765667 0.388922 0.160342
0.812589 0.394949 0.158648
0.857191 0.402487 0.158785
0.898268 0.411109 0.159777
0.937179 0.421042 0.162539
0.972808 0.431662 0.165896
1 0.443275 0.170565
1 0.454917 0.17557
1 0.466255 0.18027
1 0.47686 0.184924
1 0.487251 0.189807
1 0.49691 0.19411
1 0.506233 0.198993
1 0.515129 0.203708
1 0.523491 0.208865
1 0.530709 0.213855
0.281758 0.419486 0.300862
0.281514 0.419165 0.300618
0.281315 0.418906 0.30042
0.292576 0.413993 0.288045
0.30547 0.409216 0.272023
0.312688 0.407095 0.260578
0.318181 0.406882 0.250034
0.324453 0.410407 0.237369
0.354223 0.407156 0.233448
0.382956 0.408301 0.228321
0.408835 0.413306 0.226505
0.439094 0.421271 0.216861
0.481498 0.425071 0.211307
0.538048 0.423392 0.210819
0.594781 0.422507 0.20531
0.650492 0.423026 0.199268
0.70396 0.424811 0.193744
0.754437 0.428046 0.189242
0.802426 0.432502 0.186587
0.846677 0.438193 0.184634
0.888457 0.445426 0.184375
0.927428 0.45359 0.185626
0.963287 0.46276 0.187716
0.996597 0.472877 0.190829
1 0.483238 0.194629
1 0.493446 0.198245
1 0.503014 0.201846
1 0.512322 0.205264
1 0.521111 0.208927
1 0.52929 0.212146
1 0.536416 0.215167
1 0.543252 0.218158
1 0.547494 0.220111
0.315724 0.462043 0.335088
0.315572 0.461845 0.334936
0.31545 0.461692 0.334829
0.326833 0.45565 0.320867
0.338003 0.450675 0.305074
0.344442 0.448142 0.294163
0.349416 0.447105 0.284276
0.355093 0.449226 0.272786
0.373312 0.449546 0.264836
0.402258 0.447944 0.259785
0.429618 0.450462 0.255665
0.455772 0.45623 0.251987
0.486229 0.464256 0.240818
0.529564 0.467216 0.23653
0.584268 0.465705 0.236011
0.6392 0.465171 0.23122
0.692485 0.465919 0.225483
0.743542 0.467811 0.220264
0.79147 0.471061 0.2159
0.836896 0.475425 0.213245
0.878569 0.480903 0.21117
0.917662 0.48777 0.210864
0.954162 0.495537 0.211688
0.987381 0.504021 0.213077
1 0.513268 0.215854
1 0.52256 0.218753
1 0.531121 0.221347
1 0.539483 0.223758
1 0.547372 0.226413
1 0.554818 0.228748
1 0.561563 0.230869
1 0.567437 0.232944
1 0.570916 0.233707
0.350088 0.503975 0.370153
0.34992 0.503761 0.36997
0.349767 0.503594 0.369833
0.361089 0.496452 0.353475
0.370626 0.491356 0.338674
0.376257 0.488609 0.328283
0.380957 0.487205 0.319203
0.386206 0.487846 0.308476
0.392294 0.491737 0.295933
0.421256 0.488746 0.292485
0.449485 0.488533 0.28632
0.475288 0.49221 0.283024
0.502098 0.498344 0.277638
0.532464 0.506401 0.264851
0.576074 0.50869 0.262333
0.629114 0.507362 0.26183
0.681468 0.507103 0.257664
0.732509 0.508003 0.252171
0.780774 0.510094 0.247303
0.826307 0.513283 0.243244
0.868955 0.517632 0.240131
0.908461 0.523125 0.238682
0.944732 0.529397 0.237659
0.978393 0.53666 0.237949
1 0.544686 0.239643
1 0.553094 0.241459
1 0.56051 0.242878
1 0.568139 0.244511
1 0.57528 0.246357
1 0.581964 0.247944
1 0.588083 0.249424
1 0.593545 0.250767
1 0.59675 0.251041
0.383764 0.544762 0.404837
0.383627 0.54461 0.4047
0.383505 0.544457 0.404608
0.39472 0.536263 0.386099
0.403403 0.531456 0.372534
0.408362 0.528511 0.362631
0.412161 0.526604 0.353597
0.417273 0.526619 0.343999
0.423117 0.529168 0.332784
0.43978 0.529427 0.32459
0.467689 0.527779 0.320577
0.495232 0.52871 0.313054
0.520241 0.533104 0.310384
0.547051 0.539651 0.303243
0.577234 0.547814 0.289693
0.621012 0.549187 0.288731
0.672129 0.548257 0.288563
0.722011 0.548165 0.284398
0.770352 0.549111 0.279423
0.815991 0.551339 0.274525
0.858854 0.554543 0.270619
0.898772 0.558801 0.26746
0.935851 0.564004 0.26598
0.96968 0.570199 0.265064
1 0.577035 0.265324
1 0.5841 0.265995
1 0.591043 0.266667
1 0.597742 0.267536
1 0.604105 0.268574
1 0.610208 0.269352
1 0.615808 0.270024
1 0.620737 0.270771
1 0.623713 0.270665
0.417395 0.58439 0.439796
0.417288 0.584253 0.439689
0.418082 0.583459 0.438102
0.428885 0.57499 0.41886
0.43563 0.570169 0.405951
0.439765 0.567239 0.396414
0.443183 0.565042 0.388205
0.447791 0.564446 0.379339
0.453666 0.565866 0.369055
0.45922 0.569909 0.356878
0.485924 0.567224 0.353475
0.512871 0.566323 0.348196
0.539712 0.568109 0.340352
0.564111 0.573083 0.33753
0.59089 0.579797 0.329259
0.620844 0.58819 0.314961
0.664073 0.588937 0.315465
0.712825 0.588022 0.315206
0.76051 0.588205 0.311467
0.806058 0.589441 0.306966
0.848966 0.591485 0.302159
0.889174 0.594736 0.29839
0.926314 0.598749 0.295445
0.960616 0.6038 0.293324
0.992218 0.609491 0.292683
1 0.615869 0.292363
1 0.622049 0.292119
1 0.62797 0.292317
1 0.633616 0.292439
1 0.639002 0.292439
1 0.644053 0.29247
1 0.648569 0.292988
1 0.651377 0.292363
0.450828 0.62295 0.474784
0.450752 0.622858 0.474708
0.453376 0.620447 0.469673
0.462303 0.612085 0.45095
0.467658 0.607843 0.43917
0.471473 0.60502 0.430686
0.474449 0.602731 0.423026
0.478508 0.601755 0.414496
0.484062 0.60238 0.405112
0.489601 0.605173 0.394125
0.504143 0.605951 0.385626
0.530556 0.604013 0.381979
0.556603 0.604074 0.375921
0.582635 0.606882 0.369238
0.60647 0.611978 0.364538
0.633234 0.618753 0.355001
0.662577 0.627146 0.340154
0.70515 0.627222 0.342168
0.751461 0.626459 0.341909
0.796521 0.626795 0.338796
0.839384 0.628183 0.334386
0.879805 0.630488 0.330266
0.917311 0.633692 0.326406
0.951873 0.637659 0.323537
0.983566 0.642405 0.321538
1 0.647593 0.320043
1 0.653147 0.319249
1 0.658061 0.318471
1 0.663066 0.317647
1 0.667887 0.317006
1 0.672358 0.316915
1 0.676585 0.316548
1 0.679133 0.315526
0.483742 0.660105 0.509071
0.483665 0.660014 0.508995
0.487373 0.655421 0.499596
0.495155 0.648142 0.482704
0.499428 0.644038 0.472145
0.50248 0.641184 0.464225
0.504997 0.638926 0.456779
0.508446 0.637797 0.449058
0.513527 0.637781 0.440391
0.519188 0.639536 0.430716
0.524681 0.643412 0.41886
0.548394 0.641306 0.415106
0.573724 0.639918 0.410636
0.59913 0.641123 0.403922
0.623697 0.644251 0.397009
0.647501 0.6495 0.391546
0.673869 0.656352 0.380835
0.702144 0.664652 0.36582
0.743984 0.664042 0.369192
0.787671 0.663569 0.368841
0.830076 0.664073 0.365743
0.870222 0.665507 0.361898
0.907973 0.667857 0.357778
0.942916 0.670939 0.354482
0.974884 0.674769 0.351415
1 0.679225 0.349401
1 0.684108 0.347768
1 0.688518 0.346242
1 0.692805 0.34461
1 0.696849 0.343374
1 0.700771 0.342428
1 0.704433 0.341314
1 0.706996 0.340185
0.515663 0.695705 0.542748
0.515602 0.695628 0.542672
0.520943 0.689128 0.529519
0.527123 0.682338 0.51371
0.530785 0.678904 0.504677
0.533074 0.676295 0.497215
0.535225 0.674083 0.49041
0.538415 0.672679 0.483345
0.542992 0.672358 0.475471
0.548287 0.673457 0.466224
0.553841 0.676219 0.455802
0.566201 0.677455 0.447105
0.590692 0.67541 0.443946
0.615213 0.674968 0.438651
0.639857 0.676585 0.431632
0.663462 0.680171 0.424613
0.686931 0.685603 0.418067
0.712367 0.692531 0.406683
0.739681 0.700481 0.391974
0.780484 0.699458 0.395743
0.821836 0.699107 0.395605
0.861509 0.699748 0.393088
0.89897 0.701259 0.389258
0.933959 0.703563 0.385489
0.966201 0.706645 0.38204
0.995666 0.710369 0.3794
1 0.714488 0.377096
1 0.718227 0.375021
1 0.722011 0.372793
1 0.725689 0.371008
1 0.72903 0.369207
1 0.732174 0.367483
1 0.734203 0.365774
0.547356 0.729915 0.576196
0.547311 0.729854 0.57615
0.553643 0.72105 0.557824
0.558389 0.715236 0.544167
0.560891 0.71194 0.535882
0.562936 0.709453 0.529213
0.564828 0.707439 0.523247
0.567987 0.706142 0.516915
0.571939 0.705638 0.509392
0.576883 0.705989 0.501045
0.582025 0.707805 0.491524
0.587335 0.711437 0.480354
0.608042 0.709957 0.47631
0.63151 0.708339 0.472251
0.655283 0.708751 0.466545
0.678706 0.710781 0.458503
0.701518 0.714611 0.452033
0.724483 0.720348 0.444099
0.749477 0.727321 0.432685
0.775387 0.734539 0.418494
0.815106 0.733455 0.422751
0.853986 0.733288 0.422858
0.891066 0.734051 0.420325
0.925902 0.735576 0.416739
0.958129 0.737835 0.413291
0.987671 0.740795 0.410117
1 0.744305 0.407263
1 0.7476 0.404593
1 0.750652 0.401633
1 0.753689 0.398978
1 0.756542 0.396918
1 0.759457 0.395041
1 0.761135 0.39295
0.577874 0.762127 0.608484
0.578927 0.7608 0.605356
0.584833 0.751034 0.584802
0.588708 0.74641 0.573831
0.590631 0.743481 0.566674
0.592081 0.741283 0.560555
0.593576 0.739315 0.555001
0.596216 0.737865 0.548898
0.599954 0.737133 0.542092
0.604425 0.737346 0.53463
0.609567 0.738643 0.526162
0.614939 0.741283 0.516426
0.62504 0.743252 0.507485
0.647929 0.740917 0.50457
0.670832 0.740246 0.500252
0.693385 0.740932 0.493996
0.716228 0.743694 0.485588
0.737957 0.747829 0.478614
0.760388 0.753399 0.470207
0.78439 0.760128 0.457847
0.80975 0.766979 0.445197
0.847166 0.765621 0.449271
0.883406 0.765576 0.449058
0.917845 0.76643 0.446799
0.94995 0.767987 0.443748
0.979522 0.770199 0.440253
1 0.772961 0.437278
1 0.775906 0.434272
1 0.778668 0.431479
1 0.78114 0.428244
1 0.78349 0.425544
1 0.785779 0.422812
1 0.78735 0.420722
0.607492 0.792935 0.63978
0.610147 0.787396 0.629129
0.615045 0.779614 0.611658
0.617441 0.775631 0.602121
0.619379 0.773297 0.59617
0.620508 0.771298 0.59086
0.621744 0.769528 0.585962
0.624033 0.7682 0.58024
0.627359 0.767422 0.573938
0.631434 0.767361 0.567224
0.636454 0.768109 0.55964
0.641489 0.770108 0.550576
0.64625 0.773205 0.539834
0.664103 0.77232 0.535393
0.686168 0.770825 0.532097
0.70779 0.770489 0.527276
0.729747 0.771984 0.520546
0.751644 0.774731 0.511696
0.772442 0.778988 0.504738
0.794156 0.784543 0.495476
0.817136 0.791165 0.482734
0.841886 0.797177 0.471672
0.877012 0.795972 0.475425
0.910842 0.796094 0.475471
0.942748 0.797192 0.473518
0.972259 0.798779 0.470527
0.999359 0.800855 0.467506
1 0.803449 0.464363
1 0.805463 0.460929
1 0.807538 0.457389
1 0.809613 0.454429
1 0.811521 0.451316
1 0.812634 0.44889
0.636179 0.82179 0.669993
0.640223 0.812604 0.651331
0.64361 0.806638 0.637827
0.645502 0.803296 0.630076
0.646632 0.80119 0.624369
0.647822 0.799573 0.620142
0.649058 0.798016 0.615457
0.650965 0.796826 0.610559
0.654032 0.796017 0.604791
0.657908 0.795758 0.598596
0.662287 0.796262 0.591394
0.667231 0.79765 0.583352
0.671748 0.799969 0.573831
0.680156 0.802274 0.565209
0.701396 0.800153 0.562448
0.722271 0.798947 0.558679
0.743145 0.799466 0.553506
0.764096 0.801038 0.546487
0.785183 0.804379 0.537163
0.805356 0.808713 0.530007
0.826032 0.814237 0.519997
0.848035 0.820676 0.506996
0.872282 0.825788 0.497765
0.904997 0.824796 0.50103
0.935912 0.824964 0.500847
0.965042 0.82591 0.499123
0.992081 0.827466 0.496498
1 0.829633 0.493629
1 0.831403 0.490349
1 0.832975 0.48658
1 0.834516 0.48333
1 0.835996 0.479927
1 0.837095 0.477394
0.664088 0.846922 0.694881
0.668666 0.836652 0.673625
0.670787 0.832044 0.662852
0.672129 0.829313 0.656458
0.673014 0.82742 0.651591
0.673884 0.826123 0.647883
0.67509 0.824796 0.643656
0.677073 0.823667 0.639231
0.679637 0.822934 0.634012
0.683116 0.822599 0.628382
0.687266 0.822843 0.621714
0.691707 0.82385 0.614572
0.6963 0.825498 0.606012
0.701015 0.828565 0.596521
0.716472 0.828092 0.591592
0.736614 0.826169 0.588647
0.756771 0.825772 0.584466
0.77644 0.826474 0.578592
0.796597 0.828748 0.57116
0.816724 0.832013 0.561837
0.835813 0.836423 0.554253
0.855772 0.841779 0.543862
0.876753 0.847974 0.530541
0.899962 0.852354 0.523033
0.93051 0.851728 0.526192
0.95906 0.851987 0.526146
0.985763 0.852872 0.524422
1 0.854398 0.52224
1 0.855863 0.51899
1 0.857053 0.515236
1 0.858396 0.511925
1 0.859525 0.508217
1 0.860151 0.50547
0.691722 0.866804 0.711788
0.695125 0.859434 0.695628
0.696559 0.855772 0.687022
0.697536 0.853498 0.681529
0.698024 0.851881 0.677684
0.698512 0.850614 0.673991
0.69987 0.849714 0.670344
0.701732 0.848722 0.666362
0.704265 0.848005 0.661555
0.70721 0.847654 0.656504
0.711055 0.84773 0.650568
0.715206 0.848295 0.643824
0.719493 0.849653 0.636347
0.724315 0.852003 0.627863
0.73135 0.854429 0.619333
0.750927 0.852293 0.616892
0.769924 0.851026 0.613428
0.78912 0.851072 0.609033
0.807965 0.852125 0.602686
0.826825 0.854444 0.594766
0.846372 0.858045 0.585824
0.864668 0.862516 0.577737
0.883787 0.86775 0.566842
0.903395 0.873701 0.553536
0.925643 0.877302 0.547662
0.953689 0.876707 0.550072
0.979873 0.876951 0.550103
1 0.878065 0.548943
1 0.879194 0.546365
1 0.880034 0.543221
1 0.880888 0.539544
1 0.881895 0.536004
1 0.882277 0.533165
0.717647 0.885756 0.728206
0.719478 0.880705 0.716793
0.720546 0.877791 0.709819
0.721202 0.875883 0.70547
0.721691 0.87451 0.701946
0.722713 0.873594 0.698955
0.723751 0.872679 0.69572
0.725383 0.871855 0.691829
0.727443 0.871244 0.687831
0.730312 0.870863 0.682963
0.733761 0.870832 0.67776
0.737575 0.871351 0.671656
0.741848 0.872175 0.66482
0.746151 0.874067 0.657099
0.750576 0.876936 0.648081
0.764462 0.876631 0.643412
0.78294 0.8748 0.640497
0.801251 0.874235 0.637186
0.819333 0.874571 0.632013
0.837491 0.876097 0.62562
0.855573 0.878569 0.617472
0.87364 0.882094 0.608225
0.891417 0.88658 0.599649
0.909697 0.891844 0.588815
0.927962 0.897581 0.575509
0.949523 0.900282 0.571191
0.974975 0.89987 0.573571
0.998718 0.900252 0.573449
1 0.901015 0.572244
1 0.90164 0.569558
1 0.902129 0.566125
1 0.902632 0.562829
1 0.903075 0.560037
0.741375 0.904265 0.745922
0.742489 0.900374 0.736919
0.743236 0.898024 0.731579
0.743847 0.896742 0.727993
0.744244 0.895613 0.725261
0.745037 0.894728 0.722377
0.746075 0.893996 0.719249
0.747677 0.893248 0.716106
0.749752 0.892683 0.712184
