luts/Arrakis-DLog.cube
TITLE "Generated by Resolve"
LUT_3D_SIZE 5
0.00131228 0.0201877 0.020264
0.213596 0.019379 0.0126955
0.695094 0.156497 0.0296788
1 0.438926 0.165621
1 0.627573 0.275761
0.0923934 0.14847 0.095491
0.178225 0.165377 0.0728313
0.651347 0.22472 0.0653391
1 0.465888 0.182849
1 0.639185 0.2851
0.377401 0.487358 0.32462
0.390204 0.490425 0.301442
0.590082 0.519356 0.269444
0.997223 0.601572 0.285298
1 0.706569 0.342809
0.700771 0.829831 0.610178
0.704387 0.832074 0.603387
0.766522 0.83125 0.588693
0.943465 0.864607 0.538689
1 0.884993 0.538643
0.862074 0.970779 0.753902
0.866209 0.970382 0.753384
0.892226 0.968551 0.749325
0.978119 0.979294 0.712581
1 0.992401 0.678599
0.0454414 0.13521 0.141085
0.17293 0.118807 0.1635
0.708522 0.150774 0.145953
1 0.443061 0.211765
1 0.627115 0.275395
0.0784009 0.185214 0.168429
0.192523 0.185061 0.147555
0.643427 0.24033 0.152529
1 0.468086 0.220951
1 0.638788 0.284718
0.382284 0.484428 0.345434
0.401938 0.484611 0.325414
0.586892 0.518456 0.290349
0.997299 0.601053 0.284962
1 0.706294 0.34255
0.700618 0.829709 0.610193
0.704234 0.831952 0.603403
0.766384 0.831144 0.588617
0.943435 0.86453 0.538613
1 0.884932 0.538552
0.861967 0.970764 0.753887
0.866102 0.970367 0.753368
0.892149 0.968521 0.74931
0.978088 0.979278 0.712596
1 0.992401 0.678599
0.207172 0.425406 0.464408
0.27451 0.415503 0.439277
0.622858 0.390112 0.539971
1 0.471595 0.502815
1 0.64799 0.480339
0.181811 0.411078 0.443732
0.250401 0.398962 0.41648
0.573602 0.386755 0.486107
1 0.487587 0.485054
1 0.656245 0.479683
0.381018 0.546838 0.512474
0.410834 0.537804 0.496757
0.601709 0.546883 0.463188
0.983383 0.615839 0.472999
1 0.709895 0.487419
0.714946 0.816449 0.667247
0.72166 0.817105 0.662364
0.752087 0.829541 0.630961
0.932692 0.857557 0.589624
1 0.878538 0.578912
0.861219 0.970672 0.753719
0.865492 0.970214 0.753201
0.891615 0.968368 0.749157
0.977951 0.979248 0.712688
1 0.992401 0.678599
0.423133 0.748959 0.821118
0.423117 0.748928 0.821088
0.647059 0.713252 0.817746
0.974273 0.695079 0.895598
1 0.721355 0.869383
0.422995 0.74876 0.820905
0.423529 0.74844 0.820447
0.649134 0.712825 0.81828
0.948562 0.681773 0.865095
1 0.727428 0.86305
0.390738 0.750408 0.804623
0.423545 0.730816 0.778897
0.58265 0.718135 0.737881
0.913375 0.719539 0.81706
1 0.765743 0.834012
0.723918 0.874647 0.846418
0.732525 0.873228 0.843214
0.785016 0.869062 0.828214
0.939239 0.882734 0.803983
1 0.897124 0.796201
0.864805 0.972442 0.906203
0.868711 0.972076 0.905135
0.893721 0.970108 0.898558
0.974151 0.979492 0.865019
1 0.991836 0.83946
0.540032 0.887831 0.961898
0.540032 0.887831 0.961898
0.678431 0.862318 0.928573
0.97464 0.834699 1
1 0.818967 1
0.540032 0.887831 0.961898
0.540032 0.887831 0.961898
0.680507 0.861967 0.928939
0.97496 0.83476 1
1 0.815518 0.997421
0.493965 0.857328 0.928618
0.493675 0.857282 0.928481
0.623606 0.827695 0.878462
0.893294 0.800397 0.947799
1 0.8318 0.965698
0.664439 0.93872 0.960739
0.673411 0.936004 0.956741
0.733608 0.927214 0.939696
0.910613 0.930648 0.909804
1 0.928054 0.942199
0.889189 0.999954 0.975708
0.892256 0.999573 0.974899
0.911818 0.997757 0.969162
0.987243 0.998398 0.953567
1 1 0.94316
