luts/Arrakis-SLog3.cube
TITLE "Generated by Resolve"
LUT_3D_SIZE 9
0.00529488 0.023621 0.0228122
0.0780499 0.0201114 0.0294041
0.219165 0.014725 0.0153964
0.448661 0.0511482 0.0117189
0.726314 0.135409 0.0367742
0.962127 0.255451 0.0927901
1 0.382513 0.158587
1 0.478035 0.207233
1 0.531487 0.234455
0.0183108 0.0699779 0.051957
0.0756542 0.071931 0.0422217
0.186267 0.0733959 0.0342412
0.411551 0.0949569 0.0256046
0.693614 0.157916 0.0408331
0.937179 0.264271 0.0893873
1 0.38558 0.152941
1 0.478096 0.200809
1 0.530083 0.22742
0.0687266 0.142779 0.0999008
0.115236 0.142153 0.081178
0.164126 0.152041 0.0739452
0.381765 0.152926 0.0560311
0.661707 0.192432 0.054963
0.910582 0.281041 0.0919966
1 0.392096 0.14963
1 0.479805 0.195499
1 0.530236 0.221668
0.184604 0.285771 0.199466
0.210224 0.281285 0.180117
0.226505 0.28455 0.157412
0.338643 0.297475 0.145785
0.618204 0.302953 0.124559
0.873091 0.353674 0.131792
1 0.438285 0.171374
1 0.511635 0.208591
1 0.554955 0.230442
0.338125 0.482429 0.352544
0.352987 0.474754 0.332494
0.365682 0.469535 0.312917
0.412711 0.471611 0.281727
0.565393 0.493339 0.258015
0.828046 0.504967 0.241337
1 0.549935 0.247684
1 0.598962 0.266911
1 0.629725 0.280064
0.508309 0.682887 0.530816
0.515969 0.674144 0.512169
0.523583 0.66714 0.494285
0.538781 0.662394 0.463996
0.624872 0.666697 0.428428
0.777966 0.692088 0.393881
0.970275 0.704784 0.383169
1 0.729168 0.379965
1 0.745144 0.380911
0.659098 0.841459 0.69073
0.662577 0.833738 0.674983
0.666514 0.826871 0.659373
0.673091 0.81825 0.635065
0.698543 0.82417 0.592676
0.809812 0.827497 0.561624
0.932128 0.849287 0.526925
1 0.856962 0.520241
1 0.863035 0.511849
0.764492 0.94052 0.801083
0.765805 0.933791 0.787549
0.767422 0.927474 0.773816
0.770214 0.919249 0.753902
0.788373 0.916976 0.723049
0.850813 0.920073 0.69015
0.939422 0.933471 0.651331
1 0.94696 0.626734
1 0.947433 0.621805
0.8206 0.988602 0.858366
0.821012 0.98262 0.846036
0.821836 0.977172 0.83418
0.823117 0.969573 0.816526
0.836362 0.965301 0.790234
0.874998 0.970321 0.754391
0.955596 0.973983 0.728496
1 0.990799 0.686381
1 0.992172 0.680247
0.0181735 0.0601358 0.0628672
0.0683452 0.053727 0.0702068
0.196811 0.0474708 0.0856794
0.453666 0.05037 0.0660563
0.732601 0.121386 0.0723125
0.963455 0.249027 0.125277
1 0.383291 0.190219
1 0.483085 0.238575
1 0.536126 0.263783
0.0216678 0.0896315 0.0829328
0.0793317 0.0897383 0.0729839
0.187076 0.0851759 0.082826
0.413474 0.100771 0.0698711
0.689937 0.167971 0.0838941
0.933867 0.273335 0.12755
1 0.392218 0.186938
1 0.483253 0.231983
1 0.534783 0.25716
0.0548867 0.155093 0.121172
0.115724 0.149706 0.108797
0.170748 0.155962 0.105409
0.380514 0.159335 0.0913252
0.657969 0.200595 0.092958
0.907271 0.288258 0.127779
1 0.397772 0.182666
1 0.48481 0.226215
1 0.534417 0.251011
0.174151 0.290242 0.217624
0.213611 0.282353 0.200168
0.241596 0.281727 0.181445
0.338231 0.299687 0.170779
0.616495 0.305486 0.151339
0.870161 0.357046 0.160571
1 0.44155 0.2
1 0.514611 0.236118
1 0.557641 0.25742
0.337133 0.482048 0.366857
0.354574 0.474083 0.347814
0.370779 0.467918 0.329305
0.409857 0.473411 0.29485
0.563241 0.493416 0.277104
0.825727 0.505074 0.261036
1 0.550118 0.268528
1 0.599374 0.288548
1 0.630182 0.301762
0.5075 0.68159 0.541085
0.516243 0.672633 0.522881
0.5252 0.665324 0.50547
0.543511 0.659297 0.476799
0.62295 0.665904 0.439994
0.77528 0.690974 0.408392
0.968185 0.703548 0.397772
1 0.727993 0.395209
1 0.744076 0.396399
0.658076 0.839918 0.697902
0.662165 0.832074 0.682185
0.666773 0.82504 0.666957
0.674434 0.816022 0.64329
0.703258 0.820279 0.603616
0.80798 0.825849 0.571176
0.929625 0.847837 0.537469
1 0.855467 0.531014
1 0.861555 0.522866
0.763516 0.939055 0.805905
0.765087 0.93225 0.792584
0.767208 0.925917 0.779293
0.770474 0.917464 0.759945
0.790112 0.914504 0.729976
0.848615 0.919249 0.695903
0.937774 0.931762 0.658946
1 0.945586 0.635019
1 0.946166 0.630396
0.819532 0.987274 0.862211
0.820188 0.981201 0.850309
0.821424 0.975677 0.838437
0.823072 0.967926 0.82121
0.837079 0.963211 0.795605
0.872084 0.969772 0.758404
0.953811 0.972549 0.734493
1 0.989151 0.69398
1 0.990875 0.687602
0.0418555 0.120272 0.123857
0.0888075 0.116503 0.120592
0.177829 0.106844 0.146181
0.42501 0.106096 0.169238
0.734615 0.127657 0.150591
0.969345 0.232013 0.175692
1 0.369558 0.233127
1 0.47126 0.27602
1 0.527718 0.299916
0.0361791 0.133761 0.13373
0.0880903 0.132677 0.123857
0.168597 0.126207 0.139132
0.402197 0.126818 0.153414
0.704936 0.151019 0.133608
0.938674 0.263828 0.172488
1 0.389899 0.227878
1 0.485649 0.270405
1 0.539101 0.294331
0.0649577 0.178653 0.162203
0.117662 0.173922 0.150072
0.180026 0.174289 0.139132
0.389776 0.166888 0.144152
0.656184 0.209903 0.143374
0.902754 0.29984 0.173892
1 0.406149 0.222492
1 0.49102 0.261677
1 0.539712 0.284031
0.154574 0.303609 0.242954
0.198489 0.294224 0.228061
0.248539 0.285527 0.212924
0.33901 0.304189 0.201572
0.614359 0.309651 0.182605
0.866514 0.361151 0.191546
1 0.445029 0.229511
1 0.517617 0.264057
1 0.560204 0.284703
0.331853 0.483879 0.384558
0.354284 0.474708 0.365835
0.373205 0.467781 0.347341
0.41387 0.472526 0.312627
0.560769 0.493629 0.296864
0.822995 0.504936 0.28098
1 0.550286 0.289815
1 0.599786 0.310582
1 0.630396 0.323766
0.50573 0.68043 0.551934
0.515465 0.67129 0.534035
0.525734 0.663691 0.517128
0.546792 0.656626 0.489479
0.620554 0.665293 0.451621
0.772488 0.689769 0.423041
0.966171 0.702235 0.412604
1 0.726711 0.410697
1 0.742916 0.412528
0.656489 0.838361 0.705104
0.661128 0.830411 0.689662
0.666407 0.823224 0.674754
0.675166 0.813794 0.651743
0.706996 0.816556 0.614389
0.806058 0.824063 0.580896
0.927062 0.846189 0.548379
1 0.853849 0.541985
1 0.859907 0.534218
0.762097 0.937499 0.811124
0.763973 0.930648 0.797833
0.766598 0.924346 0.785122
0.770535 0.915724 0.766033
0.791455 0.912062 0.737072
0.845762 0.918318 0.701488
0.935927 0.92987 0.667048
1 0.943893 0.643565
1 0.944595 0.639094
0.818082 0.98584 0.866438
0.819043 0.979721 0.854505
0.820584 0.97409 0.843091
0.822705 0.966217 0.826001
0.837537 0.960998 0.801221
0.868513 0.969253 0.762203
0.951965 0.970916 0.740917
1 0.987335 0.701823
1 0.989441 0.695079
0.102968 0.233295 0.245701
0.141283 0.229541 0.234485
0.199649 0.221088 0.249073
0.382315 0.211231 0.298375
0.692805 0.224231 0.336828
0.961563 0.275486 0.342016
1 0.344244 0.342687
1 0.44419 0.372366
1 0.502998 0.390997
0.0908827 0.233219 0.243244
0.131853 0.229526 0.232136
0.188647 0.228061 0.23032
0.359792 0.217792 0.278645
0.666651 0.230854 0.31046
0.940078 0.277317 0.309621
1 0.362585 0.323354
1 0.461402 0.357397
1 0.516976 0.375937
0.0914931 0.253819 0.25835
0.134447 0.248722 0.245869
0.186328 0.247349 0.234791
0.344732 0.238178 0.264149
0.642817 0.245853 0.285969
0.917632 0.285145 0.278096
1 0.388098 0.309911
1 0.478996 0.343435
1 0.531243 0.362371
0.177523 0.340764 0.313771
0.21294 0.331579 0.298665
0.249088 0.324453 0.284749
0.358953 0.327794 0.265766
0.618433 0.32726 0.272984
0.860639 0.379889 0.279698
1 0.462913 0.311803
1 0.531975 0.340063
1 0.572763 0.356466
0.2963 0.507698 0.431479
0.324971 0.495796 0.414313
0.354864 0.485206 0.398871
0.43389 0.474708 0.371405
0.560967 0.500511 0.351446
0.821088 0.510384 0.332433
1 0.55494 0.340459
1 0.603769 0.35877
1 0.634165 0.370993
0.489906 0.686549 0.583398
0.514519 0.673411 0.566339
0.526238 0.66482 0.54815
0.55198 0.655955 0.520409
0.6168 0.667979 0.475944
0.768933 0.689433 0.452964
0.962905 0.701152 0.440314
1 0.725505 0.438636
1 0.741802 0.440131
0.654185 0.837476 0.722423
0.659754 0.829099 0.706737
0.665721 0.821622 0.691203
0.67602 0.811444 0.668269
0.71313 0.811444 0.632807
0.80296 0.82182 0.596994
0.923323 0.843763 0.56582
1 0.851377 0.558831
1 0.857466 0.551232
0.759564 0.93576 0.82118
0.762112 0.928649 0.807675
0.765118 0.922179 0.794965
0.769833 0.913207 0.775799
0.792752 0.908385 0.747997
0.841001 0.917067 0.709621
0.933165 0.927001 0.678737
1 0.941329 0.656291
1 0.942184 0.651698
0.815747 0.984161 0.873854
0.816983 0.977707 0.861723
0.818936 0.971893 0.850401
0.821546 0.963821 0.833249
0.837537 0.957992 0.809384
0.869474 0.965499 0.771939
0.949187 0.968429 0.750149
1 0.984527 0.713268
1 0.987182 0.705928
0.192432 0.391455 0.423713
0.221103 0.385428 0.411612
0.268299 0.382635 0.404074
0.386206 0.365103 0.453223
0.637903 0.362615 0.518929
0.914961 0.392981 0.57171
1 0.456321 0.591226
1 0.500847 0.592096
1 0.527016 0.588129
0.178439 0.382834 0.412741
0.208316 0.377035 0.40032
0.251469 0.375128 0.38938
0.365743 0.363607 0.424704
0.610437 0.358724 0.491218
0.89218 0.388968 0.5393
1 0.449073 0.556527
1 0.493614 0.556924
1 0.520348 0.553002
0.170138 0.386725 0.412665
0.201068 0.379843 0.399344
0.239261 0.375586 0.387243
0.349905 0.370657 0.399527
0.584772 0.361151 0.465278
0.868757 0.388357 0.506584
1 0.443534 0.520775
1 0.487907 0.520195
1 0.514611 0.515862
0.189746 0.433707 0.447761
0.220935 0.424491 0.433143
0.253071 0.416892 0.418967
0.351293 0.416983 0.399496
0.565637 0.405524 0.443015
0.84332 0.422156 0.467338
1 0.465095 0.471397
1 0.505943 0.469215
1 0.549355 0.480323
0.338704 0.551766 0.522301
0.360937 0.540185 0.505867
0.383154 0.529641 0.489937
0.441169 0.519661 0.467735
0.58114 0.527718 0.445121
0.820722 0.533822 0.45127
0.995331 0.578042 0.45803
1 0.625147 0.473396
1 0.653605 0.482521
0.456977 0.716243 0.645716
0.474617 0.704387 0.629694
0.493095 0.693355 0.614054
0.530953 0.678645 0.591333
0.641382 0.671504 0.557214
0.769726 0.698405 0.530297
0.961456 0.708446 0.514305
1 0.73164 0.512413
1 0.7476 0.514031
0.621302 0.852857 0.766537
0.633341 0.842039 0.752178
0.650217 0.831281 0.73753
0.678309 0.815732 0.715969
0.725109 0.81091 0.682216
0.802869 0.825025 0.641047
0.920546 0.845304 0.613825
1 0.852201 0.60441
1 0.857923 0.596185
0.753185 0.93933 0.852399
0.761486 0.930404 0.838987
0.76495 0.923339 0.825742
0.770916 0.913725 0.80618
0.797818 0.906981 0.778943
0.843961 0.91603 0.738994
0.931945 0.925536 0.709529
1 0.940108 0.687022
1 0.940902 0.681392
0.814343 0.984695 0.89752
0.816129 0.978103 0.885496
0.818662 0.971984 0.873838
0.822354 0.963409 0.856306
0.840406 0.956115 0.832349
0.879118 0.960021 0.798535
0.946807 0.967117 0.771603
1 0.982116 0.738018
1 0.985428 0.729107
0.299184 0.566567 0.621851
0.320211 0.559228 0.609689
0.356435 0.554726 0.597803
0.448142 0.544656 0.610498
0.6168 0.520577 0.690455
0.862745 0.535897 0.744976
1 0.564782 0.803815
1 0.614679 0.81091
1 0.636378 0.812589
0.283452 0.553582 0.606455
0.305379 0.546395 0.594064
0.337545 0.541619 0.58265
0.42681 0.535882 0.584436
0.591867 0.514336 0.659556
0.839017 0.525551 0.717876
1 0.556451 0.773465
1 0.604471 0.781964
1 0.626123 0.783856
0.271183 0.548165 0.59762
0.294102 0.539986 0.584375
0.321996 0.5337 0.57203
0.408316 0.53196 0.559594
0.568078 0.511315 0.628351
0.814237 0.517311 0.689799
1 0.548592 0.741009
1 0.594537 0.750942
1 0.615976 0.752682
0.271214 0.567163 0.609186
0.29453 0.557565 0.594614
0.3187 0.549477 0.58117
0.394232 0.5449 0.56228
0.549416 0.536095 0.590982
0.784817 0.530892 0.65568
0.994217 0.558846 0.694133
1 0.597208 0.704555
1 0.61651 0.705135
0.327382 0.640711 0.663523
0.347936 0.629587 0.648417
0.369146 0.619333 0.633677
0.423316 0.60856 0.612711
0.559884 0.611383 0.588342
0.771023 0.599145 0.634684
0.974701 0.61648 0.652842
1 0.642039 0.655161
1 0.656947 0.652216
0.517571 0.755489 0.731792
0.529976 0.744167 0.71667
0.543069 0.733761 0.702159
0.570016 0.71957 0.680919
0.653086 0.712489 0.656321
0.78436 0.723293 0.636332
0.959014 0.731014 0.637308
1 0.753933 0.637552
1 0.768643 0.638361
0.608423 0.881071 0.829145
0.618051 0.870909 0.815732
0.628428 0.861112 0.802075
0.646159 0.847425 0.782971
0.707454 0.835019 0.758724
0.821637 0.83241 0.726726
0.922072 0.854856 0.700084
1 0.860258 0.688075
1 0.865446 0.680583
0.714397 0.961791 0.899992
0.722225 0.952819 0.887877
0.730343 0.944411 0.876219
0.743328 0.932082 0.859083
0.786175 0.918669 0.836683
0.86424 0.915053 0.804257
0.934859 0.92958 0.771893
1 0.943832 0.750347
1 0.944076 0.743297
0.778729 1 0.938262
0.784817 0.993896 0.927184
0.791608 0.986221 0.916579
0.802152 0.975174 0.901045
0.84094 0.961089 0.879561
0.892683 0.959335 0.849439
0.946548 0.971435 0.816541
1 0.982681 0.792294
1 0.986984 0.781201
0.405325 0.720699 0.790524
0.421286 0.712978 0.779599
0.448875 0.707317 0.768673
0.525002 0.7019 0.759915
0.652964 0.684443 0.800885
0.834775 0.673411 0.867704
1 0.691936 0.916945
1 0.686793 0.967453
1 0.722469 0.963714
0.389288 0.706966 0.775021
0.405737 0.699397 0.764126
0.429953 0.693294 0.753582
0.504097 0.690623 0.737484
0.629755 0.674189 0.776333
0.811368 0.66067 0.846937
0.995972 0.679088 0.89482
1 0.678706 0.944976
1 0.713222 0.942351
0.375051 0.697368 0.763256
0.391867 0.689097 0.751339
0.412604 0.682063 0.739895
0.481147 0.677714 0.723476
0.606378 0.665064 0.750561
0.786267 0.648524 0.82472
0.976638 0.666316 0.870939
1 0.670298 0.920104
1 0.703456 0.91841
0.366735 0.70161 0.761669
0.383902 0.692164 0.748638
0.401999 0.683589 0.73669
0.460227 0.676295 0.718791
0.583597 0.671595 0.718746
0.75523 0.647944 0.797665
0.949798 0.663218 0.837308
1 0.672129 0.881331
1 0.700404 0.880827
0.39089 0.742855 0.791028
0.407202 0.732189 0.777127
0.424353 0.722698 0.764446
0.467567 0.711238 0.745403
0.580087 0.709102 0.723262
0.743816 0.6972 0.760266
0.927413 0.69659 0.807141
1 0.709178 0.83743
1 0.727947 0.836576
0.486244 0.823636 0.846815
0.498451 0.812665 0.833509
0.512016 0.802701 0.820768
0.538247 0.789273 0.801968
0.621759 0.780148 0.779187
0.760235 0.78468 0.755383
0.92076 0.774563 0.792538
1 0.783566 0.801633
1 0.790997 0.798962
0.674647 0.908248 0.891661
0.681239 0.89868 0.879499
0.688212 0.889662 0.867613
0.700084 0.876829 0.850523
0.746502 0.865324 0.828931
0.833204 0.862776 0.807889
0.930571 0.873655 0.793896
1 0.877913 0.790234
1 0.88275 0.785489
0.726482 0.98381 0.95021
0.73164 0.975402 0.939559
0.737163 0.9673 0.928756
0.746426 0.956115 0.913573
0.779507 0.944045 0.894286
0.853666 0.936584 0.872679
0.947906 0.938155 0.84921
1 0.953231 0.829541
1 0.95256 0.820722
0.770809 1 0.981888
0.775265 1 0.971969
0.780545 1 0.96228
0.788922 0.995972 0.947967
0.81529 0.98439 0.930053
0.880949 0.975143 0.908888
0.962142 0.974762 0.883452
1 0.987305 0.861677
1 0.992828 0.848997
0.489601 0.827207 0.901137
0.501976 0.819883 0.891752
0.523964 0.813809 0.8822
0.589044 0.808972 0.867384
0.695048 0.794553 0.887434
0.837339 0.776577 0.941985
0.990005 0.787961 0.978729
1 0.795895 1
1 0.787549 1
0.47335 0.814023 0.88751
0.486625 0.806821 0.877852
0.505455 0.800549 0.868223
0.566461 0.795209 0.853544
0.672694 0.783459 0.866789
0.816098 0.766339 0.920943
0.972091 0.774685 0.961059
1 0.784192 0.996338
1 0.776318 1
0.458228 0.803555 0.875288
0.471763 0.795499 0.865187
0.487953 0.788479 0.855207
0.54461 0.782208 0.839933
0.650462 0.773236 0.845273
0.793332 0.756054 0.898268
0.952712 0.761501 0.941817
1 0.771878 0.978546
1 0.764492 1
0.446128 0.8009 0.868574
0.459739 0.792279 0.85774
0.474067 0.784115 0.846845
0.521447 0.775448 0.830961
0.626413 0.772427 0.817349
0.766354 0.754391 0.865644
0.925734 0.752789 0.915084
1 0.762753 0.951003
1 0.755261 0.980179
0.45687 0.825193 0.88365
0.470085 0.81561 0.872007
0.483909 0.806439 0.860456
0.51873 0.795041 0.843503
0.613504 0.789776 0.823224
0.752178 0.783123 0.836286
0.90277 0.770855 0.89189
1 0.779065 0.922103
1 0.771054 0.950454
0.515328 0.881941 0.923033
0.526482 0.8719 0.911421
0.538399 0.862577 0.899977
0.561013 0.849546 0.883116
0.635676 0.839338 0.862058
0.760555 0.84007 0.840314
0.89662 0.827604 0.878401
1 0.829602 0.901534
1 0.824125 0.921263
0.637247 0.949783 0.964721
0.644099 0.940673 0.954101
0.651881 0.932082 0.943877
0.664485 0.919753 0.928573
0.711772 0.90779 0.909361
0.80354 0.902464 0.888685
0.912261 0.908186 0.869978
1 0.901488 0.893919
1 0.900877 0.896498
0.782818 0.998795 0.986709
0.785992 0.991028 0.976898
0.790036 0.983444 0.967453
0.796643 0.972976 0.953964
0.822568 0.961715 0.936568
0.882872 0.954879 0.917601
0.955962 0.956741 0.90309
1 0.964782 0.895201
1 0.963912 0.88867
0.805386 1 1
0.809033 1 1
0.81239 1 0.996155
0.817594 1 0.983536
0.837629 1 0.967605
0.890455 0.992035 0.949859
0.958816 0.99057 0.93431
1 0.994369 0.920363
1 1 0.907897
0.538628 0.883162 0.956786
0.549615 0.876448 0.948455
0.568734 0.870359 0.939864
0.626627 0.864363 0.925795
0.72256 0.852171 0.934478
0.848981 0.836805 0.974044
0.983078 0.834073 1
1 0.847807 1
1 0.847074 1
0.522515 0.870771 0.944442
0.533791 0.863752 0.935576
0.550256 0.857649 0.926894
0.604868 0.851423 0.913191
0.701289 0.841733 0.916213
0.828534 0.826459 0.956069
0.965377 0.821393 1
1 0.836683 1
1 0.836545 1
0.507271 0.86009 0.932784
0.519127 0.852781 0.923674
0.533257 0.845914 0.914839
0.583169 0.83888 0.90042
0.679835 0.831418 0.897017
0.806577 0.815747 0.935637
0.945922 0.80824 0.985397
1 0.824628 1
1 0.825467 1
0.49369 0.85536 0.925048
0.505714 0.847166 0.915053
0.51809 0.839368 0.90515
0.559487 0.830503 0.890257
0.654902 0.827359 0.872129
0.780072 0.811215 0.907317
0.918563 0.797681 0.962768
1 0.81387 0.9832
1 0.814847 1
0.498955 0.872129 0.93402
0.510399 0.862913 0.923049
0.522454 0.854566 0.912856
0.553185 0.843366 0.897261
0.638041 0.836545 0.877806
0.764019 0.83125 0.880888
0.895842 0.812726 0.937926
1 0.823423 0.958022
1 0.824445 0.976577
0.543328 0.917174 0.964324
0.553277 0.907744 0.953643
0.563455 0.898756 0.943008
0.584176 0.886427 0.927657
0.652369 0.875837 0.907835
0.767865 0.874342 0.887251
0.893004 0.86595 0.910872
0.994949 0.862913 0.940719
1 0.862974 0.955688
0.638132 0.974731 1
0.644877 0.966003 0.990784
0.652583 0.957671 0.981201
0.664668 0.945754 0.967269
0.710689 0.933669 0.948852
0.800565 0.92726 0.928786
0.906889 0.930709 0.910735
0.994858 0.922484 0.937469
1 0.921263 0.944869
0.755581 1 1
0.759304 1 1
0.763561 1 1
0.770459 0.993606 0.99324
0.797284 0.982132 0.97702
0.860319 0.97438 0.958999
0.938155 0.974044 0.943877
1 0.979919 0.932357
1 0.974563 0.942306
0.83682 1 1
0.839872 1 1
0.843458 1 1
0.848615 1 1
0.866224 1 0.988357
0.913664 1 0.971481
0.974609 0.999435 0.957229
1 1 0.948211
1 1 0.94316
