luts/Arrakis-CLog2.cube
TITLE "Generated by Resolve"
LUT_3D_SIZE 33
0.0419165 0.0579385 0.0490272
0.0538796 0.0587167 0.0473182
0.0662699 0.0577249 0.0483711
0.0855268 0.0552224 0.0505379
0.109316 0.053193 0.0560311
0.13959 0.0526741 0.0569467
0.178317 0.051667 0.054139
0.223575 0.0502022 0.0490425
0.273548 0.0505074 0.0439918
0.325536 0.0563058 0.0423896
0.382589 0.0638895 0.0413214
0.44419 0.0731975 0.0413367
0.509041 0.0848096 0.0426337
0.575418 0.0982376 0.0451057
0.64239 0.113878 0.0494698
0.708537 0.131746 0.0555734
0.772808 0.151614 0.0635538
0.834669 0.173358 0.0733806
0.893324 0.196765 0.0851301
0.942229 0.228046 0.100206
0.986847 0.260578 0.116518
1 0.293812 0.133532
1 0.325521 0.149752
1 0.356191 0.16527
1 0.385229 0.18024
1 0.412558 0.19379
1 0.437797 0.206668
1 0.460487 0.218296
1 0.480354 0.228153
1 0.497704 0.236912
1 0.513008 0.24448
1 0.525994 0.251148
1 0.534874 0.255619
0.0473182 0.0642863 0.0516976
0.0586252 0.0647135 0.0498817
0.070222 0.0653391 0.0482185
0.088304 0.0633249 0.0491646
0.1093 0.0623941 0.0569772
0.140795 0.0609751 0.0549783
0.17734 0.0601968 0.0512398
0.216617 0.0621042 0.0487068
0.262501 0.0659495 0.0468757
0.314153 0.0711681 0.0452583
0.371527 0.0781262 0.0444495
0.433371 0.0865644 0.0441291
0.498451 0.0974594 0.0453803
0.56553 0.109957 0.0476692
0.632944 0.124681 0.0516823
0.699825 0.141634 0.0575113
0.76466 0.160708 0.065095
0.827298 0.181674 0.0746014
0.886534 0.204257 0.0857252
0.942092 0.228443 0.0990921
0.986786 0.261036 0.115328
1 0.294255 0.132403
1 0.325933 0.148638
1 0.356588 0.164172
1 0.385626 0.179187
1 0.41294 0.192935
1 0.438117 0.205661
1 0.460227 0.216938
1 0.480125 0.226841
1 0.49749 0.23563
1 0.51284 0.243259
1 0.52578 0.249897
1 0.534661 0.254505
0.0551461 0.0712291 0.0535744
0.0663462 0.071519 0.0519112
0.0771496 0.0719768 0.0504921
0.0826429 0.07364 0.0617838
0.106569 0.0727703 0.0594797
0.134951 0.0722362 0.0565194
0.168475 0.0726482 0.0535134
0.207828 0.0744182 0.0509194
0.253544 0.0774701 0.0488136
0.305241 0.0821393 0.0472267
0.362692 0.0885939 0.0464485
0.42472 0.0966964 0.0461738
0.489815 0.106676 0.0472267
0.556924 0.119036 0.0493019
0.624689 0.133639 0.0534981
0.691646 0.150668 0.0593576
0.757061 0.169314 0.0668498
0.820233 0.189487 0.0758831
0.880217 0.211398 0.0867323
0.936522 0.234775 0.0996567
0.986694 0.261463 0.114427
1 0.294667 0.131334
1 0.326345 0.147601
1 0.356985 0.163149
1 0.385992 0.17818
1 0.413291 0.191943
1 0.43798 0.20444
1 0.459998 0.215671
1 0.479912 0.225605
1 0.497276 0.234409
1 0.512673 0.242344
1 0.525597 0.248707
1 0.534478 0.253437
0.0561074 0.0826123 0.0599527
0.0684367 0.0825208 0.0581064
0.0810101 0.0822003 0.0561227
0.0921798 0.0837873 0.052491
0.100786 0.0859236 0.0648051
0.130556 0.0847334 0.0607309
0.165011 0.0840162 0.0565499
0.204623 0.0845655 0.0531472
0.249592 0.0864118 0.0499886
0.300816 0.090013 0.0477607
0.357275 0.0954147 0.0461738
0.418479 0.102739 0.0456703
0.483223 0.112535 0.0463874
0.549752 0.124285 0.0483558
0.617502 0.138445 0.0523079
0.68423 0.15494 0.0578317
0.749691 0.173739 0.0654765
0.812589 0.194995 0.0751049
0.87248 0.218494 0.0868849
0.928954 0.242985 0.100252
0.981949 0.266728 0.114137
1 0.295186 0.130098
1 0.326848 0.146258
1 0.357473 0.161822
1 0.386465 0.176883
1 0.413657 0.190631
1 0.437751 0.202853
1 0.459709 0.214038
1 0.479622 0.224002
1 0.497002 0.232853
1 0.512474 0.240879
1 0.525353 0.247196
1 0.534234 0.251926
0.0642252 0.0961624 0.0675822
0.0787213 0.0952773 0.0654002
0.0893111 0.095491 0.0625467
0.0972763 0.0971695 0.058793
0.106905 0.0993668 0.0628977
0.124422 0.101122 0.0673991
0.159106 0.0997482 0.0629892
0.199451 0.0989242 0.057847
0.244755 0.0994278 0.0535744
0.295476 0.101793 0.05037
0.351324 0.105791 0.0478676
0.411933 0.11191 0.0465858
0.475715 0.119966 0.0459602
0.542031 0.130816 0.0476844
0.608789 0.143923 0.0505074
0.675364 0.159854 0.0557565
0.740826 0.178378 0.0633249
0.803738 0.198932 0.0724651
0.863996 0.221637 0.0837873
0.920668 0.24654 0.0972763
0.973709 0.27332 0.112993
1 0.299626 0.129335
1 0.327504 0.144625
1 0.358053 0.160235
1 0.387076 0.175219
1 0.413214 0.188449
1 0.43743 0.200793
1 0.459327 0.211917
1 0.479255 0.221958
1 0.496635 0.231083
1 0.512139 0.238895
1 0.525032 0.245228
1 0.533928 0.249973
0.0802625 0.112215 0.0771344
0.0910658 0.1122 0.0737774
0.0987259 0.112856 0.0708782
0.105226 0.114351 0.066865
0.116274 0.115587 0.0648966
0.12665 0.118853 0.0700236
0.15256 0.119646 0.0712444
0.192416 0.118257 0.0662394
0.238437 0.11751 0.0605631
0.289082 0.117876 0.0554818
0.344656 0.120409 0.0515755
0.404654 0.124895 0.0489357
0.468025 0.131563 0.0476081
0.533547 0.14049 0.0480507
0.600031 0.152346 0.0500954
0.666239 0.166461 0.0542306
0.731289 0.183444 0.0605783
0.793973 0.203418 0.069337
0.853742 0.225666 0.0800031
0.910582 0.249744 0.0928664
0.963973 0.275639 0.107836
1 0.30312 0.124971
1 0.330892 0.14255
1 0.358816 0.158312
1 0.386648 0.172595
1 0.412634 0.185702
1 0.436988 0.198184
1 0.458793 0.209415
1 0.478767 0.219486
1 0.496193 0.228458
1 0.511711 0.236316
1 0.524605 0.242939
1 0.533516 0.24744
0.0965896 0.133242 0.0882277
0.104479 0.133211 0.0846571
0.110689 0.133745 0.0814527
0.116152 0.13521 0.0776532
0.124346 0.136614 0.0737469
0.137407 0.137407 0.0759747
0.152132 0.142061 0.0760662
0.185214 0.141772 0.0765545
0.23032 0.1402 0.0708782
0.281285 0.139345 0.0643778
0.337072 0.139971 0.0588083
0.396567 0.142412 0.0543984
0.459831 0.147417 0.0518196
0.524559 0.154559 0.0505684
0.590707 0.164599 0.0514076
0.656931 0.177081 0.0544442
0.721325 0.192172 0.059266
0.783475 0.209888 0.0665293
0.843244 0.230472 0.0762493
0.899474 0.253422 0.0880598
0.952529 0.27863 0.10222
1 0.305165 0.118395
1 0.332265 0.135729
1 0.358907 0.153246
1 0.38587 0.168765
1 0.411902 0.182147
1 0.436286 0.194751
1 0.458167 0.205844
1 0.478157 0.215991
1 0.495613 0.22504
1 0.511131 0.233234
1 0.524071 0.239643
1 0.532982 0.244419
0.114199 0.158495 0.101518
0.120806 0.158618 0.0979171
0.125643 0.158999 0.0945602
0.130159 0.15996 0.0905165
0.134524 0.161898 0.0857862
0.150286 0.160998 0.0843366
0.163195 0.163363 0.0869154
0.181949 0.168841 0.0823835
0.22211 0.167285 0.0831464
0.272267 0.165728 0.0770428
0.328054 0.164965 0.0699931
0.388159 0.165835 0.0641489
0.450813 0.168597 0.0591592
0.515511 0.173816 0.0563363
0.58146 0.181613 0.0554818
0.647013 0.192187 0.0569009
0.71104 0.205112 0.06009
0.77319 0.221088 0.0660105
0.832319 0.239109 0.0737163
0.888334 0.259602 0.0838026
0.940749 0.282628 0.0960098
0.989624 0.307729 0.110658
1 0.334462 0.127443
1 0.360159 0.144335
1 0.385565 0.161913
1 0.410925 0.177493
1 0.43537 0.190158
1 0.45745 0.201328
1 0.477333 0.211704
1 0.494972 0.220935
1 0.510399 0.22887
1 0.523354 0.235584
1 0.532296 0.240208
0.133974 0.187854 0.117006
0.139391 0.187793 0.11339
0.143236 0.187945 0.109804
0.147066 0.188785 0.105959
0.149874 0.190524 0.100877
0.163333 0.189441 0.0982528
0.178302 0.189685 0.0981308
0.193805 0.193347 0.0982528
0.21735 0.198978 0.0916304
0.263798 0.196826 0.0914931
0.318608 0.195254 0.0852216
0.378134 0.194308 0.0775006
0.441245 0.195407 0.0708934
0.505898 0.198459 0.0659953
0.571771 0.204089 0.0631113
0.636927 0.212253 0.0623789
0.700923 0.223239 0.0640116
0.762783 0.236927 0.0679789
0.821698 0.252827 0.0739147
0.877379 0.271077 0.0822003
0.929259 0.291188 0.0922103
0.977722 0.313451 0.104616
1 0.33727 0.118914
1 0.361959 0.13431
1 0.386786 0.150668
1 0.410849 0.168139
1 0.434226 0.184085
1 0.45658 0.195651
1 0.476295 0.205844
1 0.494209 0.215396
1 0.509438 0.223438
1 0.522637 0.230243
1 0.531518 0.235065
0.157168 0.220935 0.137896
0.161959 0.220752 0.134051
0.165377 0.220874 0.130938
0.168917 0.221347 0.126818
0.171832 0.222416 0.121981
0.178012 0.223148 0.117113
0.194736 0.221393 0.114504
0.210773 0.222736 0.115175
0.229328 0.22707 0.113329
0.257832 0.232578 0.105974
0.308827 0.230365 0.105287
0.367666 0.228855 0.0984512
0.430793 0.228229 0.090837
0.495445 0.229419 0.0839857
0.561166 0.232792 0.0788281
0.626535 0.239063 0.0761273
0.690517 0.24773 0.0757153
0.752316 0.258885 0.0773785
0.810956 0.27248 0.0812695
0.866697 0.28838 0.0876936
0.918379 0.306294 0.0956436
0.966018 0.325673 0.105409
1 0.346563 0.117128
1 0.367712 0.129229
1 0.389303 0.142611
1 0.412055 0.157061
1 0.434089 0.173037
1 0.45565 0.189731
1 0.475456 0.200702
1 0.493233 0.209552
1 0.508431 0.217563
1 0.521737 0.224231
1 0.530694 0.228733
0.184009 0.257572 0.163668
0.188327 0.25716 0.159884
0.191455 0.257038 0.156664
0.194858 0.257069 0.152987
0.197986 0.257527 0.148287
0.200488 0.258747 0.142702
0.211109 0.258579 0.13846
0.230411 0.25745 0.135149
0.247837 0.259281 0.135927
0.269337 0.264485 0.132433
0.302113 0.269932 0.125139
0.357366 0.267659 0.124102
0.419226 0.266255 0.117388
0.48426 0.26566 0.109361
0.550103 0.267445 0.102831
0.615381 0.27126 0.0978561
0.679728 0.277836 0.0954604
0.741527 0.286793 0.0952163
0.800351 0.298192 0.097261
0.855573 0.311543 0.101137
0.90721 0.327153 0.107271
0.95494 0.344381 0.114992
0.998596 0.362768 0.124483
1 0.381643 0.134829
1 0.399649 0.144686
1 0.417853 0.155306
1 0.43653 0.167285
1 0.456367 0.181109
1 0.475425 0.195956
1 0.493248 0.209552
1 0.508431 0.217563
1 0.521737 0.224247
1 0.530694 0.228733
0.213764 0.297444 0.192248
0.217365 0.296834 0.1888
0.220356 0.296422 0.185611
0.223499 0.296101 0.181781
0.226383 0.296071 0.177569
0.229206 0.296437 0.172259
0.232151 0.298238 0.165301
0.247868 0.296986 0.161944
0.269444 0.296315 0.157809
0.288609 0.298985 0.15877
0.312673 0.305089 0.15375
0.349844 0.310277 0.146715
0.408438 0.308003 0.145556
0.472496 0.306737 0.138811
0.538308 0.3066 0.130861
0.604181 0.308782 0.124331
0.668376 0.312901 0.1196
0.730236 0.319509 0.116991
0.789471 0.32871 0.117296
0.845075 0.340185 0.119539
0.896681 0.353475 0.123613
0.944396 0.368414 0.12929
0.987549 0.384237 0.136202
1 0.40116 0.144747
1 0.417166 0.152911
1 0.432639 0.160967
1 0.44741 0.16939
1 0.461936 0.178195
1 0.476585 0.188022
1 0.492729 0.199649
1 0.507805 0.212177
1 0.521752 0.224247
1 0.530694 0.228733
0.245487 0.339696 0.22356
0.248905 0.338933 0.219974
0.251637 0.338399 0.216892
0.254307 0.337942 0.21355
0.257313 0.337545 0.209216
0.260136 0.337331 0.204334
0.262882 0.337987 0.198245
0.266789 0.340383 0.190295
0.288029 0.337987 0.187747
0.310872 0.337758 0.18323
0.332509 0.341436 0.183871
0.359182 0.348363 0.17702
0.400076 0.353262 0.170291
0.460731 0.35082 0.168811
0.525933 0.349813 0.162005
0.591882 0.350378 0.154604
0.656596 0.352544 0.148058
0.719234 0.35729 0.143908
0.778271 0.36408 0.141634
0.834134 0.373053 0.141558
0.886107 0.38439 0.143877
0.933822 0.397131 0.147555
0.977066 0.411185 0.152819
1 0.425986 0.159365
1 0.440467 0.166094
1 0.45391 0.172427
1 0.466514 0.178531
1 0.478431 0.184619
1 0.489113 0.190448
1 0.499382 0.196872
1 0.509178 0.203113
1 0.519982 0.2112
1 0.529061 0.219181
0.279911 0.383902 0.257237
0.282628 0.383078 0.253803
0.284993 0.382391 0.251087
0.287617 0.381704 0.247532
0.290333 0.381048 0.243565
0.292775 0.380621 0.238712
0.295598 0.380484 0.233234
0.299321 0.381704 0.225971
0.307988 0.383139 0.21886
0.331228 0.381125 0.215808
0.355718 0.381491 0.2112
0.378851 0.385824 0.210208
0.408087 0.393378 0.201755
0.451804 0.398001 0.19556
0.514061 0.396002 0.194293
0.579431 0.395346 0.187671
0.644068 0.396002 0.180331
0.707271 0.398795 0.17467
0.76701 0.403464 0.170062
0.82327 0.410574 0.168368
0.875334 0.419394 0.168017
0.923079 0.429938 0.169833
0.966766 0.442206 0.17351
1 0.455055 0.17821
1 0.468071 0.183536
1 0.480018 0.188388
1 0.491493 0.193118
1 0.501518 0.197391
1 0.510811 0.201511
1 0.518837 0.205463
1 0.525902 0.209003
1 0.532067 0.212726
1 0.535653 0.215106
0.31574 0.429725 0.292821
0.318242 0.428748 0.289769
0.320317 0.427985 0.2869
0.322362 0.427237 0.283558
0.324834 0.426383 0.279835
0.327398 0.425589 0.275196
0.329992 0.424933 0.27013
0.333211 0.425315 0.263523
0.337209 0.427359 0.255161
0.351736 0.427436 0.249409
0.376638 0.425574 0.245121
0.40238 0.427131 0.240848
0.427619 0.43212 0.238636
0.458595 0.440406 0.228229
0.505058 0.444434 0.222858
0.567361 0.442405 0.221469
0.631785 0.442008 0.21529
0.694942 0.44332 0.208591
0.755001 0.446281 0.202716
0.811872 0.451347 0.198489
0.864317 0.458061 0.196597
0.912642 0.466865 0.196384
0.956359 0.476722 0.198001
0.995895 0.487999 0.201114
1 0.499626 0.20502
1 0.510109 0.208438
1 0.520348 0.211902
1 0.529534 0.215351
1 0.537423 0.217914
1 0.544427 0.220706
1 0.550439 0.222934
1 0.555367 0.224811
1 0.557824 0.225711
0.353201 0.476173 0.330556
0.355138 0.475242 0.32723
0.356847 0.474464 0.324468
0.358785 0.473564 0.321462
0.360952 0.472602 0.317708
0.363012 0.471687 0.313375
0.365316 0.47071 0.308614
0.368429 0.470375 0.30248
0.372244 0.471336 0.295155
0.376638 0.474296 0.285466
0.397803 0.472419 0.281315
0.424033 0.471458 0.276448
0.450721 0.473426 0.271534
0.477256 0.479179 0.267933
0.50985 0.487877 0.256107
0.557824 0.491417 0.251453
0.61976 0.489876 0.250309
0.682216 0.489967 0.244739
0.742718 0.491234 0.237995
0.800137 0.494606 0.232898
0.853422 0.499794 0.228931
0.901778 0.50634 0.226764
0.946105 0.514458 0.22649
0.985733 0.523735 0.22768
1 0.533776 0.230121
1 0.54342 0.232364
1 0.552316 0.234775
1 0.560296 0.236606
1 0.56759 0.238941
1 0.573907 0.24065
1 0.579232 0.241962
1 0.583581 0.243061
1 0.585733 0.243458
0.391653 0.522667 0.368841
0.393347 0.521752 0.365957
0.394629 0.520974 0.36347
0.396262 0.520043 0.360723
0.398108 0.51902 0.357153
0.400107 0.517922 0.353017
0.402029 0.516808 0.348424
0.404364 0.516152 0.342718
0.408194 0.516243 0.33608
0.412833 0.5178 0.327825
0.419684 0.520424 0.317739
0.445502 0.5178 0.314611
0.473136 0.517601 0.309178
0.500053 0.5205 0.303868
0.527962 0.526757 0.298833
0.561456 0.535836 0.285451
0.610162 0.538567 0.281682
0.670542 0.537209 0.280522
0.730449 0.537606 0.275395
0.788037 0.539513 0.269429
0.841398 0.542824 0.263813
0.890684 0.547921 0.260243
0.935683 0.554345 0.258518
0.975433 0.561837 0.257588
1 0.570367 0.258442
1 0.578729 0.259663
1 0.586526 0.260594
1 0.593698 0.261875
1 0.600168 0.263096
1 0.60589 0.263981
1 0.610636 0.264881
1 0.614618 0.265354
1 0.616617 0.265217
0.430243 0.568353 0.407736
0.431495 0.567468 0.404898
0.43267 0.566644 0.402853
0.434028 0.565728 0.400031
0.435477 0.564889 0.396933
0.437324 0.563912 0.393469
0.439109 0.562707 0.389059
0.441367 0.561639 0.383856
0.444633 0.561242 0.377798
0.44892 0.561959 0.370291
0.453544 0.56408 0.360311
0.467262 0.565164 0.352468
0.494209 0.563134 0.348928
0.521965 0.563485 0.342016
0.549401 0.56701 0.336889
0.578012 0.573831 0.329747
0.611826 0.583139 0.315145
0.661173 0.585351 0.313054
0.719097 0.584482 0.312093
0.775982 0.585077 0.307286
0.829755 0.586923 0.301457
0.879469 0.590585 0.296666
0.924666 0.595499 0.293156
0.964935 0.601328 0.290715
1 0.608423 0.28983
1 0.615778 0.290089
1 0.622278 0.289845
1 0.628534 0.28983
1 0.634119 0.290105
1 0.639094 0.290349
1 0.643381 0.290486
1 0.647272 0.290745
1 0.648905 0.290166
0.469139 0.613199 0.447028
0.470207 0.612299 0.444877
0.471153 0.611536 0.442756
0.472236 0.610666 0.440192
0.473518 0.609644 0.437156
0.474784 0.608515 0.433768
0.476127 0.60734 0.429541
0.477974 0.606332 0.424933
0.48098 0.605661 0.419455
0.484916 0.605615 0.412543
0.489464 0.606928 0.403769
0.49482 0.610178 0.393332
0.515953 0.609018 0.38822
0.542809 0.607462 0.383429
0.571176 0.608865 0.376196
0.598398 0.613123 0.370352
0.627695 0.620188 0.361654
0.661143 0.629404 0.345785
0.709636 0.630945 0.344778
0.76466 0.63032 0.34406
0.818067 0.631174 0.339788
0.86807 0.633509 0.334478
0.913634 0.637064 0.329961
0.954299 0.641459 0.326253
0.990814 0.647105 0.323888
1 0.653376 0.323049
1 0.659098 0.321752
1 0.664317 0.320912
1 0.669062 0.32018
1 0.673564 0.319738
1 0.677287 0.319112
1 0.680385 0.318791
1 0.682139 0.31812
0.507561 0.656382 0.486122
0.508309 0.655604 0.483986
0.509056 0.654887 0.482109
0.509911 0.654063 0.479805
0.510903 0.653086 0.477226
0.512032 0.651987 0.474113
0.513298 0.650752 0.470344
0.514839 0.649516 0.465995
0.517372 0.648585 0.460868
0.520729 0.648295 0.45478
0.525338 0.648936 0.446891
0.530343 0.651102 0.437568
0.537606 0.654459 0.426734
0.563745 0.651484 0.423407
0.591012 0.65095 0.418372
0.619028 0.652766 0.409857
0.646204 0.657496 0.403388
0.675517 0.664775 0.393454
0.708476 0.674235 0.376822
0.755825 0.675196 0.377523
0.807523 0.674815 0.37673
0.856703 0.675731 0.372519
0.902495 0.677974 0.367803
0.943816 0.681407 0.363638
0.980575 0.68574 0.360235
1 0.690852 0.357794
1 0.695827 0.355917
1 0.700206 0.353902
1 0.704265 0.352316
1 0.707897 0.351263
1 0.711131 0.350042
1 0.713832 0.348913
1 0.715343 0.347921
0.545403 0.697383 0.524285
0.546059 0.696666 0.522408
0.546532 0.696056 0.520653
0.547066 0.695338 0.51873
0.547845 0.694438 0.51635
0.548638 0.693431 0.513497
0.549508 0.692317 0.510109
0.550805 0.691081 0.506401
0.553017 0.690074 0.501534
0.556161 0.689494 0.495949
0.560113 0.689708 0.48893
0.565118 0.690929 0.480629
0.570291 0.693874 0.470344
0.584939 0.694621 0.46247
0.611063 0.692576 0.45864
0.637934 0.692638 0.452735
0.665965 0.695171 0.443641
0.692638 0.700328 0.436301
0.72137 0.70779 0.425116
0.753094 0.716823 0.40763
0.798596 0.717128 0.409766
0.846769 0.716884 0.409171
0.891981 0.718166 0.40557
0.933532 0.7205 0.401343
0.970428 0.723735 0.397406
1 0.727733 0.393927
1 0.732006 0.39144
1 0.735637 0.38854
1 0.738857 0.386465
1 0.741863 0.384268
1 0.744564 0.382422
1 0.746868 0.381125
1 0.748165 0.379858
0.581613 0.736049 0.561074
0.582086 0.735378 0.559731
0.582513 0.734829 0.558282
0.583001 0.734157 0.556497
0.583581 0.733364 0.55433
0.584146 0.732479 0.551629
0.584848 0.731395 0.548775
0.586038 0.730266 0.54522
0.587915 0.72929 0.540795
0.590433 0.728634 0.535821
0.594217 0.72845 0.529458
0.59884 0.729091 0.522057
0.603891 0.731044 0.513069
0.60943 0.734691 0.501945
0.631281 0.732784 0.497322
0.657237 0.731517 0.493263
0.683635 0.732128 0.486122
0.710796 0.735256 0.475883
0.736721 0.740642 0.468437
0.764721 0.748089 0.45594
0.795224 0.757183 0.438392
0.838575 0.756832 0.441962
0.882689 0.756817 0.441444
0.923659 0.758175 0.438224
0.960647 0.760449 0.434501
0.993408 0.763424 0.430594
1 0.766918 0.427619
1 0.769833 0.424552
1 0.772549 0.421363
1 0.77496 0.418647
1 0.777066 0.416327
1 0.779171 0.41445
1 0.780041 0.412726
0.616388 0.771908 0.596384
0.616754 0.771359 0.59501
0.617044 0.770871 0.593759
0.617411 0.770291 0.592218
0.617853 0.769589 0.590433
0.618372 0.768719 0.588388
0.618799 0.767834 0.585534
0.619776 0.766842 0.582284
0.621241 0.765942 0.578637
0.623713 0.765209 0.573877
0.627024 0.764828 0.568414
0.631037 0.765164 0.561593
0.636027 0.766354 0.553597
0.641367 0.768917 0.543984
0.651194 0.771221 0.534325
0.676173 0.768704 0.530968
0.701503 0.768154 0.526299
0.726909 0.769512 0.518349
0.753048 0.773037 0.5075
0.77821 0.778637 0.499306
0.805447 0.786038 0.486122
0.833936 0.794614 0.469413
0.875166 0.793759 0.473533
0.915038 0.793942 0.473198
0.95172 0.795209 0.470359
0.984482 0.797406 0.467094
1 0.800092 0.463523
1 0.802518 0.460121
1 0.804685 0.456489
1 0.806607 0.453498
1 0.808301 0.450568
1 0.809949 0.448539
1 0.810575 0.44654
0.649195 0.804852 0.629725
0.649439 0.804395 0.62855
0.649653 0.803998 0.627497
0.649912 0.803494 0.626184
0.650172 0.802899 0.624613
0.650355 0.802213 0.622599
0.650767 0.801419 0.62034
0.651743 0.80058 0.617548
0.653361 0.799863 0.614145
0.655604 0.799222 0.610254
0.658579 0.798795 0.605112
0.662058 0.798733 0.599207
0.666499 0.799329 0.591608
0.671458 0.801175 0.583017
0.676951 0.80441 0.572488
0.694636 0.803891 0.566888
0.7187 0.80209 0.563012
0.743099 0.802152 0.557504
0.767742 0.804227 0.548898
0.792737 0.808103 0.538216
0.816938 0.813886 0.528634
0.842847 0.821103 0.515007
0.869398 0.828946 0.499458
0.907835 0.827771 0.503868
0.943664 0.828 0.503532
0.976028 0.829282 0.501122
1 0.831312 0.498344
1 0.833341 0.49485
1 0.834882 0.491295
1 0.836378 0.487739
1 0.837674 0.484825
1 0.839017 0.482216
1 0.839643 0.480278
0.679698 0.834989 0.660563
0.67982 0.834714 0.659815
0.679973 0.834455 0.659022
0.68014 0.834043 0.657938
0.680354 0.833509 0.656596
0.68072 0.832883 0.654932
0.681285 0.832212 0.652827
0.682155 0.831464 0.650431
0.683513 0.830716 0.647395
0.685405 0.83006 0.643565
0.687968 0.829587 0.639231
0.691173 0.829526 0.633753
0.695369 0.829908 0.62742
0.699992 0.831189 0.619791
0.704967 0.833326 0.610162
0.712474 0.836286 0.600229
0.735622 0.833906 0.597436
0.758785 0.832746 0.592813
0.782483 0.833555 0.586648
0.806012 0.836057 0.577508
0.829618 0.840269 0.566873
0.85275 0.846067 0.556298
0.877165 0.853086 0.541894
0.902449 0.859678 0.528969
0.937194 0.858717 0.532784
0.968933 0.859052 0.532586
0.997253 0.860258 0.530861
1 0.861982 0.528145
1 0.862989 0.524544
1 0.863996 0.52105
1 0.865125 0.517906
1 0.865934 0.51516
1 0.866423 0.513222
0.707713 0.862135 0.689357
0.70782 0.861799 0.688716
0.707942 0.861509 0.687968
0.708064 0.861143 0.687053
0.708324 0.8607 0.685893
0.708705 0.860197 0.684428
0.709255 0.859632 0.682567
0.710094 0.859022 0.680278
0.711406 0.858457 0.677852
0.713085 0.858 0.674388
0.715404 0.857603 0.670222
0.718166 0.857389 0.665553
0.721843 0.857466 0.659632
0.726192 0.858305 0.652842
0.731167 0.860075 0.644602
0.736049 0.863172 0.634546
0.751507 0.862791 0.628504
0.773938 0.861082 0.625147
0.796109 0.86067 0.619959
0.818601 0.86215 0.613031
0.841184 0.865049 0.603403
0.863279 0.869535 0.592767
0.885267 0.875242 0.581415
0.907942 0.881956 0.567086
0.932204 0.887144 0.557092
0.962966 0.886442 0.56025
0.990555 0.886854 0.560021
1 0.887968 0.558328
1 0.888777 0.555337
1 0.889601 0.552483
1 0.890181 0.549126
1 0.890654 0.546059
1 0.890944 0.544381
0.733394 0.886244 0.715587
0.733501 0.885969 0.714885
0.733639 0.88574 0.714244
0.733822 0.885451 0.71342
0.734096 0.8851 0.712398
0.734462 0.884703 0.711101
0.73489 0.884291 0.709484
0.735607 0.883787 0.707515
0.736767 0.883238 0.705257
0.738308 0.88275 0.702159
0.740444 0.882307 0.698466
0.743053 0.882094 0.694286
0.746395 0.882216 0.689036
0.750484 0.882795 0.682902
0.754894 0.884184 0.675624
0.759838 0.886534 0.666697
0.766918 0.888945 0.65713
0.788251 0.886702 0.654444
0.809506 0.885588 0.650309
0.83093 0.885878 0.644816
0.852125 0.887709 0.637003
0.873396 0.891081 0.626612
0.894118 0.895705 0.616129
0.914733 0.901274 0.604257
0.935561 0.907637 0.589685
0.958144 0.911604 0.58265
0.98526 0.911086 0.58526
1 0.91162 0.585275
1 0.912108 0.583474
1 0.912413 0.580987
1 0.912718 0.578012
1 0.913176 0.575311
1 0.913314 0.573739
0.756329 0.907423 0.738735
0.756466 0.90721 0.738125
0.756634 0.907027 0.73756
0.756832 0.906783 0.736843
0.757122 0.906508 0.735943
0.757488 0.906172 0.73492
0.758022 0.905791 0.733577
0.758785 0.905379 0.731777
0.759854 0.904921 0.72958
