luts/Arrakis-CLog2.cube
TITLE "Generated by Resolve"
LUT_3D_SIZE 5
0.0419165 0.0579385 0.0490272
0.273548 0.0505074 0.0439918
0.772808 0.151614 0.0635538
1 0.385229 0.18024
1 0.534874 0.255619
0.133974 0.187854 0.117006
0.21735 0.198978 0.0916304
0.700923 0.223239 0.0640116
1 0.386786 0.150668
1 0.531518 0.235065
0.391653 0.522667 0.368841
0.408194 0.516243 0.33608
0.610162 0.538567 0.281682
1 0.570367 0.258442
1 0.616617 0.265217
0.679698 0.834989 0.660563
0.683513 0.830716 0.647395
0.735622 0.833906 0.597436
0.937194 0.858717 0.532784
1 0.866423 0.513222
0.826276 0.966995 0.80528
0.829236 0.96611 0.799634
0.848676 0.968765 0.769162
0.962661 0.975631 0.722896
1 0.992401 0.678599
0.0828107 0.168704 0.171206
0.224445 0.154147 0.202594
0.773327 0.176104 0.238941
1 0.353231 0.279637
1 0.514015 0.341085
0.121706 0.22182 0.197559
0.230777 0.21735 0.173709
0.698924 0.236271 0.176135
1 0.379461 0.254963
1 0.517891 0.327245
0.389349 0.522042 0.369726
0.406546 0.514824 0.335851
0.609506 0.537362 0.28101
1 0.569238 0.257542
1 0.615702 0.264546
0.679469 0.83505 0.661006
0.683146 0.830625 0.647669
0.735103 0.833753 0.597314
0.937102 0.858549 0.532631
1 0.86627 0.513039
0.826169 0.967041 0.805524
0.829114 0.96614 0.799847
0.848615 0.968734 0.769299
0.962615 0.975616 0.722927
1 0.992401 0.678599
0.22591 0.456474 0.499367
0.304524 0.445167 0.472526
0.670497 0.423606 0.590616
1 0.501167 0.677729
1 0.566934 0.681941
0.195621 0.438911 0.474983
0.269566 0.424536 0.44506
0.622766 0.409277 0.537728
1 0.49868 0.673518
1 0.564599 0.677302
0.374548 0.587808 0.557046
0.418219 0.563592 0.522118
0.616648 0.561135 0.476555
0.998871 0.586908 0.484001
1 0.624826 0.502068
0.677226 0.835798 0.664866
0.680476 0.830243 0.649729
0.731197 0.832746 0.596139
0.936461 0.857298 0.531441
1 0.865187 0.511666
0.82536 0.967437 0.80737
0.828382 0.966278 0.801419
0.848112 0.968536 0.770245
0.962249 0.975509 0.723186
1 0.992401 0.678599
0.428809 0.756374 0.828885
0.428824 0.756374 0.828885
0.658183 0.71986 0.826505
1 0.723995 0.936095
1 0.736614 0.995499
0.428473 0.755917 0.828412
0.428473 0.755917 0.828412
0.658396 0.719265 0.826261
1 0.723552 0.935744
1 0.736431 0.995026
0.393942 0.754711 0.809323
0.393851 0.754559 0.809216
0.578897 0.718807 0.740917
0.922469 0.700313 0.833463
1 0.713924 0.902449
0.677607 0.912123 0.894987
0.684947 0.900557 0.880537
0.754986 0.866194 0.827802
0.930602 0.873701 0.793942
1 0.877806 0.78439
0.791455 0.984878 0.919829
0.796277 0.979812 0.912947
0.848081 0.96492 0.887846
0.950362 0.974823 0.832197
1 0.988434 0.801785
0.540032 0.887831 0.961898
0.540032 0.887831 0.961898
0.623484 0.867872 0.930312
0.970779 0.833951 1
1 0.849729 1
0.540032 0.887831 0.961898
0.540032 0.887831 0.961898
0.624247 0.867842 0.930159
0.970825 0.833982 1
1 0.849729 1
0.540032 0.887831 0.961898
0.540032 0.887831 0.961898
0.629496 0.867582 0.929091
0.971252 0.834104 1
1 0.849729 1
0.620264 0.969009 0.998444
0.620203 0.968978 0.998428
0.659434 0.933211 0.956512
0.892805 0.921813 0.905333
1 0.908141 0.945693
0.836149 1 1
0.836149 1 1
0.860639 1 0.991348
0.972045 0.999344 0.957717
1 1 0.94316
