luts/Arrakis-DLog.cube
TITLE "Generated by Resolve"
LUT_3D_SIZE 9
0.00131228 0.0201877 0.020264
0.0718547 0.0177462 0.0258335
0.213596 0.019379 0.0126955
0.436011 0.0700236 0.0122072
0.695094 0.156497 0.0296788
0.904128 0.286091 0.0855573
1 0.438926 0.165621
1 0.560281 0.234714
1 0.627573 0.275761
0.0226444 0.0680247 0.0477913
0.0766155 0.0744945 0.039292
0.189685 0.079942 0.030396
0.408209 0.107012 0.0209049
0.672541 0.180331 0.0395361
0.894102 0.303105 0.0944839
1 0.449714 0.17232
1 0.566491 0.239109
1 0.632151 0.279347
0.0923934 0.14847 0.095491
0.122393 0.154055 0.0775921
0.178225 0.165377 0.0728313
0.385687 0.173953 0.0607309
0.651347 0.22472 0.0653391
0.882155 0.331044 0.111131
1 0.465888 0.182849
1 0.576699 0.24654
1 0.639185 0.2851
0.216022 0.296773 0.189654
0.229145 0.297292 0.174777
0.260624 0.299474 0.162341
0.362234 0.320119 0.152239
0.620157 0.336873 0.141665
0.859632 0.40383 0.159426
1 0.509453 0.212848
1 0.603891 0.267231
1 0.659281 0.301442
0.377401 0.487358 0.32462
0.382239 0.486992 0.31577
0.390204 0.490425 0.301442
0.457679 0.492149 0.28716
0.590082 0.519356 0.269444
0.826322 0.542351 0.265858
0.997223 0.601572 0.285298
1 0.665949 0.318761
1 0.706569 0.342809
0.548806 0.677089 0.476555
0.55201 0.677653 0.471351
0.556741 0.679805 0.463478
0.585321 0.681941 0.450721
0.667308 0.68751 0.432593
0.797498 0.714794 0.408042
0.965774 0.735073 0.40885
1 0.767132 0.416815
1 0.789517 0.425971
0.700771 0.829831 0.610178
0.702205 0.83064 0.607584
0.704387 0.832074 0.603387
0.718273 0.832807 0.596521
0.766522 0.83125 0.588693
0.841108 0.843503 0.562783
0.943465 0.864607 0.538689
1 0.87599 0.540337
1 0.884993 0.538643
0.803204 0.92639 0.701778
0.803723 0.926955 0.700328
0.807889 0.926482 0.699825
0.819471 0.925292 0.698604
0.846784 0.923705 0.694469
0.895674 0.927245 0.679728
0.958526 0.943343 0.647334
1 0.955123 0.633433
1 0.957382 0.632837
0.862074 0.970779 0.753902
0.863722 0.970596 0.753689
0.866209 0.970382 0.753384
0.873625 0.969711 0.752499
0.892226 0.968551 0.749325
0.928542 0.970062 0.739559
0.978119 0.979294 0.712581
1 0.993729 0.677073
1 0.992401 0.678599
0.0167697 0.0638743 0.0677958
0.0631571 0.0585336 0.071809
0.193378 0.0504616 0.090959
0.447257 0.0611124 0.0668193
0.690745 0.169223 0.0808576
0.902571 0.290547 0.11313
1 0.438514 0.165377
1 0.560037 0.234531
1 0.627405 0.275624
0.0225376 0.0895399 0.0833448
0.0809796 0.0912337 0.0739147
0.192355 0.0895094 0.0830701
0.40325 0.119585 0.0738842
0.668803 0.188754 0.0823224
0.892668 0.306203 0.117082
1 0.449317 0.172061
1 0.566308 0.238941
1 0.631983 0.279225
0.0742657 0.15874 0.119921
0.134691 0.154879 0.108415
0.182132 0.167651 0.106615
0.384756 0.177935 0.095201
0.648966 0.228977 0.0968032
0.880766 0.332311 0.126818
1 0.465583 0.182666
1 0.576471 0.246387
1 0.639033 0.284977
0.217548 0.296223 0.20322
0.236027 0.29543 0.189349
0.25835 0.301137 0.173068
0.361089 0.3205 0.167056
0.619257 0.337102 0.15346
0.859495 0.403479 0.161288
1 0.509194 0.21268
1 0.603708 0.267048
1 0.659144 0.30132
0.377066 0.487068 0.324529
0.381979 0.486686 0.315679
0.389883 0.490074 0.30135
0.457313 0.491814 0.286946
0.589944 0.519036 0.269261
0.826322 0.542077 0.265644
0.997238 0.601373 0.285176
1 0.665812 0.318639
1 0.706462 0.342718
0.548653 0.676997 0.476539
0.551888 0.677562 0.471366
0.556588 0.679667 0.463462
0.585138 0.681865 0.450645
0.667185 0.687404 0.432502
0.797452 0.714687 0.40795
0.965774 0.734981 0.408774
1 0.767056 0.41677
1 0.789456 0.42591
0.700725 0.829786 0.610193
0.702159 0.830594 0.607584
0.704326 0.832029 0.603387
0.718166 0.832776 0.596506
0.766476 0.831205 0.588663
0.841062 0.843473 0.562753
0.943465 0.864576 0.538674
1 0.875959 0.540307
1 0.884978 0.538613
0.803174 0.92636 0.701778
0.803693 0.92694 0.700343
0.807843 0.926467 0.699809
0.81944 0.925277 0.698589
0.846754 0.92369 0.694469
0.895659 0.92723 0.679728
0.958511 0.943328 0.647303
1 0.955108 0.633417
1 0.957366 0.632822
0.862028 0.970764 0.753902
0.863691 0.970596 0.753674
0.866163 0.970367 0.753384
0.873594 0.969711 0.752499
0.892195 0.968536 0.74931
0.928527 0.970047 0.739559
0.978103 0.979278 0.712581
1 0.993729 0.677073
1 0.992401 0.678599
0.0454414 0.13521 0.141085
0.0905623 0.131411 0.134401
0.17293 0.118807 0.1635
0.413993 0.120485 0.184665
0.708522 0.150774 0.145953
0.897414 0.302586 0.170504
1 0.443061 0.211765
1 0.559915 0.240024
1 0.627115 0.275395
0.0406806 0.142626 0.144167
0.0915694 0.142 0.134508
0.170184 0.136995 0.14966
0.396796 0.140322 0.164904
0.675898 0.188663 0.143847
0.887495 0.31545 0.17023
1 0.45275 0.215045
1 0.566094 0.242405
1 0.631693 0.278996
0.0784009 0.185214 0.168429
0.128206 0.182345 0.157595
0.192523 0.185061 0.147555
0.388602 0.188022 0.155093
0.643427 0.24033 0.152529
0.875822 0.338918 0.175341
1 0.468086 0.220951
1 0.576104 0.246387
1 0.638788 0.284718
0.199924 0.306508 0.237201
0.237461 0.299687 0.226093
0.273503 0.30013 0.211231
0.359838 0.323308 0.205402
0.61651 0.339544 0.192752
0.854551 0.405631 0.204211
1 0.50959 0.238209
1 0.603403 0.266728
1 0.6589 0.301122
0.382284 0.484428 0.345434
0.38967 0.483024 0.337392
0.401938 0.484611 0.325414
0.4551 0.491859 0.305638
0.586892 0.518456 0.290349
0.824613 0.541451 0.279728
0.997299 0.601053 0.284962
1 0.665583 0.318441
1 0.706294 0.34255
0.548424 0.676814 0.476478
0.551659 0.67744 0.471351
0.556374 0.679469 0.463432
0.584802 0.681697 0.450523
0.666987 0.687221 0.432364
0.797391 0.714519 0.407843
0.965774 0.734844 0.408682
1 0.766949 0.416678
1 0.789364 0.425803
0.700618 0.829709 0.610193
0.702068 0.830518 0.607599
0.704234 0.831952 0.603403
0.718013 0.832731 0.596445
0.766384 0.831144 0.588617
0.841001 0.843412 0.562707
0.943435 0.86453 0.538613
1 0.875914 0.540261
1 0.884932 0.538552
0.803143 0.926314 0.701793
0.803662 0.926894 0.700343
0.807752 0.926452 0.699794
0.819364 0.925246 0.698558
0.846693 0.923659 0.694438
0.895628 0.927214 0.679713
0.958495 0.943297 0.647272
1 0.955093 0.633387
1 0.957351 0.632807
0.861967 0.970764 0.753887
0.86363 0.970581 0.753658
0.866102 0.970367 0.753368
0.873533 0.969696 0.752483
0.892149 0.968521 0.74931
0.928496 0.970031 0.739544
0.978088 0.979278 0.712596
1 0.993729 0.677089
1 0.992401 0.678599
0.111589 0.260014 0.277394
0.148287 0.255131 0.264958
0.206485 0.246159 0.274266
0.37496 0.233616 0.323232
0.664576 0.24387 0.346197
0.910674 0.295827 0.299489
1 0.460914 0.310445
1 0.565408 0.326436
1 0.627771 0.340627
0.102403 0.254917 0.2692
0.140612 0.250706 0.257115
0.19649 0.248676 0.253147
0.354391 0.237034 0.300191
0.644419 0.250721 0.322637
0.903105 0.306386 0.285481
1 0.468193 0.309483
1 0.570962 0.327977
1 0.632013 0.342672
0.104707 0.268498 0.275364
0.14493 0.263905 0.26363
0.196445 0.263584 0.253346
0.345892 0.256992 0.284993
0.631769 0.272053 0.302541
0.882918 0.342504 0.283238
1 0.480461 0.309483
1 0.579583 0.330144
1 0.63859 0.345418
0.205692 0.347631 0.319219
0.234379 0.341634 0.307836
0.27013 0.337926 0.29688
0.378958 0.345205 0.280995
0.613916 0.359335 0.29099
0.848051 0.419883 0.293034
1 0.515541 0.315419
1 0.603952 0.338903
1 0.657664 0.354925
0.365347 0.497261 0.407324
0.379721 0.493034 0.400671
0.411582 0.487144 0.391104
0.466468 0.493568 0.366033
0.583169 0.52166 0.354818
0.818982 0.542031 0.342123
0.989792 0.599054 0.349767
1 0.662974 0.368643
1 0.703975 0.380514
0.556741 0.669169 0.508934
0.561379 0.669306 0.504967
0.568551 0.669993 0.498161
0.58616 0.676585 0.480629
0.663127 0.683665 0.461738
0.790433 0.711177 0.440726
0.961776 0.731792 0.434516
1 0.765743 0.425483
1 0.789075 0.425498
0.700328 0.82948 0.610224
0.701793 0.830274 0.60763
0.70396 0.831708 0.603418
0.717525 0.832593 0.596307
0.766064 0.830961 0.588525
0.840818 0.843229 0.562539
0.943389 0.864363 0.53846
1 0.875761 0.540093
1 0.88481 0.538369
0.803037 0.926207 0.701823
0.803555 0.926772 0.700374
0.807462 0.926406 0.699733
0.819165 0.925185 0.698482
0.84651 0.923598 0.694377
0.895521 0.927169 0.679667
0.958434 0.943236 0.647196
1 0.955032 0.63331
1 0.95729 0.632715
0.861784 0.970733 0.753841
0.863432 0.970565 0.753613
0.865934 0.970336 0.753323
0.873365 0.969665 0.752453
0.892012 0.96849 0.749264
0.928405 0.969985 0.739498
0.978058 0.979278 0.712612
1 0.993729 0.677089
1 0.992401 0.678599
0.207172 0.425406 0.464408
0.227039 0.420203 0.454368
0.27451 0.415503 0.439277
0.391821 0.397665 0.480751
0.622858 0.390112 0.539971
0.862791 0.401724 0.545495
1 0.471595 0.502815
1 0.570459 0.474372
1 0.64799 0.480339
0.201251 0.421347 0.45893
0.224613 0.414847 0.446967
0.268315 0.409522 0.43154
0.378576 0.393973 0.460761
0.595956 0.384344 0.511666
0.851789 0.405554 0.529229
1 0.477348 0.495399
1 0.579065 0.474296
1 0.651026 0.479759
0.181811 0.411078 0.443732
0.211597 0.403891 0.43006
0.250401 0.398962 0.41648
0.357488 0.393942 0.426322
0.573602 0.386755 0.486107
0.841306 0.416892 0.511727
1 0.487587 0.485054
1 0.592462 0.474617
1 0.656245 0.479683
0.210758 0.44622 0.463401
0.237903 0.438987 0.450584
0.26865 0.433478 0.438575
0.36466 0.436164 0.422141
0.564843 0.430304 0.465873
0.830777 0.456535 0.48513
1 0.520165 0.465064
1 0.625742 0.477104
1 0.67126 0.480079
0.381018 0.546838 0.512474
0.391943 0.542168 0.505425
0.410834 0.537804 0.496757
0.470817 0.53489 0.4813
0.601709 0.546883 0.463188
0.817105 0.564614 0.470588
0.983383 0.615839 0.472999
1 0.673396 0.48249
1 0.709895 0.487419
0.536522 0.688106 0.598611
0.544869 0.686519 0.595117
0.559106 0.684367 0.590402
0.604456 0.679225 0.5785
0.671962 0.689738 0.548577
0.786725 0.715908 0.532097
0.956329 0.733089 0.520943
1 0.763394 0.518425
1 0.784726 0.518761
0.714946 0.816449 0.667247
0.717525 0.816663 0.665446
0.72166 0.817105 0.662364
0.732311 0.819226 0.654185
0.752087 0.829541 0.630961
0.834165 0.835889 0.613016
0.932692 0.857557 0.589624
1 0.868925 0.584848
1 0.878538 0.578912
0.802686 0.925841 0.701915
0.803265 0.926406 0.700465
0.806622 0.926268 0.699535
0.818463 0.925002 0.698283
0.84593 0.923384 0.694194
0.895232 0.927001 0.679545
0.958236 0.943023 0.646952
1 0.954849 0.633112
1 0.957107 0.632486
0.861219 0.970672 0.753719
0.862882 0.970489 0.753506
0.865492 0.970214 0.753201
0.872877 0.969573 0.752361
0.891615 0.968368 0.749157
0.928145 0.969848 0.739391
0.977951 0.979248 0.712688
1 0.993713 0.677089
1 0.992401 0.678599
0.317067 0.600626 0.660945
0.317067 0.600595 0.660929
0.34902 0.589563 0.642435
0.448112 0.579217 0.638621
0.617609 0.555352 0.710582
0.836439 0.557122 0.748775
0.990173 0.559457 0.740337
1 0.622858 0.704463
1 0.657923 0.679759
0.316976 0.600458 0.660807
0.31809 0.6 0.660075
0.351583 0.588891 0.641413
0.449943 0.578698 0.639017
0.618418 0.555016 0.711055
0.81413 0.54696 0.72372
0.985489 0.563195 0.731991
1 0.62623 0.700633
1 0.660853 0.677089
0.308492 0.59321 0.652338
0.312932 0.590402 0.648142
0.344839 0.5794 0.629633
0.434562 0.56939 0.617197
0.582818 0.542779 0.666468
0.793423 0.541741 0.700359
0.979614 0.570336 0.720745
1 0.631632 0.695491
1 0.665461 0.673335
0.27924 0.584543 0.633783
0.298131 0.576425 0.621546
0.325475 0.566567 0.605676
0.401572 0.562051 0.586343
0.552392 0.555352 0.614054
0.771054 0.558007 0.67158
0.969268 0.593011 0.697643
1 0.647379 0.681926
1 0.678676 0.662806
0.358312 0.640162 0.663218
0.371313 0.634073 0.654643
0.387228 0.627985 0.645151
0.443946 0.622324 0.629541
0.572747 0.628321 0.609079
0.767651 0.623392 0.654078
0.961898 0.649363 0.669108
1 0.687861 0.656992
1 0.716777 0.644587
0.562524 0.733547 0.70135
0.568856 0.731701 0.698039
0.579339 0.729427 0.693736
0.610162 0.725917 0.683925
0.682536 0.725322 0.667735
0.800031 0.738979 0.652354
0.955505 0.753491 0.65362
1 0.780453 0.65182
1 0.799374 0.651041
0.693401 0.841794 0.766888
0.697444 0.841169 0.765469
0.704021 0.840208 0.763256
0.723033 0.838407 0.75816
0.771786 0.835416 0.746517
0.843397 0.845808 0.718242
0.931411 0.865721 0.700374
1 0.875059 0.69221
1 0.882658 0.685405
0.826978 0.912108 0.806546
0.828641 0.912154 0.805631
0.831342 0.912245 0.804196
0.838575 0.912459 0.800153
0.856458 0.914931 0.790051
0.883909 0.926482 0.766125
0.951247 0.935134 0.74789
1 0.948882 0.731243
1 0.950835 0.726207
0.876951 0.955703 0.821805
0.877821 0.95584 0.821164
0.879042 0.956115 0.820172
0.883024 0.956878 0.817395
0.89218 0.959808 0.808972
0.914794 0.966522 0.792493
0.969146 0.971298 0.777798
1 0.984649 0.747814
1 0.985504 0.741497
0.423133 0.748959 0.821118
0.423133 0.748943 0.821103
0.423117 0.748928 0.821088
0.501289 0.73138 0.789685
0.647059 0.713252 0.817746
0.827924 0.693843 0.891707
0.974273 0.695079 0.895598
1 0.674495 0.897704
1 0.721355 0.869383
0.423087 0.748882 0.821042
0.423087 0.748882 0.821027
0.423072 0.748867 0.821012
0.502968 0.731289 0.789364
0.647868 0.713085 0.817975
0.828336 0.693843 0.891676
0.961883 0.686992 0.88101
1 0.67715 0.893645
1 0.723674 0.866804
0.422995 0.74876 0.820905
0.422995 0.74876 0.820905
0.423529 0.74844 0.820447
0.506065 0.73109 0.788586
0.649134 0.712825 0.81828
0.828992 0.693843 0.89163
0.948562 0.681773 0.865095
1 0.682521 0.886763
1 0.727428 0.86305
0.3935 0.725139 0.794507
0.393042 0.724834 0.794141
0.402518 0.718868 0.785885
0.470603 0.702205 0.756146
0.598749 0.688457 0.762158
0.758312 0.6654 0.822461
0.928817 0.685542 0.840589
1 0.698024 0.871351
1 0.738033 0.853284
0.390738 0.750408 0.804623
0.402655 0.742657 0.794781
0.423545 0.730816 0.778897
0.468406 0.718791 0.758694
0.58265 0.718135 0.737881
0.741924 0.710811 0.774624
0.913375 0.719539 0.81706
1 0.737102 0.845197
1 0.765743 0.834012
0.521263 0.804623 0.825483
0.526146 0.801846 0.821805
0.535393 0.798596 0.816571
0.566308 0.793011 0.806165
0.642695 0.788983 0.789242
0.76968 0.79646 0.770031
0.916136 0.79266 0.805737
1 0.805905 0.815778
1 0.818998 0.80856
0.723918 0.874647 0.846418
0.727077 0.874098 0.845182
0.732525 0.873228 0.843214
0.747539 0.871427 0.8383
0.785016 0.869062 0.828214
0.854215 0.87097 0.815045
0.939239 0.882734 0.803983
1 0.890517 0.80119
1 0.897124 0.796201
0.805447 0.940566 0.885649
0.807477 0.940337 0.885023
0.810697 0.940032 0.884062
0.819593 0.939055 0.881315
0.843824 0.937591 0.875364
0.894408 0.936538 0.86421
0.959792 0.944747 0.843198
1 0.957946 0.829664
1 0.959091 0.823255
0.864805 0.972442 0.906203
0.866285 0.972305 0.905791
0.868711 0.972076 0.905135
0.875578 0.971511 0.903304
0.893721 0.970108 0.898558
0.935836 0.968658 0.886778
0.974151 0.979492 0.865019
1 0.988388 0.848951
1 0.991836 0.83946
0.504341 0.848096 0.922881
0.504326 0.848096 0.922881
0.504326 0.848081 0.922866
0.524102 0.836866 0.908446
0.673075 0.818067 0.896315
0.829816 0.798108 0.948501
0.981811 0.801755 0.990433
1 0.784009 0.977401
1 0.774838 0.969055
0.504311 0.848066 0.92285
0.504311 0.848066 0.92285
0.504295 0.848051 0.922835
0.525628 0.836332 0.907561
0.673823 0.817914 0.896468
0.830106 0.798032 0.948608
0.981933 0.80174 0.990433
1 0.780179 0.970199
1 0.775662 0.966461
0.504265 0.848005 0.922789
0.50425 0.848005 0.922789
0.50425 0.848005 0.922789
0.528267 0.835523 0.906218
0.675059 0.817685 0.896712
0.830579 0.797909 0.948791
0.982132 0.80174 0.990433
1 0.777203 0.960906
1 0.77734 0.962509
0.504128 0.847852 0.922637
0.504128 0.847852 0.922637
0.504112 0.847837 0.922621
0.536553 0.833494 0.902876
0.678706 0.816968 0.89749
0.832013 0.797559 0.94934
0.933669 0.768734 0.945312
1 0.778134 0.943481
1 0.783505 0.953765
0.455283 0.822782 0.889143
0.455299 0.822843 0.889189
0.455329 0.822965 0.88925
0.496162 0.799039 0.858106
0.605814 0.791012 0.832456
0.749447 0.78265 0.854322
0.894011 0.776089 0.906615
1 0.79704 0.921736
1 0.803143 0.938888
0.525292 0.870741 0.914076
0.532708 0.864973 0.906981
0.541146 0.858824 0.899275
0.566644 0.849104 0.885863
0.641459 0.841627 0.867445
0.762982 0.844785 0.848508
0.892546 0.837751 0.883818
0.996155 0.845304 0.905791
1 0.846952 0.923125
0.67715 0.91696 0.926665
0.680735 0.916091 0.925246
0.686259 0.914855 0.923125
0.702541 0.912093 0.91783
0.744518 0.908141 0.90753
0.821408 0.907057 0.892973
0.917922 0.914534 0.877913
1 0.911742 0.900069
1 0.912016 0.906172
0.833143 0.959747 0.934462
0.834882 0.959518 0.933974
0.837613 0.959182 0.933089
0.845685 0.958297 0.930541
0.8663 0.956558 0.924636
0.908888 0.95584 0.915099
0.966934 0.959945 0.905226
1 0.968292 0.899138
1 0.969055 0.893828
0.873655 0.990692 0.951904
0.874876 0.99057 0.951553
0.876829 0.990372 0.950988
0.882307 0.989883 0.949401
0.897078 0.988815 0.945357
0.929122 0.988067 0.938094
0.977752 0.989822 0.929229
1 0.996033 0.916381
1 1 0.906966
0.540032 0.887831 0.961898
0.540032 0.887831 0.961898
0.540032 0.887831 0.961898
0.540032 0.887831 0.961898
0.678431 0.862318 0.928573
0.833234 0.841703 0.970382
0.97464 0.834699 1
1 0.849561 1
1 0.818967 1
0.540032 0.887831 0.961898
0.540032 0.887831 0.961898
0.540032 0.887831 0.961898
0.540032 0.887831 0.961898
0.67921 0.862181 0.92871
0.833463 0.841688 0.970504
0.974762 0.834714 1
1 0.849561 1
1 0.816983 1
0.540032 0.887831 0.961898
0.540032 0.887831 0.961898
0.540032 0.887831 0.961898
0.540032 0.887831 0.961898
0.680507 0.861967 0.928939
0.833829 0.841657 0.970703
0.97496 0.83476 1
1 0.849088 1
1 0.815518 0.997421
0.540032 0.887831 0.961898
0.540032 0.887831 0.961898
0.540032 0.887831 0.961898
0.540032 0.887831 0.961898
0.684031 0.861418 0.929641
0.835187 0.841505 0.971222
0.97554 0.834867 1
1 0.814817 0.988296
1 0.816678 0.984176
0.493965 0.857328 0.928618
0.493858 0.857313 0.928557
0.493675 0.857282 0.928481
0.509499 0.84625 0.915038
0.623606 0.827695 0.878462
0.762234 0.813748 0.898451
0.893294 0.800397 0.947799
0.996384 0.821134 0.955657
1 0.8318 0.965698
0.52578 0.906935 0.958404
0.525826 0.906996 0.958434
0.538811 0.895262 0.945113
0.56524 0.877043 0.923049
0.640009 0.865766 0.901335
0.761822 0.86659 0.881544
0.887449 0.861006 0.910475
0.985321 0.864057 0.938979
1 0.871519 0.949554
0.664439 0.93872 0.960739
0.667887 0.93756 0.959106
0.673411 0.936004 0.956741
0.690089 0.932372 0.950805
0.733608 0.927214 0.939696
0.813046 0.924819 0.92459
0.910613 0.930648 0.909804
0.991135 0.925093 0.93785
1 0.928054 0.942199
0.804196 0.977798 0.971893
0.806043 0.977478 0.971267
0.808988 0.976974 0.970275
0.817792 0.975769 0.967681
0.840604 0.973617 0.961975
0.886519 0.971893 0.952209
0.949706 0.974182 0.941619
1 0.981064 0.932601
1 0.97792 0.941741
0.889189 0.999954 0.975708
0.890364 0.999802 0.975372
0.892256 0.999573 0.974899
0.897627 0.999023 0.973312
0.911818 0.997757 0.969162
0.942306 0.996658 0.961822
0.987243 0.998398 0.953567
1 1 0.947097
1 1 0.94316
