luts/Arrakis-CLog.cube
TITLE "Generated by Resolve"
LUT_3D_SIZE 9
0 0.0122377 0.0149538
0.19028 0.00120546 0.00613413
0.438514 0.0327459 0
0.642725 0.0922103 0.0107424
0.811032 0.162036 0.0395209
0.951202 0.239536 0.0778058
1 0.327718 0.124239
1 0.423163 0.173877
1 0.530694 0.228733
0.047776 0.131807 0.0917983
0.143801 0.135912 0.0611582
0.371603 0.135042 0.0381018
0.577752 0.15581 0.0322118
0.757046 0.196109 0.0448463
0.912245 0.254749 0.0738689
1 0.331792 0.119982
1 0.423255 0.173922
1 0.530694 0.228733
0.177172 0.286198 0.199207
0.219257 0.28191 0.154604
0.328374 0.293278 0.137484
0.527535 0.28957 0.120363
0.705943 0.301579 0.107881
0.860548 0.331563 0.112947
0.993912 0.379294 0.133364
1 0.442725 0.16643
1 0.528588 0.215198
0.288563 0.427955 0.307652
0.321279 0.414847 0.262882
0.386725 0.415976 0.233661
0.492149 0.433783 0.216541
0.668376 0.431968 0.203525
0.826185 0.443534 0.19115
0.961746 0.471534 0.193713
1 0.515999 0.210361
1 0.575219 0.236439
0.396384 0.559548 0.417945
0.421515 0.542077 0.371817
0.445457 0.544854 0.336583
0.532586 0.546883 0.32079
0.637171 0.564065 0.298512
0.79353 0.564782 0.28867
0.933074 0.577829 0.277363
1 0.60647 0.278996
1 0.648295 0.289601
0.505043 0.67924 0.524697
0.521553 0.66157 0.481743
0.536339 0.659617 0.452888
0.588708 0.661006 0.429648
0.665461 0.669779 0.409079
0.76556 0.685298 0.385031
0.90399 0.687938 0.376577
1 0.704005 0.366217
1 0.730312 0.362325
0.614862 0.785321 0.621561
0.622522 0.773434 0.59295
0.632609 0.769451 0.571023
0.648753 0.775723 0.54081
0.716091 0.772793 0.527398
0.78558 0.783612 0.502007
0.877882 0.797757 0.476677
1 0.803037 0.469306
1 0.816892 0.453696
0.723857 0.88603 0.723888
0.726207 0.879179 0.707179
0.732647 0.87541 0.691585
0.745403 0.876402 0.671168
0.770764 0.880522 0.647944
0.830854 0.879103 0.634287
0.893004 0.88986 0.604791
0.976883 0.903334 0.577188
1 0.906752 0.564935
0.822599 0.972396 0.821622
0.823575 0.968933 0.812589
0.827787 0.96643 0.802579
0.83621 0.965774 0.788891
0.84828 0.968597 0.769955
0.878691 0.970016 0.752758
0.930205 0.970504 0.739406
0.986404 0.981659 0.707454
1 0.992401 0.678599
0.0370184 0.125826 0.13228
0.142489 0.109056 0.15108
0.401266 0.104189 0.181735
0.635782 0.117983 0.173846
0.820172 0.14316 0.162799
0.959686 0.208759 0.177401
1 0.305257 0.216617
1 0.40853 0.259297
1 0.52343 0.30753
0.0382544 0.155413 0.142626
0.15024 0.149325 0.119265
0.378378 0.139116 0.121157
0.578698 0.162844 0.117662
0.757641 0.203876 0.128328
0.914351 0.260456 0.15375
1 0.327901 0.193988
1 0.414313 0.240894
1 0.527886 0.290883
0.155245 0.288014 0.217655
0.23125 0.274571 0.181781
0.324468 0.291341 0.166232
0.524819 0.288197 0.150668
0.703044 0.30161 0.141482
0.857664 0.333211 0.149142
0.991348 0.381826 0.170886
1 0.44686 0.205539
1 0.534295 0.254704
0.286503 0.425376 0.305592
0.318791 0.412436 0.262242
0.383688 0.413382 0.232029
0.490654 0.431083 0.215045
0.667887 0.429374 0.201907
0.825986 0.441291 0.189242
0.962036 0.46952 0.192309
1 0.514412 0.209323
1 0.573968 0.23563
0.395026 0.558236 0.416526
0.420127 0.541207 0.371984
0.443122 0.543618 0.335592
0.530953 0.545449 0.320058
0.636301 0.562646 0.297642
0.793286 0.563409 0.287602
0.933089 0.576577 0.276356
1 0.605463 0.277928
1 0.647425 0.288914
0.503334 0.679805 0.526604
0.520592 0.661143 0.481987
0.535348 0.658763 0.452842
0.587427 0.660288 0.429114
0.664622 0.669017 0.408499
0.765133 0.684535 0.384482
0.90396 0.687388 0.376043
1 0.703334 0.365667
1 0.729778 0.361807
0.613825 0.785779 0.623102
0.622003 0.773327 0.593271
0.631922 0.769039 0.571084
0.648219 0.775189 0.540734
0.715434 0.772366 0.527153
0.785199 0.783322 0.501701
0.877668 0.797345 0.476417
1 0.802655 0.468925
1 0.816571 0.45333
0.723476 0.886213 0.724559
0.725963 0.879118 0.707347
0.732204 0.875227 0.691661
0.745007 0.876127 0.671153
0.770214 0.880323 0.64773
0.830503 0.878874 0.634073
0.892775 0.889647 0.604562
0.976806 0.903136 0.576989
1 0.906538 0.564736
0.822568 0.97258 0.821973
0.823514 0.969055 0.812833
0.827649 0.966476 0.802823
0.836103 0.965759 0.789075
0.848203 0.968566 0.770092
0.878477 0.970047 0.752804
0.930083 0.970489 0.739452
0.986328 0.981628 0.707515
1 0.992401 0.678599
0.10724 0.253101 0.269963
0.181247 0.243214 0.259724
0.354742 0.227024 0.318379
0.588693 0.208621 0.36434
0.778668 0.250324 0.372946
0.941375 0.284077 0.378592
1 0.328466 0.383032
1 0.380972 0.380468
1 0.495094 0.412314
0.0805982 0.248203 0.258045
0.161975 0.240574 0.235874
0.32285 0.228855 0.273518
0.544274 0.225513 0.304738
0.747494 0.247074 0.313771
0.920882 0.275715 0.324392
1 0.319692 0.351873
1 0.378424 0.364218
1 0.498039 0.401282
0.159716 0.328405 0.302235
0.227832 0.311116 0.273472
0.33994 0.311192 0.251987
0.532052 0.301747 0.261631
0.70251 0.315343 0.255116
0.854673 0.345861 0.262028
0.989715 0.390997 0.281239
1 0.449241 0.312398
1 0.526024 0.360388
0.243091 0.443275 0.368215
0.311131 0.420233 0.335454
0.39237 0.414557 0.302037
0.484504 0.43386 0.293828
0.662364 0.431983 0.280049
0.818906 0.444236 0.270695
0.953643 0.47335 0.276616
1 0.519814 0.296468
1 0.580789 0.324697
0.391028 0.555016 0.439338
0.423255 0.536904 0.398764
0.453803 0.535286 0.366186
0.529824 0.542214 0.341573
0.630442 0.559838 0.329198
0.788632 0.560601 0.31957
0.928878 0.573938 0.309636
1 0.603418 0.313909
1 0.646464 0.327764
0.501335 0.67985 0.527916
0.519203 0.660548 0.482399
0.533883 0.657526 0.45275
0.585748 0.659175 0.428305
0.663615 0.667842 0.40763
0.764416 0.683482 0.383581
0.903685 0.686458 0.375036
1 0.702419 0.365057
1 0.729 0.361059
0.612314 0.786542 0.625559
0.621195 0.773144 0.593713
0.63093 0.76846 0.57116
0.64744 0.774426 0.540673
0.714458 0.771771 0.526726
0.784466 0.782788 0.501106
0.877348 0.79675 0.476036
1 0.80209 0.468376
1 0.816098 0.452781
0.722927 0.886503 0.725628
0.725658 0.879072 0.707591
0.731563 0.874952 0.691798
0.744427 0.875746 0.671153
0.769421 0.880064 0.647425
0.829999 0.878538 0.633783
0.892439 0.889311 0.604227
0.976715 0.902892 0.576745
1 0.906249 0.564446
0.822538 0.972854 0.822629
0.823423 0.969207 0.81326
0.827451 0.966537 0.803174
0.83595 0.965728 0.789349
0.848096 0.968536 0.770291
0.878187 0.970092 0.75285
0.9299 0.970474 0.739528
0.986206 0.981598 0.707591
1 0.992401 0.678599
0.173953 0.369329 0.400519
0.226062 0.360906 0.380377
0.356954 0.342184 0.424094
0.538949 0.338567 0.474296
0.74377 0.319661 0.533135
0.904173 0.370413 0.543374
1 0.414466 0.558694
1 0.459403 0.564202
1 0.513054 0.558251
0.149355 0.353079 0.379461
0.204471 0.344213 0.359304
0.330495 0.335012 0.382116
0.508186 0.329244 0.43624
0.721462 0.312093 0.495171
0.893523 0.364279 0.516716
1 0.409995 0.550042
1 0.45481 0.554788
1 0.509422 0.548501
0.158694 0.395453 0.406409
0.216449 0.380301 0.380728
0.322393 0.377478 0.356802
0.477409 0.365209 0.391608
0.66688 0.360754 0.415793
0.84062 0.377554 0.423072
0.991699 0.402121 0.431418
1 0.438697 0.447562
1 0.496498 0.485451
0.275944 0.480476 0.45066
0.323354 0.460029 0.420417
0.393256 0.448692 0.394797
0.501686 0.454658 0.37789
0.671016 0.447318 0.387991
0.818952 0.460044 0.382498
0.951186 0.487572 0.388602
1 0.530129 0.406149
1 0.584405 0.430457
0.341878 0.585077 0.513512
0.391165 0.560952 0.479759
0.450538 0.545769 0.453986
0.540032 0.547372 0.423651
0.62771 0.565988 0.416526
0.785809 0.565652 0.403052
0.923552 0.578485 0.394247
1 0.608225 0.400244
1 0.652018 0.414878
0.484138 0.680262 0.576059
0.520485 0.656489 0.534615
0.545861 0.647761 0.506981
0.584115 0.654383 0.475792
0.660349 0.661906 0.452934
0.754223 0.67866 0.439796
0.895308 0.681224 0.430411
1 0.697124 0.421668
1 0.724666 0.421241
0.610193 0.788037 0.630167
0.62002 0.772824 0.594537
0.629221 0.767498 0.57116
0.646082 0.773083 0.540581
0.713008 0.770657 0.525902
0.783337 0.781765 0.500191
0.876921 0.795697 0.475196
1 0.801129 0.467414
1 0.81529 0.451865
0.721935 0.887129 0.727398
0.72491 0.879011 0.708171
0.730495 0.87451 0.692042
0.743435 0.875074 0.671153
0.76817 0.879561 0.646769
0.829068 0.877989 0.633204
0.891859 0.888747 0.603647
0.976562 0.902434 0.576288
1 0.90576 0.563851
0.822461 0.973342 0.823804
0.82327 0.969482 0.814054
0.827115 0.966644 0.8038
0.835691 0.965698 0.789822
0.847898 0.96846 0.770642
0.877668 0.970153 0.752956
0.92958 0.970443 0.739651
0.985992 0.981537 0.707729
1 0.992401 0.678599
0.240513 0.480949 0.527199
0.269596 0.472892 0.512093
0.384054 0.459007 0.519692
0.522759 0.438193 0.587579
0.697398 0.447929 0.620859
0.87425 0.435599 0.68162
1 0.487251 0.698283
1 0.535729 0.711696
1 0.582055 0.713527
0.228016 0.469673 0.513542
0.260471 0.46186 0.49839
0.373617 0.451713 0.503258
0.514366 0.432654 0.574258
0.695689 0.443565 0.614679
0.876707 0.430777 0.680079
1 0.485283 0.693996
1 0.533272 0.7075
1 0.579965 0.709133
0.20734 0.475914 0.507836
0.244327 0.463615 0.488182
0.336095 0.455421 0.461753
0.463157 0.446128 0.489662
0.62417 0.438804 0.533974
0.808835 0.425757 0.583947
0.959991 0.468788 0.597879
1 0.510445 0.628061
1 0.572198 0.686275
0.253071 0.537972 0.550637
0.29102 0.521889 0.527611
0.362219 0.507103 0.498741
0.475212 0.510491 0.478935
0.619181 0.498131 0.511833
0.785626 0.495018 0.530785
0.938476 0.510857 0.537209
1 0.534997 0.544472
1 0.566018 0.550378
0.389303 0.617578 0.588937
0.420829 0.597482 0.560678
0.466606 0.580652 0.533547
0.544289 0.577371 0.514336
0.642252 0.585245 0.499565
0.791348 0.581018 0.507195
0.921996 0.593912 0.502754
1 0.622202 0.5093
1 0.662684 0.522026
0.445212 0.713558 0.649393
0.480476 0.689876 0.616953
0.517906 0.673777 0.592248
0.587533 0.665492 0.571359
0.671534 0.670451 0.542992
0.754314 0.687465 0.533394
0.894652 0.688518 0.520211
1 0.703502 0.512459
1 0.731411 0.514412
0.571984 0.800015 0.706783
0.61854 0.770443 0.667643
0.635096 0.760693 0.644739
0.668589 0.758038 0.620172
0.706844 0.767315 0.590768
0.778286 0.774609 0.569528
0.86479 0.790265 0.55227
0.991287 0.794598 0.542153
1 0.808927 0.529091
0.720119 0.888533 0.731716
0.723613 0.878965 0.709438
0.728649 0.873747 0.6925
0.741939 0.873869 0.671122
0.765698 0.878767 0.645792
0.827466 0.877028 0.632227
0.89102 0.887724 0.602594
0.976074 0.901473 0.575296
1 0.904936 0.562753
0.822309 0.974289 0.825971
0.823072 0.970001 0.815488
0.826581 0.966873 0.804669
0.835157 0.965667 0.790661
0.847547 0.968322 0.771389
0.876768 0.97026 0.753124
0.92903 0.970382 0.739864
0.985656 0.981414 0.707958
1 0.992401 0.678599
0.310231 0.590707 0.650034
0.315541 0.58883 0.646983
0.417609 0.573632 0.621439
0.537331 0.556664 0.664958
0.675685 0.541451 0.726528
0.831891 0.556848 0.75494
0.984955 0.549828 0.816602
1 0.601114 0.834669
1 0.650797 0.839811
0.309056 0.588815 0.647913
0.315831 0.586084 0.643626
0.417807 0.571191 0.619883
0.537514 0.55436 0.6636
0.676417 0.539803 0.724407
0.832731 0.554849 0.753414
0.986084 0.547082 0.815671
1 0.600076 0.832502
1 0.649546 0.837644
0.271061 0.566064 0.616114
0.280812 0.5617 0.609934
0.366201 0.545205 0.57583
0.48014 0.538689 0.588663
0.610422 0.5196 0.654536
0.77435 0.529732 0.686931
0.945724 0.520775 0.757794
1 0.587671 0.794949
1 0.647623 0.834577
0.287037 0.605539 0.642786
0.300206 0.598352 0.632792
0.370504 0.576288 0.597055
0.473838 0.576043 0.576913
0.596231 0.566232 0.605615
0.743053 0.559152 0.644434
0.904677 0.550851 0.687953
1 0.588846 0.69865
1 0.621698 0.716258
0.353887 0.669871 0.685283
0.371054 0.658503 0.670573
0.423148 0.635309 0.636667
0.505562 0.629465 0.615976
0.61294 0.634211 0.597421
0.744732 0.622492 0.628321
0.892897 0.621561 0.644327
1 0.638331 0.649653
1 0.65977 0.649332
0.501564 0.741192 0.716365
0.5196 0.724865 0.694362
0.549722 0.704631 0.665553
0.604517 0.696117 0.645731
0.678187 0.695888 0.629557
0.765316 0.704494 0.61706
0.896803 0.70309 0.620142
1 0.717861 0.617182
1 0.744442 0.619806
0.550896 0.829068 0.773922
0.575387 0.807523 0.744884
0.598657 0.791821 0.722377
0.644068 0.781964 0.703563
0.713069 0.776379 0.685389
0.787823 0.783154 0.658289
0.865202 0.798581 0.644739
0.990616 0.801648 0.63151
1 0.815427 0.62089
0.682078 0.901732 0.819104
0.708278 0.881437 0.791394
0.728466 0.869505 0.774899
0.751339 0.864225 0.756191
0.785077 0.863951 0.7346
0.819669 0.873304 0.707347
0.883406 0.879881 0.687663
0.963012 0.894575 0.66482
1 0.897963 0.650446
0.821698 0.974487 0.835142
0.822858 0.969268 0.823163
0.825803 0.965331 0.812085
0.834836 0.963424 0.79794
0.848768 0.965255 0.779644
0.872023 0.969863 0.758038
0.925994 0.968872 0.746319
0.983215 0.979446 0.715908
1 0.990936 0.687297
0.386191 0.699763 0.768948
0.386191 0.699763 0.768948
0.447883 0.683879 0.741192
0.561593 0.671168 0.753307
0.678172 0.656382 0.799405
0.809094 0.650111 0.845823
0.944625 0.666255 0.875776
1 0.661189 0.935622
1 0.712612 0.945388
0.38529 0.698528 0.76762
0.38529 0.698528 0.76762
0.448554 0.682567 0.739483
0.561822 0.669795 0.752438
0.678355 0.655009 0.798764
0.809323 0.649195 0.844633
0.945098 0.66511 0.875044
1 0.659724 0.935012
1 0.712001 0.944259
0.359701 0.676646 0.74287
0.360327 0.677165 0.743511
0.420783 0.661082 0.715511
0.533623 0.654398 0.720165
0.653986 0.642725 0.770657
0.795331 0.640116 0.830106
0.945617 0.663523 0.873808
1 0.657435 0.934462
1 0.711116 0.942626
0.343496 0.683665 0.738552
0.343435 0.683497 0.738476
0.39527 0.658808 0.703487
0.489769 0.653117 0.680903
0.599756 0.646998 0.694804
0.720684 0.627512 0.754681
0.867292 0.635706 0.781689
1 0.623743 0.84799
1 0.68275 0.863844
0.377676 0.730236 0.770825
0.377493 0.730053 0.770687
0.426062 0.70135 0.732754
0.502266 0.691066 0.709377
0.604257 0.692836 0.691524
0.71841 0.682689 0.719036
0.851453 0.676661 0.753964
0.99527 0.674159 0.793027
1 0.706798 0.797894
0.457771 0.789868 0.808057
0.457572 0.789746 0.80798
0.499153 0.758572 0.76788
0.554864 0.746334 0.745892
0.63711 0.743481 0.728374
0.736202 0.748547 0.711498
0.8551 0.737972 0.740688
0.988052 0.739452 0.75436
1 0.754116 0.752773
0.612589 0.852018 0.831769
0.618647 0.843717 0.821302
0.641398 0.820127 0.789502
0.675166 0.808545 0.770001
0.729854 0.803449 0.753719
0.796399 0.804593 0.739956
0.873014 0.813306 0.729442
0.989776 0.814878 0.728038
1 0.828473 0.722072
0.660304 0.933852 0.887739
0.675868 0.915053 0.862806
0.690394 0.901137 0.843595
0.717449 0.891157 0.827634
0.763653 0.884123 0.811688
0.827131 0.879942 0.795895
0.890974 0.887327 0.770306
0.962798 0.901274 0.751659
1 0.903349 0.735058
0.791074 0.987991 0.916915
0.803204 0.976852 0.90132
0.814527 0.968444 0.88954
0.836896 0.960693 0.877058
0.859113 0.957855 0.861158
0.889525 0.958526 0.842664
0.919951 0.967254 0.818708
0.97644 0.973724 0.800748
1 0.986664 0.773007
0.473136 0.811521 0.885908
0.473136 0.811521 0.885893
0.481193 0.806577 0.879667
0.59353 0.78996 0.850507
0.697841 0.774624 0.87744
0.804288 0.761379 0.91902
0.920943 0.761028 0.954055
1 0.778119 0.98262
1 0.765805 1
0.472511 0.810773 0.88513
0.472511 0.810773 0.88513
0.481559 0.80528 0.878157
0.593576 0.789136 0.84979
0.697948 0.773785 0.876967
0.804486 0.760632 0.918822
0.921157 0.760433 0.95349
1 0.777447 0.982269
1 0.764843 1
0.471611 0.809674 0.884016
0.471611 0.809674 0.884031
0.482002 0.803433 0.875898
0.593835 0.787854 0.848951
0.698116 0.772564 0.87628
0.804746 0.759594 0.918441
0.921447 0.759594 0.952743
1 0.776547 0.981567
1 0.763455 1
0.425254 0.778195 0.846983
0.42533 0.778164 0.847013
0.439445 0.769268 0.835569
0.527657 0.751278 0.802762
0.631662 0.744579 0.80734
0.739406 0.731655 0.848798
0.863066 0.724102 0.899718
1 0.746365 0.938476
1 0.754742 1
0.433097 0.803479 0.860853
0.433021 0.803388 0.860807
0.450813 0.790417 0.84477
0.51812 0.768338 0.811841
0.613794 0.765682 0.793149
0.716548 0.759716 0.805066
0.826322 0.741863 0.857267
0.958801 0.748821 0.882933
1 0.74313 0.938262
0.477394 0.847761 0.890501
0.477302 0.847684 0.890455
0.498344 0.830427 0.869429
0.548302 0.808637 0.839673
0.629068 0.802289 0.820539
0.724193 0.804242 0.804471
0.828519 0.794919 0.829252
0.948959 0.789517 0.861784
1 0.791882 0.89424
0.564218 0.899367 0.920012
0.564111 0.899321 0.919997
0.585046 0.877791 0.894102
0.617975 0.859632 0.869886
0.678935 0.851408 0.852033
0.75552 0.849638 0.836973
0.844984 0.854139 0.821408
0.952499 0.844694 0.849042
1 0.847181 0.85893
0.725048 0.95201 0.936645
0.724941 0.95198 0.936645
0.740032 0.927703 0.905608
0.75697 0.914748 0.887495
0.793866 0.907179 0.872129
0.843046 0.903807 0.858503
0.901274 0.905241 0.846891
0.967803 0.913451 0.837659
1 0.914931 0.828595
0.771237 1 0.98735
0.779965 1 0.968002
0.788952 0.998306 0.952529
0.80206 0.989792 0.940017
0.830915 0.982727 0.927352
0.873228 0.97734 0.914275
0.929793 0.973434 0.900298
0.982483 0.981628 0.877028
1 0.993408 0.853803
0.540032 0.887831 0.961898
0.540032 0.887831 0.961898
0.540032 0.887831 0.961898
0.588998 0.870726 0.937972
0.708476 0.85742 0.934264
0.809476 0.844434 0.962005
0.90901 0.831434 1
1 0.842985 1
1 0.849897 1
0.540032 0.887831 0.961898
0.540032 0.887831 0.961898
0.540032 0.887831 0.961898
0.589853 0.870619 0.937743
0.708812 0.857374 0.934386
0.809659 0.844404 0.962081
0.909148 0.831418 1
1 0.843 1
1 0.849897 1
0.540032 0.887831 0.961898
0.540032 0.887831 0.961898
0.540032 0.887831 0.961898
0.591104 0.870497 0.937423
0.709331 0.857313 0.934539
0.809934 0.844388 0.962203
0.909346 0.831388 1
1 0.843015 1
1 0.849897 1
0.540032 0.887831 0.961898
0.540032 0.887831 0.961898
0.540032 0.887831 0.961898
0.593484 0.870222 0.936828
0.710369 0.85716 0.934752
0.810483 0.844327 0.962417
0.909682 0.831327 1
1 0.843061 1
1 0.849882 1
0.490013 0.862715 0.929213
0.489998 0.862654 0.929183
0.489967 0.862531 0.929122
0.529519 0.837766 0.89868
0.628595 0.828244 0.874556
0.728511 0.821118 0.880919
0.830625 0.807752 0.919814
0.949111 0.803388 0.960479
1 0.815167 1
0.515892 0.897597 0.952178
0.515816 0.897536 0.952132
0.515709 0.897429 0.952056
0.551446 0.869047 0.918639
0.63006 0.855833 0.894499
0.723705 0.854307 0.877836
0.820737 0.847745 0.890608
0.925994 0.831525 0.938567
1 0.837995 0.965133
0.573831 0.942885 0.982086
0.573754 0.94284 0.982055
0.573632 0.942763 0.98201
0.605295 0.912688 0.94757
0.664668 0.898848 0.925826
0.743099 0.893874 0.909194
0.831235 0.895506 0.894148
0.928435 0.885649 0.919905
1 0.881331 0.949889
0.67422 0.992981 1
0.674144 0.99295 1
0.674037 0.992905 1
0.697475 0.962676 0.977096
0.736431 0.950607 0.959396
0.794064 0.944167 0.94464
0.862379 0.942473 0.931365
0.942596 0.946517 0.916838
1 0.936584 0.943084
0.836164 1 1
0.836164 1 1
0.842451 1 1
0.850828 1 0.99913
0.870512 1 0.986328
0.903166 1 0.974594
0.944411 0.999207 0.963455
0.99382 1 0.953704
1 1 0.943465
