luts/Bat-CLog2.cube
TITLE "Generated by Resolve"
LUT_3D_SIZE 33
0.0389258 0.0444343 0.0366369
0.0438087 0.0449226 0.035462
0.0487526 0.045716 0.0364843
0.0587015 0.0456855 0.0340887
0.0722972 0.0453346 0.0305943
0.0874495 0.0456397 0.0269169
0.106676 0.0463417 0.0226749
0.132525 0.0479591 0.0173342
0.163668 0.0511788 0.0107118
0.199496 0.0563821 0.00256352
0.239948 0.0643473 0
0.284459 0.075761 0
0.33341 0.091722 0
0.385641 0.112871 0
0.441688 0.137255 0
0.500832 0.162188 0
0.562142 0.188373 0
0.625467 0.215579 0
0.68983 0.243473 0
0.75433 0.273396 0
0.818845 0.303502 0
0.881773 0.332967 0
0.943236 0.361822 0
1 0.389349 0
1 0.415457 0
1 0.439796 0
1 0.461799 0
1 0.481529 0
1 0.498711 0
1 0.51339 0
1 0.525597 0
1 0.535683 0
1 0.542168 0
0.0375677 0.0491951 0.0387274
0.0438239 0.0493629 0.037232
0.0505379 0.0493477 0.0354009
0.0603647 0.0492561 0.032578
0.0720226 0.0493019 0.0295415
0.0867628 0.0497292 0.0261692
0.105226 0.0503853 0.0220493
0.130571 0.0521706 0.0171511
0.161318 0.0552529 0.0106508
0.19707 0.0602426 0.00250248
0.237797 0.0679484 0
0.282658 0.0789197 0
0.332082 0.094316 0
0.384955 0.114855 0
0.441444 0.13814 0
0.500359 0.163088 0
0.56173 0.189502 0
0.625467 0.217151 0
0.689693 0.244862 0
0.754742 0.272984 0
0.819242 0.303151 0
0.88217 0.332647 0
0.943633 0.361547 0
1 0.38909 0
1 0.415244 0
1 0.439582 0
1 0.461631 0
1 0.481361 0
1 0.498558 0
1 0.513237 0
1 0.525475 0
1 0.535546 0
1 0.542046 0
0.0418402 0.0526284 0.0374762
0.0477607 0.0527199 0.0355993
0.0544289 0.0529946 0.0330205
0.06421 0.0528267 0.0300145
0.0786755 0.0520027 0.0247349
0.0944076 0.051606 0.0201572
0.112993 0.0516976 0.0155947
0.136019 0.0527504 0.0102846
0.16492 0.0554513 0.00376898
0.199313 0.0603342 0
0.238972 0.0679637 0
0.283101 0.0789807 0
0.331945 0.0944381 0
0.384222 0.114717 0
0.440452 0.138186 0
0.499275 0.163256 0
0.560662 0.189883 0
0.624277 0.217548 0
0.689174 0.245945 0
0.754238 0.273991 0
0.819608 0.302831 0
0.882506 0.332357 0
0.943954 0.361303 0
1 0.388861 0
1 0.415045 0
1 0.439414 0
1 0.461463 0
1 0.481209 0
1 0.498421 0
1 0.513115 0
1 0.525353 0
1 0.535439 0
1 0.541939 0
0.0470893 0.0575265 0.0359503
0.0537423 0.0573434 0.0343481
0.0595102 0.0579538 0.03093
0.0683604 0.0581216 0.0273747
0.0831159 0.0569467 0.0212406
0.101671 0.0552834 0.0139315
0.120699 0.054139 0.00781262
0.14229 0.0543679 0.00198367
0.169299 0.0563363 0
0.20061 0.061738 0
0.238407 0.0696574 0
0.281865 0.0805371 0
0.33048 0.0949264 0
0.382971 0.114504 0
0.438621 0.137926 0
0.497093 0.16318 0
0.558099 0.189654 0
0.622003 0.217807 0
0.687037 0.246342 0
0.753002 0.27512 0
0.818967 0.303395 0
0.882979 0.331991 0
0.944411 0.360967 0
1 0.388571 0
1 0.414771 0
1 0.43917 0
1 0.461265 0
1 0.481025 0
1 0.498238 0
1 0.512947 0
1 0.5252 0
1 0.535302 0
1 0.541802 0
0.0552987 0.0631571 0.0353399
0.0606241 0.0639048 0.031754
0.0660716 0.064271 0.0285496
0.0745098 0.0644999 0.0243381
0.0875868 0.0641031 0.0180972
0.107851 0.0617075 0.00851453
0.128847 0.0590829 0
0.14612 0.0594339 0
0.169055 0.0619211 0
0.198825 0.066804 0
0.235691 0.0744793 0
0.278309 0.0850996 0
0.326345 0.0992599 0
0.378851 0.11722 0
0.435599 0.137148 0
0.493385 0.161883 0
0.553872 0.188586 0
0.617304 0.216754 0
0.682307 0.245502 0
0.749035 0.274998 0
0.816358 0.30428 0
0.882185 0.332265 0
0.944961 0.360555 0
1 0.388205 0
1 0.41445 0
1 0.43888 0
1 0.461006 0
1 0.480781 0
1 0.498009 0
1 0.512749 0
1 0.525002 0
1 0.535119 0
1 0.541619 0
0.0637064 0.0712596 0.0327764
0.0690929 0.0722667 0.0290532
0.0744793 0.0725567 0.0263218
0.0825971 0.0728618 0.0219272
0.0946059 0.0726635 0.0150912
0.112978 0.0712291 0.00520333
0.13463 0.067689 0
0.151385 0.0666209 0
0.173037 0.0675364 0
0.200793 0.071107 0
0.235035 0.0777752 0
0.275441 0.0883497 0
0.32137 0.103166 0
0.372473 0.121386 0
0.428763 0.140505 0
0.487861 0.160983 0
0.54789 0.186648 0
0.610239 0.214527 0
0.674418 0.243351 0
0.740719 0.272984 0
0.80914 0.30312 0
0.877287 0.332647 0
0.943832 0.360647 0
1 0.387747 0
1 0.414038 0
1 0.438529 0
1 0.46067 0
1 0.480476 0
1 0.497734 0
1 0.512489 0
1 0.524758 0
1 0.53489 0
1 0.541405 0
0.0727092 0.0803388 0.0286412
0.0781567 0.0813001 0.0254368
0.0836957 0.0817426 0.0228885
0.0916762 0.0822309 0.0188907
0.102861 0.0823682 0.012726
0.119356 0.0819104 0.00367742
0.139193 0.0798657 0
0.161395 0.0758221 0
0.180896 0.074815 0
0.205478 0.0766155 0
0.236332 0.0820325 0
0.273777 0.0915389 0
0.31751 0.105882 0
0.365988 0.124468 0
0.419898 0.143984 0
0.478325 0.163622 0
0.539483 0.184573 0
0.601007 0.211246 0
0.663722 0.239643 0
0.728466 0.268879 0
0.795697 0.299016 0
0.86479 0.329641 0
0.935134 0.359976 0
1 0.387686 0
1 0.413565 0
1 0.438117 0
1 0.460273 0
1 0.480125 0
1 0.497414 0
1 0.512184 0
1 0.524468 0
1 0.534615 0
1 0.541146 0
0.0851148 0.0930953 0.0248875
0.0907454 0.0940719 0.0224002
0.0964675 0.0947738 0.0202029
0.104143 0.095201 0.0163424
0.1149 0.0956436 0.0108797
0.128542 0.0953536 0.00241093
0.145632 0.0943923 0
0.166064 0.0914626 0
0.190173 0.0861982 0
0.212268 0.0852522 0
0.239704 0.0885481 0
0.273716 0.0964065 0
0.314137 0.109438 0
0.359915 0.126406 0
0.410941 0.14667 0
0.46688 0.1664 0
0.526619 0.186313 0
0.589303 0.207584 0
0.650507 0.234607 0
0.713161 0.263111 0
0.778195 0.292699 0
0.844816 0.322637 0
0.914382 0.353567 0
0.986252 0.384527 0
1 0.413153 0
1 0.437613 0
1 0.459831 0
1 0.479713 0
1 0.497047 0
1 0.511833 0
1 0.524163 0
1 0.534325 0
1 0.540856 0
0.101671 0.110796 0.0227512
0.107652 0.111955 0.0211795
0.113466 0.112673 0.0191043
0.120882 0.113481 0.0158694
0.129885 0.113985 0.0108949
0.141558 0.114229 0.00358587
0.155856 0.113588 0
0.173312 0.111727 0
0.19443 0.108095 0
0.221729 0.101289 0
0.246052 0.100649 0
0.275944 0.104997 0
0.312154 0.114946 0
0.354559 0.129671 0
0.402548 0.148089 0
0.454627 0.169375 0
0.512276 0.188128 0
0.573083 0.20824 0
0.635355 0.229145 0
0.695537 0.25658 0
0.757534 0.28484 0
0.821118 0.313771 0
0.886931 0.343404 0
0.955322 0.373846 0
1 0.405264 0
1 0.435599 0
1 0.459312 0
1 0.47924 0
1 0.49662 0
1 0.511437 0
1 0.523796 0
1 0.533974 0
1 0.54052 0
0.123003 0.133471 0.0277867
0.128542 0.134722 0.0262608
0.133364 0.135439 0.024506
0.139757 0.136263 0.0217136
0.147494 0.136828 0.0172732
0.157412 0.137346 0.010956
0.169406 0.137194 0.00172427
0.184009 0.136278 0
0.201358 0.134295 0
0.224887 0.130114 0
0.255009 0.12311 0
0.281605 0.122866 0
0.313603 0.128176 0
0.351446 0.138735 0
0.395239 0.153658 0
0.443793 0.172137 0
0.498085 0.190173 0
0.556298 0.208804 0
0.61593 0.228412 0
0.675975 0.250813 0
0.734768 0.277455 0
0.7944 0.30454 0
0.855909 0.332387 0
0.91902 0.360708 0
0.985382 0.390005 0
1 0.420813 0
1 0.452415 0
1 0.478538 0
1 0.496315 0
1 0.511131 0
1 0.523491 0
1 0.533684 0
1 0.54023 0
0.147494 0.15993 0.0396429
0.152575 0.16141 0.0377661
0.156756 0.162158 0.036408
0.16228 0.163012 0.0341192
0.168811 0.163592 0.0303197
0.177127 0.164218 0.024918
0.187106 0.164309 0.0168612
0.199176 0.163928 0.00593576
0.213672 0.163027 0
0.2318 0.160723 0
0.258167 0.156435 0
0.290959 0.149386 0
0.319387 0.149615 0
0.352728 0.15552 0
0.391714 0.166262 0
0.435828 0.180789 0
0.486931 0.195178 0
0.54139 0.211368 0
0.597665 0.228794 0
0.65536 0.247166 0
0.711055 0.271534 0
0.766842 0.296681 0
0.823606 0.32221 0
0.881254 0.348043 0
0.940414 0.374258 0
1 0.40145 0
1 0.429908 0
1 0.460288 0
1 0.490898 0
1 0.511147 0
1 0.523507 0
1 0.533684 0
1 0.54023 0
0.174914 0.18912 0.0569314
0.17937 0.190555 0.0544137
0.183307 0.191577 0.0537423
0.188128 0.192493 0.0520333
0.193713 0.193133 0.0489357
0.200656 0.193729 0.0442969
0.209018 0.194049 0.0374762
0.218952 0.193942 0.0280308
0.230869 0.193561 0.0159915
0.244984 0.192325 0.000122072
0.265476 0.190097 0
0.294499 0.18587 0
0.329519 0.178988 0
0.359106 0.179644 0
0.393133 0.185534 0
0.435203 0.193942 0
0.481346 0.205035 0
0.530922 0.218265 0
0.583078 0.233051 0
0.636728 0.248981 0
0.689174 0.269093 0
0.740642 0.291356 0
0.792706 0.314061 0
0.8448 0.337041 0
0.897673 0.360357 0
0.951415 0.383917 0
1 0.407813 0
1 0.432685 0
1 0.458854 0
1 0.4869 0
1 0.515373 0
1 0.533684 0
1 0.54023 0
0.204944 0.220752 0.0807355
0.208927 0.222187 0.0787671
0.212528 0.223362 0.0774548
0.216541 0.224109 0.0759899
0.221622 0.225055 0.0739452
0.227405 0.22562 0.0700999
0.234577 0.226139 0.0645609
0.242771 0.22623 0.056611
0.252445 0.22594 0.0459144
0.263706 0.225299 0.0326085
0.279393 0.224231 0.013489
0.302251 0.222171 0
0.333379 0.218173 0
0.372747 0.210742 0
0.405463 0.210285 0
0.442267 0.213947 0
0.482872 0.221012 0
0.527733 0.230915 0
0.575067 0.242634 0
0.62388 0.255695 0
0.671748 0.272984 0
0.718959 0.291966 0
0.766445 0.311589 0
0.813382 0.331167 0
0.859953 0.350759 0
0.906615 0.370642 0
0.952956 0.390234 0
0.999893 0.410239 0
1 0.430335 0
1 0.450843 0
1 0.472145 0
1 0.49453 0
1 0.516091 0
0.236912 0.254108 0.111284
0.240635 0.255665 0.110292
0.243656 0.256626 0.108232
0.247425 0.257694 0.107408
0.251713 0.258457 0.105791
0.25687 0.259327 0.10341
0.262776 0.25977 0.0988937
0.269734 0.260075 0.0921035
0.277653 0.259892 0.082948
0.286809 0.259449 0.0715038
0.298558 0.258717 0.056199
0.316152 0.257801 0.033463
0.340841 0.256489 0.00303655
0.373251 0.253437 0
0.414649 0.247089 0
0.45449 0.243534 0
0.493324 0.244541 0
0.532753 0.250263 0
0.575113 0.258488 0
0.617441 0.27071 0
0.660639 0.284794 0
0.703853 0.300145 0
0.747234 0.316503 0
0.789502 0.332815 0
0.831189 0.349325 0
0.871839 0.36553 0
0.911177 0.381247 0
0.949355 0.396582 0
0.986343 0.411322 0
1 0.425986 0
1 0.440574 0
1 0.454994 0
1 0.467857 0
0.27068 0.289113 0.143664
0.27364 0.290257 0.142504
0.276387 0.291234 0.141131
0.279545 0.292195 0.139422
0.283207 0.292897 0.138277
0.287541 0.293584 0.136461
0.292653 0.294179 0.133669
0.298451 0.294423 0.129244
0.30515 0.294545 0.123369
0.312963 0.29453 0.115679
0.322271 0.294179 0.104677
0.33611 0.293873 0.0867018
0.355688 0.293462 0.061265
0.382055 0.292485 0.027985
0.415076 0.290349 0
0.458122 0.285115 0
0.498619 0.282445 0
0.537896 0.283085 0
0.577188 0.287312 0
0.616587 0.294774 0
0.656535 0.304753 0
0.69662 0.316732 0
0.736156 0.329519 0
0.774807 0.342824 0
0.812467 0.35642 0
0.848661 0.369741 0
0.882948 0.382467 0
0.915251 0.394446 0
0.945434 0.4056 0
0.973465 0.415991 0
0.999512 0.425498 0
1 0.434379 0
1 0.441382 0
0.304204 0.323873 0.17435
0.306996 0.325063 0.173617
0.30927 0.325811 0.172473
0.3122 0.326894 0.171084
0.315557 0.327825 0.170047
0.319356 0.328511 0.168994
0.323735 0.329122 0.167239
0.329 0.329763 0.164843
0.334752 0.330007 0.160967
0.341238 0.330083 0.155947
0.349126 0.330205 0.149477
0.360494 0.330327 0.138689
0.376547 0.330495 0.121752
0.398199 0.330617 0.0954452
0.425834 0.330358 0.060914
0.459724 0.328923 0.0225071
0.503059 0.324742 0
0.543709 0.32253 0
0.582803 0.323033 0
0.621134 0.326741 0
0.659037 0.332921 0
0.696513 0.341039 0
0.733318 0.350545 0
0.769253 0.361181 0
0.803708 0.371847 0
0.836805 0.382742 0
0.867597 0.393118 0
0.896025 0.402747 0
0.921889 0.411536 0
0.945083 0.419318 0
0.965606 0.426078 0
0.983795 0.432013 0
0.99736 0.436057 0
0.338384 0.359121 0.20531
0.340902 0.360235 0.204807
0.343114 0.361196 0.204334
0.345556 0.361975 0.203006
0.348669 0.363134 0.201678
0.352056 0.363882 0.201175
0.356069 0.364691 0.200366
0.36054 0.365286 0.198764
0.365774 0.365957 0.196735
0.37145 0.366278 0.193454
0.378134 0.366476 0.188998
0.387839 0.366857 0.181765
0.401419 0.367437 0.170672
0.419562 0.3682 0.154543
0.44303 0.368917 0.131411
0.471977 0.369497 0.100389
0.506371 0.36875 0.0605783
0.549584 0.365591 0
0.590372 0.363867 0
0.628916 0.364416 0
0.666087 0.367285 0
0.702358 0.372183 0
0.737713 0.378988 0
0.771511 0.386603 0
0.803998 0.394842 0
0.83473 0.403494 0
0.863416 0.411963 0
0.889235 0.419593 0
0.912474 0.426703 0
0.933074 0.43299 0
0.950668 0.43827 0
0.965728 0.442695 0
0.976104 0.445365 0
0.373205 0.394873 0.236622
0.375265 0.395758 0.23621
0.377234 0.396628 0.235798
0.379644 0.397635 0.235203
0.382239 0.398535 0.233921
0.385489 0.399619 0.233204
0.388952 0.400351 0.232685
0.393133 0.401312 0.23212
0.39765 0.401953 0.230716
0.40267 0.402502 0.228717
0.408865 0.403098 0.225772
0.417639 0.403876 0.220829
0.429541 0.404822 0.213046
0.445289 0.405997 0.20174
0.465492 0.407279 0.185809
0.490379 0.40853 0.164736
0.520043 0.409354 0.137911
0.554665 0.409171 0.102571
0.597833 0.406714 0.0290074
0.637995 0.405585 0
0.676158 0.406485 0
0.712444 0.408835 0
0.747005 0.412802 0
0.779797 0.418006 0
0.811337 0.424308 0
0.840543 0.430732 0
0.867796 0.437461 0
0.892256 0.443641 0
0.914061 0.449516 0
0.93315 0.454704 0
0.949203 0.459052 0
0.962737 0.462638 0
0.971588 0.4645 0
0.408209 0.430762 0.26775
0.410224 0.431739 0.267597
0.411795 0.43238 0.267124
0.413947 0.433356 0.266789
0.41648 0.434424 0.266102
0.419257 0.435431 0.264866
0.422583 0.436469 0.264714
0.426184 0.437308 0.264363
0.430442 0.438315 0.26389
0.434989 0.439094 0.26273
0.440772 0.439887 0.260578
0.448783 0.440833 0.256825
0.459602 0.442054 0.251041
0.473884 0.443702 0.242741
0.491814 0.445411 0.230945
0.513741 0.447211 0.215335
0.540047 0.448875 0.195361
0.570138 0.450202 0.172061
0.605081 0.450401 0.14081
0.647532 0.448661 0.0695201
0.687037 0.447959 0.00492866
0.724285 0.448554 0
0.759274 0.450736 0
0.792325 0.454124 0
0.823194 0.458228 0
0.851835 0.462943 0
0.878386 0.468177 0
0.902266 0.473243 0
0.923278 0.477913 0
0.941512 0.482216 0
0.957 0.485939 0
0.969787 0.48896 0
0.977966 0.490486 0
0.443336 0.466636 0.298512
0.445136 0.467582 0.298497
0.446723 0.468391 0.298405
0.448432 0.469108 0.297902
0.450752 0.470161 0.29749
0.453437 0.471366 0.296803
0.456352 0.472389 0.295933
0.459815 0.473533 0.296101
0.463523 0.474479 0.295811
0.467781 0.475425 0.29514
0.473716 0.476753 0.293873
0.481376 0.477928 0.290929
0.491386 0.479377 0.286381
0.50428 0.481102 0.279728
0.520394 0.483116 0.270604
0.540154 0.485237 0.258244
0.563653 0.487434 0.242603
0.590997 0.48957 0.223713
0.621515 0.491341 0.202747
0.65687 0.491905 0.173236
0.698146 0.490806 0.111727
0.73695 0.49041 0.0424506
0.772961 0.491096 0
0.806592 0.492805 0
0.837934 0.495521 0
0.866819 0.498985 0
0.892973 0.502632 0
0.916747 0.506706 0
0.937377 0.510338 0
0.955428 0.513954 0
0.970581 0.517128 0
0.983337 0.519814 0
0.991043 0.520958 0
0.478645 0.502708 0.329
0.480186 0.503532 0.328939
0.481621 0.50428 0.328878
0.48336 0.50518 0.328771
0.485237 0.505989 0.328298
0.487678 0.507179 0.327871
0.490501 0.508446 0.327123
0.493568 0.509544 0.326848
0.497093 0.51075 0.327016
0.501457 0.511971 0.326635
0.507134 0.513252 0.325399
0.514519 0.514733 0.323156
0.524163 0.516579 0.319707
0.536217 0.518608 0.314412
0.551064 0.520806 0.306905
0.5691 0.523201 0.296864
0.590417 0.52575 0.284138
0.615244 0.528252 0.26833
0.643122 0.530587 0.250172
0.673732 0.532464 0.230472
0.708812 0.533165 0.20177
0.749325 0.532372 0.146212
0.787091 0.532601 0.0819867
0.821912 0.533288 0.019852
0.853941 0.534768 0
0.883116 0.536934 0
0.909972 0.539818 0
0.933593 0.542641 0
0.954681 0.5458 0
0.972519 0.548486 0
0.987655 0.551202 0
1 0.553552 0
1 0.554726 0
0.514061 0.538842 0.358999
0.515389 0.539574 0.358968
0.516533 0.540139 0.358816
0.518074 0.540978 0.35874
0.519966 0.541985 0.358633
0.521965 0.54287 0.358083
0.524575 0.544167 0.35761
0.527459 0.545495 0.356939
0.530922 0.546746 0.357076
0.535302 0.548012 0.356695
0.541192 0.549737 0.355962
0.548379 0.551431 0.354116
0.557458 0.553246 0.351049
0.568719 0.555352 0.346548
0.582849 0.557946 0.340505
0.599466 0.560586 0.332204
0.619181 0.563348 0.32137
0.641947 0.566155 0.307973
0.667674 0.568902 0.292195
0.696117 0.571374 0.274388
0.726482 0.573449 0.256077
0.761654 0.574182 0.226841
0.800595 0.573785 0.176364
0.836866 0.57406 0.120424
0.870069 0.574914 0.0573129
0.900191 0.576211 0.00294499
0.927413 0.577951 0
0.951827 0.580316 0
0.97293 0.582498 0
0.991348 0.584955 0
1 0.587152 0
1 0.589014 0
1 0.590036 0
0.549126 0.574655 0.38819
0.550378 0.575387 0.38822
0.551507 0.576043 0.388251
0.552697 0.576638 0.388037
0.55433 0.577508 0.3879
0.556359 0.578576 0.387701
0.558556 0.57969 0.387289
0.561471 0.581079 0.386465
0.565087 0.582513 0.386145
0.569574 0.583978 0.385885
0.575143 0.585534 0.384985
0.582437 0.587594 0.383658
0.591134 0.589593 0.381048
0.601816 0.591806 0.377218
0.614786 0.594263 0.371817
0.630304 0.596963 0.364584
0.648753 0.59997 0.355337
0.669947 0.603143 0.343954
0.693904 0.606149 0.330022
0.720302 0.609033 0.314153
0.748943 0.611582 0.296757
0.779004 0.613703 0.279332
0.813657 0.614496 0.249836
0.851148 0.614282 0.20267
0.885649 0.614633 0.152865
0.91693 0.615503 0.0974899
0.944961 0.616617 0.0410315
0.969528 0.618112 0
0.991348 0.620081 0
1 0.621759 0
1 0.623713 0
1 0.625483 0
1 0.626383 0
0.583658 0.609903 0.416434
0.584695 0.610483 0.416373
0.585672 0.611063 0.416388
0.586908 0.61178 0.416388
0.588388 0.612634 0.416373
0.590082 0.613428 0.415885
0.592508 0.614694 0.415427
0.59556 0.61622 0.414618
0.599054 0.617502 0.413886
0.603662 0.619196 0.413764
0.60911 0.620798 0.412909
0.615915 0.62266 0.411505
0.624582 0.624964 0.409415
0.63476 0.627283 0.406058
0.647044 0.629786 0.401251
0.661601 0.632563 0.394919
0.678691 0.635523 0.386725
0.698482 0.638666 0.376486
0.720989 0.641947 0.364157
0.745815 0.645151 0.34992
0.772732 0.648035 0.333822
0.801114 0.650645 0.317037
0.830503 0.652766 0.300572
0.864652 0.653452 0.270161
0.900053 0.653422 0.226703
0.932433 0.654047 0.182864
0.961242 0.654704 0.13666
0.986435 0.655741 0.0871748
1 0.657267 0.042298
1 0.658579 0.00527962
1 0.660243 0
1 0.661524 0
1 0.662303 0
0.617487 0.644388 0.443549
0.618509 0.644999 0.443534
0.619455 0.645563 0.443503
0.620554 0.646113 0.443259
0.621927 0.646754 0.442863
0.62385 0.647791 0.442542
0.626261 0.649012 0.441917
0.629038 0.650233 0.440711
0.632731 0.651759 0.440406
0.636957 0.653117 0.439933
0.642527 0.655024 0.439384
0.649058 0.656855 0.438041
0.657389 0.65919 0.436149
0.667109 0.661494 0.433036
0.678752 0.664042 0.428809
0.6925 0.666819 0.423087
0.708598 0.669779 0.415702
0.727291 0.67306 0.406561
0.748333 0.676432 0.39556
0.771664 0.679591 0.382391
0.79707 0.682628 0.367529
0.824002 0.68545 0.351659
0.852049 0.687922 0.335393
0.880369 0.689998 0.320104
0.913481 0.690593 0.289052
0.946715 0.691005 0.24979
0.976287 0.691386 0.210636
1 0.692103 0.172671
1 0.693294 0.135286
1 0.694286 0.0967117
1 0.695705 0.0627298
1 0.696742 0.0352483
1 0.697444 0.0193027
0.650599 0.677668 0.468681
0.651392 0.678019 0.46836
0.652323 0.678508 0.468177
0.653498 0.679133 0.467979
0.654994 0.679927 0.467658
0.65684 0.680873 0.467155
0.659175 0.682017 0.466361
0.661875 0.683146 0.465293
0.6654 0.684535 0.465232
0.669505 0.685878 0.464775
0.674891 0.687694 0.464118
0.681163 0.689509 0.462837
0.689082 0.691798 0.461067
0.69839 0.694072 0.458228
0.709422 0.696605 0.454337
0.722438 0.699336 0.449119
0.737697 0.702312 0.442435
0.755428 0.705608 0.434165
0.775189 0.708766 0.423896
0.797192 0.711955 0.41181
0.821103 0.715099 0.398215
0.846769 0.718044 0.3832
0.873549 0.720714 0.367514
0.900786 0.723033 0.352071
0.928069 0.725292 0.338262
0.959869 0.725734 0.306554
0.990112 0.725933 0.270665
1 0.726452 0.237018
1 0.727413 0.205417
1 0.728161 0.175341
1 0.729381 0.148852
1 0.73051 0.124315
1 0.730861 0.108064
0.682399 0.709133 0.491386
0.68336 0.709621 0.491127
0.684245 0.710094 0.490929
0.685359 0.710658 0.490593
0.686763 0.711376 0.490166
0.688563 0.712276 0.489601
0.690547 0.713085 0.488533
0.693294 0.714214 0.488396
0.696681 0.715511 0.488228
0.700648 0.716793 0.487709
0.70573 0.718547 0.487083
0.711711 0.720211 0.48571
0.71931 0.722438 0.484047
0.728115 0.724605 0.481361
0.738567 0.727016 0.477699
0.751278 0.729885 0.472999
0.765667 0.732692 0.466728
0.782238 0.735668 0.4589
0.800992 0.738766 0.449378
0.82179 0.741939 0.438285
0.844602 0.745037 0.425452
0.869062 0.748012 0.411292
0.894957 0.751034 0.39646
0.921218 0.753613 0.381369
0.94728 0.755795 0.366979
0.972488 0.757641 0.354269
1 0.757916 0.321721
1 0.758495 0.290364
1 0.758999 0.261189
1 0.759899 0.234714
1 0.760678 0.211643
1 0.76173 0.191653
1 0.76228 0.179721
0.712688 0.738674 0.511849
0.713436 0.738979 0.511467
0.714275 0.739391 0.511162
0.715328 0.739925 0.510842
0.71667 0.740581 0.510369
0.718379 0.741344 0.509712
0.720439 0.742168 0.509697
0.722728 0.742916 0.509377
0.725948 0.744076 0.509117
