luts/Bat-Log3G10.cube
TITLE "Generated by Resolve"
LUT_3D_SIZE 5
0.0326696 0.0361334 0.0265354
0.196063 0.0446632 0
0.756664 0.268894 0
1 0.495598 0
1 0.54023 0
0.0985885 0.117861 0.0273899
0.211719 0.12282 0
0.667079 0.248142 0
1 0.438071 0
1 0.479362 0
0.408469 0.440269 0.279805
0.439841 0.460502 0.290791
0.642252 0.484672 0.174716
0.937484 0.514717 0
0.99649 0.532097 0
0.664912 0.70634 0.502663
0.664912 0.706325 0.502663
0.822202 0.77911 0.493675
1 0.806195 0.348745
1 0.810498 0.267887
0.727443 0.771664 0.555444
0.727443 0.771664 0.555444
0.865171 0.842756 0.555856
1 0.872938 0.430213
1 0.877119 0.372366
0.0488746 0.0978714 0.164523
0.132174 0.114885 0.201038
0.741588 0.275868 0
1 0.495598 0
1 0.54023 0
0 0.152682 0.193668
0.144854 0.159716 0.160525
0.660273 0.263966 0
1 0.440909 0
1 0.482856 0
0.407828 0.439612 0.279225
0.438956 0.459724 0.290257
0.642176 0.484001 0.173373
0.937133 0.514092 0
0.996201 0.531533 0
0.664805 0.706218 0.502571
0.664805 0.706218 0.502571
0.822034 0.778973 0.493599
1 0.806073 0.348562
1 0.810391 0.267704
0.727443 0.771664 0.555444
0.727443 0.771664 0.555444
0.86511 0.842741 0.555886
1 0.872938 0.430213
1 0.877119 0.372366
0.197742 0.385657 0.588037
0.244388 0.391379 0.587427
0.560204 0.483223 0.694636
1 0.522393 0.461387
1 0.545174 0.330648
0.184649 0.373297 0.565164
0.234867 0.379767 0.563333
0.546731 0.473136 0.66627
1 0.516808 0.459632
1 0.542611 0.329076
0.165072 0.501625 0.575814
0.234241 0.523964 0.593225
0.548837 0.562982 0.568673
0.868772 0.602457 0.471962
0.954849 0.599802 0.374411
0.663478 0.704829 0.501442
0.663478 0.704829 0.501442
0.82005 0.777386 0.492729
1 0.804837 0.346716
1 0.80911 0.2654
0.727443 0.771664 0.555444
0.727443 0.771664 0.555444
0.864332 0.842588 0.556207
1 0.872938 0.430304
1 0.877119 0.372366
0.33817 0.61326 0.920195
0.353658 0.612207 0.915129
0.579797 0.68127 0.99826
0.92134 0.771023 1
1 0.791684 1
0.337987 0.612955 0.919738
0.352209 0.611917 0.914992
0.579202 0.680842 0.997604
0.921324 0.770794 1
1 0.791424 1
0.243137 0.539849 0.742306
0.245151 0.540413 0.742214
0.524392 0.596933 0.728679
0.756848 0.682734 0.818814
0.819318 0.70341 0.823346
0.401694 0.814511 0.909499
0.40174 0.814481 0.909407
0.641093 0.890517 0.961517
0.912871 0.924498 0.932906
0.975998 0.934707 0.927657
0.504814 0.881422 0.927108
0.504891 0.881392 0.927001
0.68777 0.95137 0.980667
0.966308 0.975143 0.941741
1 0.982376 0.931991
0.349264 0.631174 0.946334
0.354116 0.630838 0.944595
0.582101 0.696468 1
0.9149 0.783352 1
0.996201 0.809552 1
0.349264 0.631174 0.946334
0.353002 0.63093 0.945006
0.581613 0.696315 1
0.914794 0.783307 1
0.996201 0.809552 1
0.250523 0.525185 0.742123
0.250523 0.52517 0.742123
0.502922 0.57409 0.730236
0.739666 0.664546 0.836271
0.801205 0.689448 0.840818
0.377356 0.821622 0.953094
0.377356 0.821622 0.953079
0.620722 0.896971 1
0.908598 0.930846 0.963775
0.956512 0.9458 0.98323
0.461524 0.90016 0.998108
0.461524 0.90016 0.998108
0.656123 0.969482 1
0.933104 0.996994 1
0.995193 1 1
