luts/Bat-Slog3.cube
TITLE "Generated by Resolve"
LUT_3D_SIZE 9
0.0302129 0.0325017 0.0217594
0.0593271 0.0333715 0.0158999
0.125216 0.0353246 0
0.280797 0.0594186 0
0.519219 0.158648 0
0.795621 0.288411 0
1 0.410864 0
1 0.496742 0
1 0.538766 0
0.0409552 0.0494392 0.0260929
0.0696574 0.0505989 0.0108186
0.130968 0.0485237 0
0.275288 0.0739757 0
0.508965 0.165103 0
0.775998 0.28716 0
1 0.402747 0
1 0.482719 0
1 0.521385 0
0.0639963 0.0786908 0.0267948
0.0907149 0.0847181 0.0163882
0.152621 0.0823224 0
0.267521 0.0905013 0
0.480308 0.170397 0
0.735607 0.27538 0
0.961364 0.382315 0
1 0.455436 0
1 0.490486 0
0.147692 0.171405 0.0569924
0.171847 0.181628 0.053254
0.20322 0.184833 0.0338903
0.285176 0.177783 0
0.445411 0.193591 0
0.663996 0.262119 0
0.857343 0.350668 0
0.988663 0.413352 0
1 0.444358 0
0.287037 0.314336 0.173358
0.303838 0.324178 0.178027
0.322271 0.329488 0.17113
0.355718 0.331533 0.148486
0.4663 0.33228 0.0269627
0.64419 0.337789 0
0.80029 0.382849 0
0.914397 0.427741 0
0.973022 0.453483 0
0.431098 0.462959 0.301152
0.446342 0.474372 0.310201
0.462028 0.482902 0.310933
0.48632 0.490486 0.306966
0.550988 0.500374 0.275792
0.683345 0.510353 0.184619
0.843915 0.517525 0
0.951659 0.537469 0
1 0.553628 0
0.564981 0.60177 0.418143
0.581308 0.615946 0.429465
0.597086 0.627237 0.434607
0.622843 0.640848 0.432273
0.675898 0.654505 0.417716
0.772946 0.670146 0.368017
0.904646 0.681224 0.281727
1 0.687358 0.122667
1 0.695155 0.0158846
0.670817 0.7122 0.508186
0.688319 0.728344 0.520623
0.704814 0.741512 0.527703
0.732296 0.757794 0.525612
0.781125 0.772656 0.514199
0.863951 0.788251 0.476493
0.972519 0.802136 0.415671
1 0.809613 0.342931
1 0.813519 0.273121
0.732815 0.77702 0.560342
0.750622 0.793774 0.573037
0.767163 0.807324 0.58053
0.795682 0.824201 0.578012
0.843107 0.839063 0.566354
0.920256 0.853834 0.531975
1 0.866789 0.47512
1 0.875441 0.427268
1 0.87866 0.374868
0.0321965 0.0408179 0.0430152
0.0472114 0.0435187 0.0501869
0.114229 0.0453193 0.0396887
0.279377 0.0636301 0
0.513008 0.165591 0
0.786282 0.297475 0
1 0.416205 0
1 0.500221 0
1 0.541436 0
0.0181582 0.0581064 0.0645914
0.0519112 0.0601511 0.0546578
0.113497 0.0620584 0.0420081
0.265202 0.0902724 0.0105287
0.499062 0.179248 0
0.767086 0.296269 0
1 0.408087 0
1 0.486107 0
1 0.523903 0
0.042298 0.0911574 0.0674907
0.0711223 0.0948501 0.0627756
0.128511 0.0963149 0.039826
0.264927 0.101457 0
0.477729 0.176516 0
0.727382 0.284901 0
0.952789 0.387976 0
1 0.459068 0
1 0.493233 0
0.13872 0.180224 0.108629
0.163455 0.187549 0.10605
0.194324 0.19202 0.0811627
0.273655 0.189059 0.0121614
0.451225 0.196658 0
0.658366 0.272755 0
0.850858 0.357687 0
0.981735 0.418555 0
1 0.448737 0
0.28246 0.317571 0.200992
0.30016 0.327642 0.2056
0.319921 0.33431 0.196597
0.353613 0.337285 0.177798
0.463676 0.340414 0.0829786
0.643687 0.347463 0
0.799847 0.391379 0
0.913924 0.435248 0
0.972824 0.460731 0
0.430533 0.46659 0.318013
0.44622 0.478218 0.326711
0.462409 0.487098 0.327718
0.487922 0.495857 0.321355
0.553796 0.50663 0.292653
0.686046 0.517632 0.21178
0.847364 0.525444 0
0.955642 0.545449 0
1 0.561318 0
0.566583 0.606165 0.430549
0.583261 0.620554 0.441703
0.599588 0.632349 0.447181
0.626215 0.64651 0.442817
0.680247 0.6607 0.428809
0.777676 0.676677 0.381064
0.909224 0.68809 0.299748
1 0.694438 0.155566
1 0.70251 0.0587167
0.673579 0.717235 0.518898
0.691356 0.733516 0.531243
0.707958 0.746853 0.538369
0.736431 0.763546 0.536065
0.786007 0.778881 0.523644
0.868864 0.794446 0.486931
0.977264 0.808423 0.428382
1 0.816022 0.359243
1 0.819898 0.293156
0.736034 0.782315 0.570397
0.754009 0.799115 0.583001
0.770626 0.812696 0.590295
0.799771 0.829786 0.587762
0.847654 0.845121 0.575662
0.924834 0.859876 0.542245
1 0.872755 0.487068
1 0.88127 0.441291
1 0.884504 0.391226
0.035996 0.0571756 0.083711
0.0502785 0.0597543 0.0858015
0.0851301 0.0679789 0.106493
0.271061 0.073228 0.0580758
0.507881 0.164675 0
0.779248 0.297002 0
1 0.421454 0
1 0.505943 0
1 0.545998 0
0.0313878 0.0682383 0.0953994
0.052781 0.0734875 0.0943618
0.0898451 0.0813153 0.110063
0.261387 0.0967575 0.0685435
0.492668 0.182956 0.00221256
0.755383 0.303532 0
0.996338 0.416434 0
1 0.491691 0
1 0.528283 0
0 0.105562 0.133913
0.0355535 0.111376 0.130083
0.0999008 0.112902 0.111589
0.238499 0.129259 0.0813153
0.457359 0.199344 0.0321508
0.711788 0.298756 0
0.938216 0.396536 0
1 0.464881 0
1 0.497902 0
0.100771 0.1897 0.153445
0.135042 0.196612 0.15552
0.175082 0.198184 0.148486
0.252094 0.201877 0.103777
0.437308 0.215518 0
0.646342 0.286702 0
0.839261 0.367239 0
0.97026 0.425757 0
1 0.455024 0
0.270024 0.321202 0.236255
0.289677 0.330861 0.241672
0.311223 0.337423 0.23592
0.3467 0.343008 0.214374
0.455299 0.34902 0.153582
0.638819 0.358633 0
0.795682 0.401541 0
0.910048 0.444236 0
0.96907 0.468986 0
0.425818 0.469383 0.341176
0.442496 0.481498 0.349645
0.459236 0.490501 0.350805
0.486809 0.501137 0.340612
0.553353 0.512581 0.315282
0.685069 0.524926 0.247211
0.84744 0.533806 0.0595102
0.956161 0.554025 0
1 0.569924 0
0.56556 0.609949 0.447562
0.582467 0.624399 0.458228
0.599207 0.636423 0.463722
0.626856 0.651087 0.45977
0.681743 0.666499 0.444755
0.779324 0.683284 0.401679
0.910216 0.695537 0.33019
1 0.702342 0.207233
1 0.710475 0.13814
0.674006 0.721462 0.533074
0.692042 0.737911 0.545251
0.708949 0.751644 0.553109
0.737591 0.768383 0.551858
0.787732 0.784726 0.538674
0.870359 0.800565 0.504829
0.978317 0.814801 0.450767
1 0.822675 0.388205
1 0.826795 0.328511
0.737057 0.78674 0.583566
0.754894 0.803647 0.596735
0.771557 0.817456 0.605142
0.800824 0.834714 0.604181
0.849363 0.851102 0.590845
0.926055 0.865766 0.559503
1 0.878676 0.507729
1 0.887205 0.465812
1 0.890684 0.420218
0.0529183 0.118196 0.195377
0.0700236 0.121538 0.194476
0.0981155 0.128725 0.206394
0.202197 0.160052 0.243275
0.490532 0.183856 0.167529
0.766827 0.294484 0.020798
1 0.415061 0
1 0.500771 0
1 0.542657 0
0.0484016 0.123857 0.19617
0.0682536 0.129351 0.196963
0.104112 0.137514 0.200717
0.20383 0.169314 0.242817
0.479103 0.19942 0.176944
0.744396 0.30193 0.0578622
0.981537 0.412558 0
1 0.490639 0
1 0.528435 0
0.0375525 0.139422 0.204959
0.0624552 0.145113 0.20441
0.103471 0.151156 0.201022
0.197574 0.176684 0.233097
0.449622 0.211521 0.176898
0.697978 0.303746 0.0920119
0.917708 0.40206 0.00605783
1 0.471275 0
1 0.504707 0
0 0.214267 0.258717
0.0271 0.222492 0.261341
0.0933852 0.225879 0.255467
0.210208 0.226368 0.229068
0.39733 0.250462 0.193469
0.613123 0.31606 0.153124
0.811704 0.387655 0.0879377
0.944778 0.441642 0.0361486
1 0.469276 0.0148928
0.232425 0.33196 0.286168
0.255818 0.342306 0.294606
0.279591 0.348943 0.295979
0.325307 0.35169 0.290761
0.431861 0.364675 0.254902
0.619898 0.379721 0.160708
0.779156 0.421942 0.104219
0.894728 0.46331 0.0686351
0.954421 0.487831 0.0570993
0.411048 0.474022 0.380209
0.428565 0.486275 0.391028
0.44654 0.495811 0.396857
0.475776 0.507027 0.393942
0.543847 0.523262 0.369711
0.672496 0.539055 0.329274
0.837629 0.550927 0.219165
0.947433 0.572106 0.155779
1 0.588266 0.128695
0.558053 0.614527 0.480262
0.575097 0.629831 0.494057
0.591623 0.642435 0.503273
0.619989 0.657862 0.50518
0.67628 0.676493 0.486976
0.772564 0.694392 0.454917
0.901411 0.708492 0.404013
1 0.716716 0.313741
1 0.725444 0.273335
0.668986 0.72726 0.565118
0.686427 0.744259 0.580545
0.702739 0.758083 0.591089
0.73196 0.775387 0.594232
0.783062 0.793942 0.576257
0.86511 0.810727 0.549966
0.971908 0.825742 0.506127
1 0.83444 0.45803
1 0.838956 0.410025
0.732113 0.792981 0.61677
0.749294 0.810193 0.632761
0.765652 0.824155 0.643473
0.795239 0.841764 0.646265
0.844739 0.860182 0.627344
0.920638 0.875212 0.602045
1 0.888457 0.558358
1 0.897398 0.525048
1 0.900877 0.488411
0.104967 0.232792 0.363622
0.122225 0.23505 0.3635
0.152407 0.239841 0.364431
0.216236 0.262028 0.400748
0.385916 0.313909 0.443427
0.725048 0.346929 0.37145
0.996139 0.421439 0.25359
1 0.497642 0.166201
1 0.536751 0.114305
0.0991684 0.231968 0.357702
0.118975 0.23563 0.358709
0.150271 0.240574 0.359167
0.217136 0.262562 0.389822
0.3832 0.316457 0.437812
0.706157 0.350729 0.372198
0.961212 0.419837 0.270695
1 0.488701 0.202609
1 0.523705 0.167788
0.0852979 0.23003 0.347051
0.108263 0.234913 0.348837
0.141909 0.239048 0.347234
0.21088 0.256382 0.36202
0.366827 0.310048 0.416907
0.668208 0.343511 0.356939
0.900206 0.409308 0.276143
1 0.470527 0.226276
1 0.501595 0.204135
0.0591287 0.260075 0.368063
0.0918288 0.26511 0.366629
0.136858 0.265476 0.355673
0.211933 0.272984 0.345357
0.343969 0.310262 0.384985
0.602716 0.339879 0.334981
0.798703 0.399649 0.288396
0.92784 0.451133 0.262959
0.989853 0.478416 0.254154
0.0485389 0.367208 0.424964
0.102403 0.378149 0.432502
0.1626 0.384436 0.433417
0.240818 0.388891 0.426871
0.382757 0.398138 0.402609
0.563714 0.42443 0.379705
0.729656 0.467308 0.361883
0.848676 0.507408 0.354894
0.910658 0.530343 0.352743
0.352743 0.495155 0.458762
0.371633 0.509071 0.473365
0.392599 0.519203 0.483085
0.429969 0.529351 0.489937
0.511345 0.541939 0.486275
0.635126 0.56495 0.464134
0.804608 0.58233 0.405783
0.916472 0.605631 0.381323
0.974716 0.622446 0.374121
0.518135 0.633417 0.541131
0.53489 0.649516 0.558541
0.550607 0.66302 0.571237
0.587716 0.674418 0.587823
0.653437 0.690166 0.582254
0.749493 0.713283 0.553628
0.873793 0.730632 0.528908
0.996948 0.741375 0.469566
1 0.750896 0.447135
0.643717 0.739986 0.631052
0.660044 0.757519 0.648936
0.676661 0.771725 0.66305
0.708202 0.787411 0.674083
0.763546 0.805768 0.663844
0.845747 0.826703 0.634363
0.950271 0.843168 0.605142
1 0.853651 0.577203
1 0.8589 0.542336
0.709377 0.804776 0.68304
0.725399 0.822309 0.701106
0.741939 0.836698 0.7149
0.773144 0.852857 0.724483
0.82565 0.870863 0.712444
0.901915 0.889784 0.681239
0.997696 0.903807 0.649927
1 0.913466 0.628
1 0.917952 0.604791
0.188357 0.367819 0.561059
0.199481 0.369238 0.560784
0.219791 0.371542 0.560204
0.274922 0.38677 0.57145
0.387579 0.426703 0.642069
0.599481 0.4907 0.668513
0.891981 0.539101 0.624537
1 0.536187 0.525811
1 0.562753 0.490974
0.182162 0.36231 0.549615
0.194919 0.364569 0.54995
0.215961 0.366918 0.548898
0.271199 0.380621 0.557046
0.383658 0.420874 0.625162
0.587884 0.484291 0.652964
0.860594 0.530541 0.611917
1 0.526268 0.521859
1 0.549767 0.491279
0.167071 0.350607 0.52726
0.181979 0.353399 0.527672
0.20415 0.355138 0.525032
0.257343 0.364599 0.52639
0.366262 0.402548 0.585748
0.558953 0.465019 0.618204
0.808392 0.508492 0.581277
1 0.505898 0.503777
1 0.527047 0.479026
0.141253 0.341176 0.497536
0.161349 0.3458 0.498573
0.18761 0.348424 0.495354
0.241566 0.353262 0.487861
0.343343 0.379446 0.516197
0.51194 0.437705 0.560693
0.727871 0.478309 0.534112
0.90721 0.483589 0.480705
0.97232 0.503929 0.466438
0.115709 0.414542 0.559289
0.151995 0.421729 0.560739
0.192401 0.422873 0.551476
0.265263 0.420798 0.525216
0.380529 0.436988 0.510536
0.514107 0.477287 0.551095
0.704768 0.509438 0.530175
0.84831 0.531258 0.50631
0.911223 0.551781 0.502174
0.208301 0.534203 0.602502
0.240742 0.548043 0.614801
0.275212 0.558618 0.622705
0.331624 0.569528 0.627268
0.43978 0.582757 0.623468
0.588312 0.602289 0.608301
0.742733 0.627955 0.597208
0.855863 0.654582 0.590356
0.915145 0.672297 0.590219
0.426627 0.664591 0.652827
0.443839 0.68188 0.671092
0.463188 0.695689 0.685039
0.50396 0.710536 0.697368
0.588952 0.723674 0.700359
0.70605 0.738674 0.693339
0.825971 0.762417 0.677607
0.950912 0.776486 0.642985
1 0.787915 0.633326
0.58558 0.767926 0.720607
0.601434 0.786404 0.740139
0.617868 0.800885 0.754879
0.652705 0.817075 0.76849
0.715526 0.831693 0.771817
0.808896 0.846448 0.762036
0.912261 0.868101 0.732982
1 0.880796 0.723201
1 0.887236 0.69926
0.658808 0.830884 0.767742
0.674311 0.849256 0.787259
0.6907 0.863798 0.801877
0.723705 0.880232 0.814862
0.776791 0.895857 0.815747
0.866651 0.907271 0.803937
0.961166 0.925917 0.770962
1 0.936614 0.7579
1 0.942138 0.748104
0.267185 0.495583 0.747646
0.275013 0.496056 0.746578
0.289845 0.496849 0.744732
0.329046 0.505287 0.749584
0.43006 0.541283 0.79205
0.584848 0.58262 0.873976
0.794553 0.649943 0.868544
0.967132 0.694682 0.854063
1 0.70132 0.821942
0.2598 0.486198 0.731182
0.268605 0.486961 0.730053
0.283803 0.487465 0.727352
0.32343 0.494224 0.728862
0.422644 0.527291 0.766003
0.572625 0.56849 0.846189
0.770336 0.632319 0.839384
0.928084 0.672862 0.824765
1 0.679377 0.794858
0.243061 0.467308 0.699474
0.252995 0.468071 0.69781
0.268696 0.467704 0.693278
0.307362 0.471031 0.688991
0.402213 0.49836 0.715267
0.543908 0.53994 0.794049
0.727016 0.600107 0.789273
0.869368 0.637217 0.776501
0.964187 0.644511 0.750637
0.212085 0.437415 0.644083
0.225147 0.439643 0.642924
0.243091 0.439597 0.637354
0.28333 0.439841 0.626352
0.375067 0.457282 0.629679
0.498695 0.497307 0.705653
0.662287 0.555322 0.713649
0.788022 0.592065 0.709545
0.8719 0.603235 0.693339
0.195071 0.458198 0.637751
0.21471 0.463539 0.637598
0.238056 0.464714 0.630152
0.293141 0.468498 0.61738
0.391135 0.485618 0.612009
0.505821 0.520424 0.655955
0.647837 0.572824 0.688914
0.763684 0.609918 0.691279
0.843976 0.622812 0.683864
0.206577 0.571496 0.726513
0.23537 0.584268 0.736294
0.267338 0.593133 0.740307
0.329519 0.600732 0.735256
0.454017 0.608316 0.708797
0.585794 0.632166 0.696117
0.702464 0.669917 0.736263
0.817594 0.699077 0.733639
0.89778 0.708629 0.727382
0.331395 0.697536 0.778027
0.354925 0.714794 0.795239
0.379812 0.72842 0.80795
0.429236 0.74435 0.819699
0.521599 0.759564 0.822568
0.64828 0.776959 0.817609
0.784039 0.797131 0.805081
0.89276 0.816052 0.800839
0.950301 0.828916 0.799069
0.476722 0.805798 0.831022
0.494423 0.824155 0.850401
0.513527 0.838911 0.865293
0.553841 0.855268 0.878828
0.628061 0.87013 0.884153
0.733639 0.884474 0.880705
0.862257 0.897292 0.866957
0.954101 0.912428 0.858
1 0.920058 0.843961
0.551064 0.868788 0.873533
0.567102 0.887068 0.892927
0.585336 0.902022 0.908049
0.622995 0.918288 0.921584
0.690089 0.931899 0.926375
0.802502 0.939818 0.918059
0.915663 0.949142 0.903746
0.998383 0.964126 0.882979
1 0.97026 0.882612
0.322179 0.584726 0.87776
0.32845 0.584558 0.87599
0.340429 0.584298 0.87306
0.371908 0.589288 0.874281
0.469612 0.620111 0.897749
0.599741 0.663066 0.978103
0.774639 0.700664 1
0.927367 0.755138 0.99765
1 0.770642 0.994644
0.31368 0.572595 0.857542
0.320531 0.572335 0.855253
0.332647 0.571481 0.851057
0.364385 0.574533 0.848615
0.460014 0.601434 0.865782
0.585077 0.642054 0.942138
0.750942 0.67866 0.983917
0.891554 0.727886 0.956573
0.967132 0.74136 0.952468
0.295201 0.548959 0.819425
0.302739 0.548318 0.816083
0.315007 0.546334 0.809766
0.346075 0.546029 0.801602
0.436286 0.566369 0.808774
0.55407 0.604746 0.879713
0.709026 0.641398 0.919783
0.837476 0.686671 0.895705
0.905898 0.699382 0.892363
0.26006 0.507362 0.748669
0.269718 0.507485 0.745022
0.283436 0.505302 0.737072
0.316365 0.502403 0.722927
0.39968 0.513802 0.716274
0.50695 0.548318 0.775784
0.648417 0.590249 0.824537
0.765225 0.635157 0.81355
0.828458 0.650614 0.816297
0.23473 0.499458 0.704509
0.249607 0.503944 0.704082
0.268086 0.505501 0.698451
0.315938 0.510323 0.689799
0.405249 0.525139 0.684062
0.514351 0.55729 0.715373
0.637781 0.600855 0.784024
0.7476 0.646845 0.787549
0.808698 0.665263 0.796384
0.24712 0.596887 0.785199
0.269383 0.607904 0.792401
0.295308 0.614282 0.791989
0.35906 0.619303 0.778698
0.46923 0.630564 0.758358
0.588815 0.658259 0.758618
0.695476 0.693446 0.809445
0.79498 0.731701 0.829343
0.853834 0.749096 0.838849
0.306142 0.722026 0.866041
0.329625 0.739132 0.882704
0.354894 0.752605 0.894774
0.407752 0.768154 0.905104
0.508019 0.782116 0.903883
0.652857 0.795529 0.882643
0.782712 0.817029 0.864652
0.864836 0.843336 0.894057
0.916381 0.859388 0.898116
0.418235 0.828946 0.919738
0.438071 0.847089 0.938491
0.460197 0.861952 0.953048
0.507134 0.878309 0.965728
0.591501 0.893126 0.969909
0.707073 0.907271 0.964889
0.82797 0.922576 0.955795
0.925185 0.936675 0.945037
0.97821 0.946105 0.94464
0.49308 0.892485 0.956069
0.510704 0.910689 0.97525
0.531334 0.925582 0.990066
0.574487 0.94168 1
0.650568 0.955016 1
0.755734 0.966094 0.999817
0.866957 0.977172 0.988418
0.960159 0.985962 0.977844
1 0.993637 0.971817
0.349966 0.629725 0.94342
0.355657 0.629313 0.941375
0.36643 0.628611 0.937972
0.39469 0.632059 0.937469
0.483833 0.658656 0.957046
0.6112 0.702388 1
0.769162 0.731685 1
0.915236 0.781048 1
0.989715 0.804623 1
0.340871 0.616251 0.92134
0.346944 0.615518 0.918456
0.357687 0.613962 0.913451
0.38613 0.615274 0.909041
0.473762 0.637751 0.921645
0.59501 0.677913 0.989197
0.74464 0.705425 1
0.879881 0.751369 1
0.947524 0.772107 1
0.321462 0.590265 0.879973
0.327962 0.588891 0.875685
0.338674 0.586038 0.868345
0.366445 0.583963 0.858167
0.44921 0.599878 0.860746
0.56257 0.63621 0.921386
0.702602 0.664103 0.978561
0.826886 0.707698 0.956634
0.888609 0.72694 0.945068
0.284108 0.543038 0.801587
0.292256 0.542062 0.796597
0.304173 0.538857 0.787427
0.333898 0.534325 0.771496
0.411673 0.542611 0.7617
0.514534 0.573999 0.810803
0.643473 0.60853 0.875517
0.757824 0.654017 0.866606
0.815946 0.675105 0.863172
0.254124 0.523079 0.741604
0.267231 0.526986 0.740749
0.284138 0.528588 0.735592
0.328939 0.533104 0.727459
0.414588 0.546929 0.72137
0.521675 0.577462 0.746792
0.636194 0.618265 0.822171
0.743038 0.663447 0.835615
0.800412 0.687449 0.840253
0.266835 0.608911 0.809033
0.286305 0.619211 0.815412
0.31078 0.625162 0.814038
0.373053 0.631037 0.801511
0.475975 0.644816 0.787457
0.592477 0.673518 0.791211
0.696941 0.708904 0.837613
0.791043 0.745205 0.875166
0.845853 0.768078 0.880751
0.310719 0.735729 0.905272
0.333059 0.75256 0.921553
0.357885 0.765911 0.933211
0.412329 0.780346 0.941039
0.517449 0.792767 0.934188
0.663615 0.804349 0.904295
0.783246 0.828824 0.895903
0.860594 0.853254 0.933196
0.911086 0.87303 0.941436
0.397787 0.841367 0.966125
0.418143 0.859785 0.985061
0.440558 0.874342 0.999146
0.489265 0.891051 1
0.576104 0.905867 1
0.695583 0.919295 1
0.826825 0.932555 0.992859
0.924483 0.946151 0.974502
0.964141 0.9579 0.989868
0.465919 0.904418 1
0.484489 0.922942 1
0.506065 0.93753 1
0.552117 0.953872 1
0.63241 0.966934 1
0.742275 0.977569 1
0.856962 0.98822 1
0.944808 0.998352 1
0.995193 1 1
