luts/Bat-LogC4.cube
TITLE "Generated by Resolve"
LUT_3D_SIZE 5
0.0249638 0.0301823 0.0204929
0.276509 0.052842 0
0.907317 0.346014 0
1 0.526772 0
1 0.548775 0
0.139971 0.164767 0.0485237
0.283482 0.16939 0
0.775219 0.310506 0
1 0.526848 0
1 0.548852 0
0.489754 0.522988 0.351003
0.543526 0.553414 0.359579
0.779675 0.581979 0.226291
1 0.607889 0.00428779
1 0.616068 0.0177615
0.71487 0.755505 0.541176
0.76199 0.785641 0.543191
0.928557 0.818982 0.472496
1 0.844495 0.379065
1 0.849409 0.363424
0.755657 0.797436 0.57409
0.800046 0.824445 0.572656
0.959869 0.856519 0.505013
1 0.880522 0.42475
1 0.885405 0.408499
0.0483558 0.115496 0.192737
0.197223 0.15555 0.239689
0.879805 0.345251 0
1 0.517433 0
1 0.540215 0
0 0.211749 0.254139
0.207843 0.223972 0.226612
0.728786 0.344121 0.119936
1 0.517464 0
1 0.54023 0
0.47892 0.534966 0.419852
0.539788 0.571496 0.436057
0.771359 0.609522 0.36025
0.992355 0.631586 0.252903
1 0.63856 0.256931
0.716884 0.771038 0.590372
0.765713 0.802823 0.599359
0.932052 0.84152 0.543816
1 0.861982 0.484367
1 0.865278 0.4692
0.758221 0.812604 0.620676
0.804471 0.841337 0.625315
0.963516 0.877653 0.570413
1 0.897826 0.524697
1 0.90042 0.508049
0.198184 0.401785 0.603861
0.275547 0.412314 0.601633
0.678996 0.558373 0.75111
1 0.613214 0.676677
1 0.61001 0.649561
0.161883 0.383276 0.555627
0.254017 0.393271 0.543389
0.575891 0.489479 0.627176
1 0.583719 0.644327
1 0.609934 0.649424
0.263905 0.603952 0.674281
0.376791 0.648096 0.71107
0.67483 0.688487 0.695476
0.895018 0.721813 0.680079
0.927993 0.727993 0.679072
0.586023 0.82649 0.800916
0.648356 0.860807 0.832624
0.856367 0.890349 0.821225
1 0.918135 0.794141
1 0.92137 0.783185
0.637858 0.866987 0.832471
0.696254 0.896452 0.858473
0.88867 0.923751 0.842893
1 0.948867 0.813474
1 0.951873 0.808774
0.253315 0.508202 0.743008
0.305653 0.506859 0.722133
0.55758 0.568994 0.802441
0.848707 0.695705 0.904418
0.968399 0.764813 0.988815
0.241154 0.504234 0.720989
0.305211 0.511284 0.706645
0.555398 0.57113 0.767941
0.773663 0.646754 0.818341
0.816876 0.660075 0.830777
0.268345 0.666239 0.84445
0.369482 0.704479 0.868971
0.680064 0.74345 0.826337
0.846662 0.795239 0.878553
0.876265 0.803113 0.881376
0.43949 0.859907 0.950637
0.529488 0.912703 1
0.775402 0.944778 0.994217
0.95613 0.966812 0.974884
0.979995 0.972625 0.977249
0.486458 0.90135 0.978241
0.568673 0.947082 1
0.801038 0.975311 1
0.970397 0.994995 0.994614
0.999817 0.998581 0.99086
0.258885 0.520897 0.755489
0.309941 0.52192 0.737148
0.5552 0.579232 0.800259
0.792966 0.670207 0.877501
0.857008 0.703502 0.910323
0.250919 0.521782 0.741756
0.312352 0.530098 0.729137
0.561547 0.588998 0.779736
0.764736 0.658717 0.838972
0.800412 0.669764 0.844831
0.279454 0.67808 0.865888
0.374365 0.714656 0.888457
0.68365 0.755245 0.84799
0.846159 0.805783 0.906279
0.875013 0.815717 0.90808
0.425818 0.867445 0.978058
0.515114 0.920287 1
0.767636 0.952911 1
0.95639 0.973007 0.992248
0.977783 0.978683 0.998077
0.463157 0.900877 0.998062
0.551797 0.953399 1
0.792309 0.981826 1
0.965835 1 1
0.995193 1 1
