luts/Bat-LogC4.cube
TITLE "Generated by Resolve"
LUT_3D_SIZE 9
0.0249638 0.0301823 0.0204929
0.0756847 0.0302434 0.00704967
0.276509 0.052842 0
0.586297 0.186938 0
0.907317 0.346014 0
1 0.468513 0
1 0.526772 0
1 0.544091 0
1 0.548775 0
0.0427558 0.0540627 0.022858
0.094316 0.0554055 0
0.270649 0.0732128 0
0.578683 0.193423 0
0.907393 0.345968 0
1 0.468498 0
1 0.526787 0
1 0.544106 0
1 0.548791 0
0.139971 0.164767 0.0485237
0.177569 0.177737 0.0408179
0.283482 0.16939 0
0.500008 0.203296 0
0.775219 0.310506 0
1 0.435904 0
1 0.526848 0
1 0.544167 0
1 0.548852 0
0.319631 0.347875 0.19913
0.343618 0.361776 0.204929
0.383139 0.367361 0.186618
0.51722 0.369299 0.0492561
0.718181 0.381018 0
0.861921 0.425574 0
0.934447 0.453162 0
0.959228 0.463066 0
0.966155 0.465858 0
0.489754 0.522988 0.351003
0.511116 0.538827 0.361608
0.543526 0.553414 0.359579
0.623636 0.567514 0.324361
0.779675 0.581979 0.226291
0.935393 0.594232 0.0398108
1 0.607889 0.00428779
1 0.614328 0.0128176
1 0.616068 0.0177615
0.63122 0.669245 0.472511
0.650553 0.684749 0.481788
0.682826 0.703059 0.479713
0.750027 0.720302 0.459922
0.866529 0.737362 0.397253
1 0.753887 0.324392
1 0.762844 0.267216
1 0.767224 0.256886
1 0.768719 0.25568
0.71487 0.755505 0.541176
0.730343 0.767895 0.547692
0.76199 0.785641 0.543191
0.824186 0.802243 0.526238
0.928557 0.818982 0.472496
1 0.833738 0.414069
1 0.844495 0.379065
1 0.848341 0.365881
1 0.849409 0.363424
0.746365 0.7879 0.566629
0.760281 0.798718 0.571633
0.791363 0.815595 0.565972
0.852018 0.831815 0.549355
0.952697 0.848035 0.497704
1 0.860258 0.436652
1 0.872419 0.414664
1 0.876204 0.401007
1 0.877455 0.398718
0.755657 0.797436 0.57409
0.769177 0.807813 0.578607
0.800046 0.824445 0.572656
0.860258 0.840513 0.556054
0.959869 0.856519 0.505013
1 0.868086 0.443397
1 0.880522 0.42475
1 0.884184 0.410773
1 0.885405 0.408499
0.0300145 0.0437018 0.0531167
0.0551614 0.0474403 0.0618296
0.273625 0.0588388 0.00621042
0.577264 0.192859 0
0.895521 0.351095 0
1 0.468803 0
1 0.523949 0
1 0.541497 0
1 0.546227 0
0.00404364 0.0700847 0.0848096
0.0633707 0.0729534 0.0688334
0.256611 0.0962692 0.0296178
0.563867 0.209674 0
0.895552 0.35111 0
1 0.468818 0
1 0.523964 0
1 0.541512 0
1 0.546242 0
0.1187 0.18056 0.116075
0.164691 0.187716 0.115633
0.264286 0.188159 0.0374762
0.497475 0.214984 0
0.760952 0.322957 0
1 0.441077 0
1 0.52401 0
1 0.541558 0
1 0.546273 0
0.315129 0.35288 0.233448
0.340627 0.367361 0.239734
0.381842 0.375723 0.22118
0.514733 0.381323 0.13048
0.715557 0.393164 0
0.858045 0.43328 0
0.929458 0.459358 0
0.953811 0.469017 0
0.960647 0.471763 0
0.491066 0.527916 0.367315
0.5131 0.544335 0.378058
0.547204 0.560525 0.374441
0.629404 0.576745 0.344457
0.78294 0.591699 0.261784
0.934813 0.601404 0.113649
1 0.614099 0.0807965
1 0.619928 0.0891737
1 0.621805 0.0941787
0.633555 0.672541 0.478294
0.652903 0.688106 0.487617
0.686336 0.707408 0.485573
0.754818 0.725856 0.467781
0.873823 0.746715 0.414893
1 0.761074 0.354482
1 0.768093 0.302083
1 0.771939 0.292363
1 0.773297 0.291127
0.714809 0.755444 0.541146
0.730327 0.76788 0.547692
0.761975 0.785641 0.543206
0.825528 0.803586 0.527657
0.933257 0.824094 0.479805
1 0.841978 0.438056
1 0.849744 0.406638
1 0.852827 0.393683
1 0.85391 0.391363
0.746319 0.787854 0.566613
0.76025 0.798703 0.571633
0.791348 0.81561 0.565988
0.852018 0.83183 0.549386
0.955734 0.851102 0.501503
1 0.869154 0.458366
1 0.878035 0.441169
1 0.880873 0.427619
1 0.881788 0.425071
0.755596 0.797391 0.574075
0.769162 0.807797 0.578607
0.800046 0.824445 0.572671
0.860258 0.840528 0.556069
0.962142 0.858793 0.507713
1 0.876951 0.464103
1 0.886213 0.450935
1 0.888991 0.437217
1 0.889891 0.434714
0.0483558 0.115496 0.192737
0.0771801 0.120806 0.191073
0.197223 0.15555 0.239689
0.558556 0.201709 0.133104
0.879805 0.345251 0
1 0.461738 0
1 0.517433 0
1 0.535332 0
1 0.540215 0
0.0386969 0.12517 0.194568
0.0743572 0.134142 0.195392
0.198825 0.169177 0.237659
0.545052 0.220279 0.153597
0.879835 0.345266 0
1 0.461738 0
1 0.517433 0
1 0.535348 0
1 0.540215 0
0 0.211749 0.254139
0.0458839 0.222904 0.256626
0.207843 0.223972 0.226612
0.454597 0.258412 0.179812
0.728786 0.344121 0.119936
0.999222 0.440467 0.0176242
1 0.517464 0
1 0.535363 0
1 0.54023 0
0.276387 0.365576 0.300114
0.304555 0.381491 0.31136
0.361563 0.387655 0.309804
0.490196 0.402411 0.266209
0.69691 0.419135 0.165667
0.838834 0.456794 0.152911
0.909712 0.4813 0.174594
0.933623 0.49015 0.188602
0.940352 0.492729 0.193637
0.47892 0.534966 0.419852
0.502464 0.552697 0.433967
0.539788 0.571496 0.436057
0.622934 0.592126 0.409674
0.771359 0.609522 0.36025
0.924102 0.619867 0.269245
0.992355 0.631586 0.252903
1 0.636835 0.254887
1 0.63856 0.256931
0.630472 0.684123 0.527062
0.650141 0.70071 0.539879
0.685023 0.721141 0.542626
0.754406 0.742611 0.522667
0.869047 0.762737 0.483589
0.992798 0.775753 0.439841
1 0.781781 0.395834
1 0.785061 0.386572
1 0.786252 0.385168
0.716884 0.771038 0.590372
0.732464 0.783963 0.599496
0.765713 0.802823 0.599359
0.829404 0.822858 0.580667
0.932052 0.84152 0.543816
1 0.85568 0.510292
1 0.861982 0.484367
1 0.864378 0.471778
1 0.865278 0.4692
0.748821 0.803189 0.61387
0.763058 0.814527 0.621012
0.795483 0.83241 0.619318
0.857374 0.851698 0.6009
0.956207 0.869398 0.564385
1 0.882948 0.529366
1 0.889845 0.515785
1 0.89189 0.502144
1 0.892668 0.499519
0.758221 0.812604 0.620676
0.772168 0.823545 0.627222
0.804471 0.841337 0.625315
0.865843 0.860319 0.606851
0.963516 0.877653 0.570413
1 0.890898 0.534997
1 0.897826 0.524697
1 0.899931 0.511101
1 0.90042 0.508049
0.118395 0.263447 0.406912
0.144656 0.267796 0.407889
0.227985 0.291569 0.434684
0.436805 0.357168 0.499763
0.838651 0.391791 0.409186
1 0.470954 0.315358
1 0.520211 0.279255
1 0.536873 0.270451
1 0.541497 0.268711
0.101884 0.257801 0.391775
0.134051 0.263615 0.393362
0.222263 0.283375 0.4056
0.425177 0.354208 0.482841
0.832517 0.396307 0.414481
1 0.470954 0.315282
1 0.520195 0.279194
1 0.536873 0.270375
1 0.541482 0.268635
0.0690929 0.279805 0.399329
0.117769 0.28603 0.396139
0.215045 0.292714 0.379873
0.384115 0.340414 0.428763
0.699947 0.374777 0.375937
0.956161 0.446708 0.333806
1 0.519814 0.284184
1 0.536858 0.2701
1 0.541482 0.26836
0.0797894 0.407645 0.465156
0.159075 0.424216 0.477226
0.261021 0.434333 0.475563
0.431998 0.446921 0.451682
0.637201 0.473884 0.427146
0.795972 0.504005 0.407355
0.879103 0.518502 0.396567
0.908949 0.522148 0.391943
0.917601 0.523095 0.390723
0.416678 0.559777 0.517433
0.44184 0.580438 0.539269
0.487526 0.59913 0.555138
0.585977 0.616693 0.551919
0.728145 0.642786 0.528023
0.885725 0.657023 0.477562
0.955337 0.669184 0.468772
0.978195 0.674556 0.469474
0.984329 0.676173 0.470115
0.582834 0.707134 0.613001
0.602533 0.725628 0.631724
0.643549 0.743618 0.650675
0.726284 0.762173 0.643915
0.838911 0.787106 0.61265
0.958495 0.802548 0.591745
1 0.809003 0.558358
1 0.812238 0.551019
1 0.813321 0.549447
0.676799 0.791409 0.682872
0.693202 0.804822 0.697093
0.732723 0.820462 0.712016
0.803235 0.84126 0.696742
0.904021 0.863416 0.663798
1 0.878126 0.642206
1 0.884779 0.627054
1 0.887083 0.615717
1 0.887892 0.613306
0.711498 0.822385 0.71046
0.72697 0.833738 0.722591
0.763775 0.849409 0.733486
0.831388 0.86981 0.716075
0.928222 0.890578 0.68278
1 0.90457 0.658991
1 0.911452 0.65359
1 0.913314 0.641016
1 0.91397 0.638254
0.721614 0.83154 0.718563
0.736721 0.842512 0.729778
0.772885 0.857984 0.739742
0.839734 0.878248 0.721767
0.935622 0.898711 0.688502
1 0.912062 0.663844
1 0.918944 0.660395
1 0.920821 0.648402
1 0.921492 0.645624
0.198184 0.401785 0.603861
0.214267 0.404318 0.603601
0.275547 0.412314 0.601633
0.420035 0.464729 0.680385
0.678996 0.558373 0.75111
0.953964 0.617365 0.72958
1 0.613214 0.676677
1 0.610697 0.655589
1 0.61001 0.649561
0.185672 0.391028 0.584192
0.203662 0.394003 0.583871
0.264912 0.398871 0.576211
0.402274 0.4448 0.641566
0.643107 0.532906 0.708125
0.953979 0.61735 0.729549
1 0.613214 0.676661
1 0.610681 0.655558
1 0.609995 0.649531
0.161883 0.383276 0.555627
0.185855 0.388434 0.55555
0.254017 0.393271 0.543389
0.381704 0.422095 0.569284
0.575891 0.489479 0.627176
0.79913 0.546715 0.632898
1 0.583719 0.644327
1 0.6094 0.655802
1 0.609934 0.649424
0.14403 0.467735 0.624384
0.187671 0.478325 0.627756
0.284413 0.479728 0.60032
0.433616 0.497673 0.577081
0.58378 0.54139 0.621607
0.74995 0.570169 0.608499
0.854627 0.571069 0.590356
0.889464 0.57055 0.58378
0.899153 0.57026 0.58201
0.263905 0.603952 0.674281
0.305684 0.626657 0.695705
0.376791 0.648096 0.71107
0.507942 0.666224 0.709865
0.67483 0.688487 0.695476
0.820615 0.70927 0.685481
0.895018 0.721813 0.680079
0.920745 0.726604 0.679164
0.927993 0.727993 0.679072
0.469886 0.743801 0.741939
0.493645 0.765393 0.76437
0.541131 0.78761 0.783825
0.646067 0.80351 0.786969
0.787564 0.819287 0.77734
0.902098 0.840589 0.763241
0.984665 0.8486 0.741527
1 0.852125 0.737255
1 0.853315 0.736446
0.586023 0.82649 0.800916
0.603677 0.842618 0.817502
0.648356 0.860807 0.832624
0.738964 0.875074 0.83447
0.856367 0.890349 0.821225
0.95993 0.910262 0.796918
1 0.918135 0.794141
1 0.920531 0.785153
1 0.92137 0.783185
0.626307 0.857771 0.825223
0.642542 0.871229 0.838788
0.685328 0.888106 0.852323
0.770169 0.902007 0.853468
0.881483 0.91632 0.838071
0.980621 0.934585 0.811048
1 0.942107 0.810285
1 0.944503 0.805356
1 0.945205 0.803006
0.637858 0.866987 0.832471
0.654093 0.880049 0.845533
0.696254 0.896452 0.858473
0.778988 0.909789 0.858885
0.88867 0.923751 0.842893
0.986542 0.941512 0.815137
1 0.948867 0.813474
1 0.951232 0.811261
1 0.951873 0.808774
0.240314 0.479927 0.710445
0.248295 0.480949 0.709194
0.297459 0.478202 0.690745
0.413916 0.502312 0.705058
0.58323 0.560632 0.816129
0.813428 0.668315 0.879469
0.990402 0.733623 0.950011
1 0.749493 0.943999
1 0.753948 0.94078
0.233219 0.473533 0.697429
0.24181 0.474952 0.696406
0.292912 0.472953 0.677775
0.409293 0.494377 0.685069
0.569085 0.547677 0.789853
0.772534 0.637552 0.832731
0.982086 0.729091 0.942718
1 0.749508 0.943999
1 0.753948 0.94078
0.218341 0.466346 0.672709
0.229084 0.469062 0.672221
0.288808 0.472358 0.657008
0.411673 0.492241 0.650706
0.551492 0.537194 0.742077
0.710262 0.596246 0.759945
0.819394 0.626398 0.789456
0.868482 0.651743 0.810162
0.885451 0.662806 0.81828
0.215457 0.516686 0.704494
0.233158 0.523278 0.706706
0.315145 0.530159 0.686229
0.448631 0.552163 0.676081
0.581781 0.590387 0.723644
0.7122 0.634455 0.752178
0.788098 0.647837 0.760769
0.806851 0.657313 0.759167
0.813169 0.659449 0.758083
0.24831 0.643244 0.795636
0.277363 0.660105 0.810727
0.359091 0.684535 0.825162
0.512551 0.69865 0.806332
0.675868 0.722042 0.782071
0.784573 0.754131 0.817563
0.849805 0.772213 0.819699
0.878309 0.776974 0.816724
0.886976 0.778027 0.81619
0.379385 0.768063 0.851514
0.41178 0.794842 0.878828
0.474144 0.820478 0.900435
0.590036 0.83946 0.904005
0.735622 0.858061 0.89659
0.863096 0.875517 0.883909
0.933288 0.886107 0.882017
0.958587 0.890333 0.880796
0.965331 0.891371 0.880293
0.484154 0.853849 0.90222
0.508309 0.875227 0.9243
0.560876 0.896956 0.942489
0.659449 0.913893 0.946181
0.789014 0.928801 0.938033
0.912367 0.940337 0.925734
0.97261 0.950195 0.91928
0.999069 0.952972 0.914641
1 0.953902 0.91339
0.521614 0.886748 0.925582
0.543236 0.905211 0.944503
0.592584 0.925002 0.960708
0.68574 0.940551 0.9635
0.81004 0.953613 0.95436
0.931502 0.963272 0.938476
0.991928 0.971984 0.92903
1 0.974853 0.931182
1 0.975387 0.92929
0.531868 0.895933 0.932372
0.552651 0.913268 0.950057
0.601221 0.932555 0.965713
0.693019 0.947723 0.9682
0.816129 0.960616 0.959014
0.937743 0.969909 0.942809
0.997375 0.978225 0.932082
1 0.98085 0.933364
1 0.981689 0.934417
0.253315 0.508202 0.743008
0.255894 0.508461 0.742428
0.305653 0.506859 0.722133
0.421286 0.522469 0.712551
0.55758 0.568994 0.802441
0.719478 0.630182 0.854109
0.848707 0.695705 0.904418
0.933272 0.743923 0.961822
0.968399 0.764813 0.988815
0.249424 0.505241 0.735149
0.252064 0.505531 0.734539
0.30428 0.505959 0.715999
0.420478 0.521675 0.705882
0.55465 0.56669 0.790921
0.708186 0.622354 0.837522
0.817945 0.672953 0.86981
0.879927 0.704845 0.905455
0.904479 0.718303 0.922393
0.241154 0.504234 0.720989
0.244404 0.504814 0.720439
0.305211 0.511284 0.706645
0.424979 0.529305 0.69749
0.555398 0.57113 0.767941
0.693034 0.618204 0.81059
0.773663 0.646754 0.818341
0.806348 0.656794 0.826978
0.816876 0.660075 0.830777
0.242222 0.546868 0.746868
0.248051 0.549157 0.74757
0.329595 0.562966 0.735332
0.46154 0.585672 0.727031
0.593881 0.623255 0.761669
0.712413 0.663127 0.81651
0.780865 0.686168 0.818402
0.804746 0.691737 0.820554
0.811612 0.692958 0.821439
0.268345 0.666239 0.84445
0.281544 0.674998 0.852338
0.369482 0.704479 0.868971
0.527153 0.71696 0.841413
0.680064 0.74345 0.826337
0.782544 0.773053 0.87155
0.846662 0.795239 0.878553
0.869749 0.80174 0.880629
0.876265 0.803113 0.881376
0.356451 0.785885 0.911543
0.379934 0.806043 0.932097
0.45037 0.838041 0.960037
0.573419 0.857511 0.963302
0.731594 0.874342 0.949004
0.863569 0.890379 0.923842
0.915892 0.905043 0.942321
0.93753 0.911574 0.943374
0.943755 0.912734 0.943877
0.43949 0.859907 0.950637
0.468879 0.886915 0.978592
0.529488 0.912703 1
0.638102 0.930266 1
0.775402 0.944778 0.994217
0.8916 0.958495 0.98352
0.95613 0.966812 0.974884
0.974365 0.971206 0.977142
0.979995 0.972625 0.977249
0.478065 0.893324 0.972396
0.504631 0.917586 0.997513
0.562112 0.940932 1
0.66511 0.956588 1
0.796704 0.969253 1
0.9084 0.981262 0.996384
0.966735 0.989044 0.991012
0.988739 0.991714 0.988968
0.994766 0.992844 0.988281
0.486458 0.90135 0.978241
0.512276 0.924498 1
0.568673 0.947082 1
0.670665 0.962768 1
0.801038 0.975311 1
0.91194 0.987243 1
0.970397 0.994995 0.994614
0.993973 0.997208 0.992096
0.999817 0.998581 0.99086
0.257465 0.517662 0.752209
0.257527 0.517708 0.752346
0.308812 0.518059 0.73315
0.423697 0.532509 0.721248
0.555032 0.57615 0.799985
0.701381 0.627054 0.854765
0.802594 0.673747 0.880613
0.855543 0.701823 0.908904
0.875608 0.713161 0.922179
0.254383 0.515953 0.74641
0.254429 0.515969 0.746517
0.308232 0.518364 0.729137
0.424399 0.533623 0.717586
0.554604 0.576272 0.792294
0.696086 0.624491 0.84509
0.787442 0.663279 0.862043
0.830198 0.683314 0.880385
0.845335 0.691035 0.888777
0.248539 0.51751 0.736675
0.248554 0.517479 0.73669
0.310658 0.525551 0.723629
0.431189 0.544121 0.714733
0.559899 0.584619 0.776699
0.690379 0.627939 0.828992
0.766323 0.65568 0.833707
0.794568 0.664485 0.838621
0.80322 0.667124 0.840848
0.251392 0.55903 0.762936
0.252049 0.559167 0.762875
0.334432 0.576074 0.753948
0.467155 0.599115 0.745876
0.600458 0.63653 0.775814
0.713878 0.674083 0.838926
0.781781 0.69868 0.84123
0.804913 0.705333 0.842588
0.81149 0.706966 0.843214
0.276799 0.675273 0.860807
0.28304 0.679118 0.864149
0.373419 0.712383 0.883955
0.531685 0.72517 0.855528
0.682826 0.752407 0.842771
0.784009 0.781979 0.884474
0.846357 0.803418 0.899779
0.868742 0.810956 0.901091
0.875181 0.81297 0.901747
0.353964 0.793362 0.931823
0.370871 0.808301 0.947127
0.445258 0.844358 0.979171
0.571969 0.86421 0.98201
0.735668 0.879805 0.962524
0.864286 0.896498 0.938582
0.914824 0.910338 0.959319
0.935256 0.917174 0.962661
0.941299 0.919203 0.963012
0.428565 0.865415 0.971298
0.454536 0.889647 0.996384
0.518395 0.918456 1
0.629664 0.936538 1
0.769162 0.951019 1
0.889876 0.963867 1
0.956527 0.971481 0.987854
0.973465 0.975875 0.990936
0.978012 0.977127 0.9944
0.460731 0.893645 0.987961
0.489097 0.920653 1
0.549386 0.946212 1
0.655863 0.962585 1
0.790295 0.975128 1
0.903593 0.986603 1
0.963699 0.993896 1
0.986694 0.996429 1
0.991974 0.997543 1
0.468864 0.900801 0.99295
0.496468 0.927016 1
0.556115 0.951904 1
0.661448 0.967773 1
0.795224 0.980331 1
0.908095 0.992004 1
0.96669 0.99971 1
0.988037 1 1
0.99443 1 1
0.258885 0.520897 0.755489
0.258946 0.520928 0.755627
0.309941 0.52192 0.737148
0.424842 0.536217 0.724788
0.5552 0.579232 0.800259
0.69749 0.627649 0.856794
0.792966 0.670207 0.877501
0.839857 0.694102 0.899901
0.857008 0.703502 0.910323
0.256214 0.5196 0.750317
0.256291 0.519631 0.750423
0.309743 0.522606 0.73373
0.42591 0.537789 0.721889
0.5552 0.579782 0.793378
0.69337 0.626108 0.848585
0.781048 0.662547 0.862333
0.819806 0.679744 0.876799
0.833326 0.68632 0.883635
0.250919 0.521782 0.741756
0.250935 0.521752 0.741772
0.312352 0.530098 0.729137
0.433326 0.54902 0.7205
0.561547 0.588998 0.779736
0.690028 0.631403 0.835218
0.764736 0.658717 0.838972
0.792126 0.667277 0.842969
0.800412 0.669764 0.844831
0.254292 0.562966 0.768139
0.254276 0.562905 0.768078
0.336095 0.58027 0.759899
0.469093 0.603525 0.752056
0.602335 0.640558 0.780102
0.714122 0.677348 0.845762
0.782055 0.702327 0.848295
0.805081 0.709194 0.849332
0.811536 0.710857 0.849775
0.279454 0.67808 0.865888
0.283574 0.680323 0.86772
0.374365 0.714656 0.888457
0.533013 0.727794 0.860075
0.68365 0.755245 0.84799
0.784619 0.784894 0.888624
0.846159 0.805783 0.906279
0.868711 0.813657 0.907637
0.875013 0.815717 0.90808
0.353491 0.795727 0.93817
0.368246 0.80882 0.951598
0.443992 0.846387 0.985168
0.571832 0.866255 0.987701
0.737026 0.881254 0.966232
0.864485 0.898436 0.943267
0.914763 0.912352 0.963256
0.934691 0.918761 0.968658
0.940719 0.920867 0.969055
0.425818 0.867445 0.978058
0.450141 0.890288 1
0.515114 0.920287 1
0.627237 0.938521 1
0.767636 0.952911 1
0.890455 0.965316 1
0.95639 0.973007 0.992248
0.973465 0.977432 0.994797
0.977783 0.978683 0.998077
0.456184 0.894621 0.993851
0.484184 0.921431 1
0.545449 0.947951 1
0.652796 0.964477 1
0.787884 0.977005 1
0.901915 0.988357 1
0.96437 0.995132 1
0.98674 0.997681 1
0.991745 0.998917 1
0.463157 0.900877 0.998062
0.491188 0.927596 1
0.551797 0.953399 1
0.657969 0.96936 1
0.792309 0.981826 1
0.905882 0.993606 1
0.965835 1 1
0.98909 1 1
0.995193 1 1
