luts/Bat-CLog2.cube
TITLE "Generated by Resolve"
LUT_3D_SIZE 5
0.0389258 0.0444343 0.0366369
0.163668 0.0511788 0.0107118
0.562142 0.188373 0
1 0.415457 0
1 0.542168 0
0.101671 0.110796 0.0227512
0.19443 0.108095 0
0.512276 0.188128 0
1 0.405264 0
1 0.54052 0
0.338384 0.359121 0.20531
0.365774 0.365957 0.196735
0.506371 0.36875 0.0605783
0.803998 0.394842 0
0.976104 0.445365 0
0.617487 0.644388 0.443549
0.632731 0.651759 0.440406
0.708598 0.669779 0.415702
0.913481 0.690593 0.289052
1 0.697444 0.0193027
0.811902 0.829465 0.572488
0.822171 0.832547 0.570413
0.877028 0.845075 0.550652
1 0.866361 0.467491
1 0.877119 0.372366
0.0463111 0.0817731 0.131807
0.111315 0.0968948 0.166598
0.548531 0.184695 0.0122988
1 0.419608 0
1 0.548684 0
0.00573739 0.139986 0.169253
0.128664 0.143099 0.143267
0.485893 0.2215 0.0601968
1 0.420111 0
1 0.54995 0
0.335851 0.357473 0.204791
0.364141 0.364813 0.196002
0.505348 0.367559 0.058732
0.803723 0.394049 0
0.976455 0.444923 0
0.616648 0.643809 0.443412
0.632013 0.651347 0.440269
0.70811 0.66952 0.415702
0.913268 0.690364 0.288853
1 0.697246 0.0188144
0.81149 0.829297 0.572519
0.821775 0.832441 0.570504
0.876799 0.845029 0.550759
1 0.866361 0.467536
1 0.877119 0.372366
0.129824 0.277958 0.431067
0.174685 0.283604 0.430655
0.40824 0.353567 0.525734
0.990982 0.436423 0.37084
1 0.540963 0.256153
0.108476 0.267643 0.406119
0.165118 0.276509 0.406668
0.39852 0.34966 0.499107
0.991913 0.435233 0.36347
1 0.540642 0.24799
0.0819867 0.397559 0.454643
0.197604 0.415732 0.463828
0.415091 0.430167 0.434745
0.731685 0.479042 0.390524
0.920913 0.513375 0.351781
0.610422 0.639414 0.442039
0.626841 0.648447 0.439979
0.704829 0.667979 0.415839
0.911971 0.688975 0.287572
1 0.695827 0.0154574
0.808225 0.828183 0.5729
0.818936 0.831556 0.571099
0.875074 0.844648 0.551461
1 0.866285 0.467903
1 0.877119 0.372366
0.281804 0.522286 0.787503
0.281804 0.522286 0.787503
0.432654 0.562036 0.81915
0.785031 0.665385 0.917967
1 0.733608 0.88336
0.281514 0.521828 0.786831
0.281514 0.521828 0.786831
0.432746 0.561746 0.818845
0.785245 0.665156 0.917144
1 0.733135 0.882368
0.201663 0.455955 0.64686
0.201678 0.455817 0.646784
0.380179 0.479759 0.623972
0.637446 0.562966 0.713024
0.842893 0.617243 0.721767
0.329244 0.696101 0.774975
0.357229 0.716701 0.79559
0.532891 0.763302 0.823651
0.7841 0.797208 0.805158
0.949264 0.823377 0.795514
0.685405 0.88716 0.845365
0.705196 0.893416 0.849546
0.788785 0.908293 0.849226
0.953079 0.934859 0.809659
1 0.950912 0.792996
0.349264 0.631174 0.946334
0.349264 0.631174 0.946334
0.390326 0.6327 0.940124
0.751064 0.732387 1
0.992508 0.808606 1
0.349264 0.631174 0.946334
0.349264 0.631174 0.946334
0.390753 0.632792 0.940185
0.751156 0.732387 1
0.992523 0.808606 1
0.349264 0.631174 0.946334
0.349264 0.631174 0.946334
0.393698 0.633433 0.940551
0.751797 0.732479 1
0.99266 0.808652 1
0.295674 0.714717 0.890974
0.295644 0.714656 0.890944
0.431281 0.763867 0.924269
0.760784 0.806516 0.880018
0.894911 0.849515 0.927825
0.46154 0.90016 0.998077
0.46154 0.90016 0.998077
0.61503 0.96466 1
0.852354 0.987716 1
0.995193 1 1
