luts/Bat-SLog.cube
TITLE "Generated by Resolve"
LUT_3D_SIZE 33
0.024094 0.0297398 0.0202182
0.0314336 0.0302434 0.018204
0.0407721 0.0301366 0.0162966
0.0530404 0.0302129 0.0129702
0.0689708 0.0301976 0.00848402
0.0882582 0.0301518 0.00303655
0.11191 0.0303655 0
0.140551 0.0317998 0
0.172412 0.0345464 0
0.207507 0.0384833 0
0.245335 0.0447395 0
0.285771 0.0538949 0
0.328679 0.0666514 0
0.373388 0.0830243 0
0.419913 0.10338 0
0.468177 0.127321 0
0.518029 0.151904 0
0.569207 0.177081 0
0.621912 0.200778 0
0.674311 0.226001 0
0.727672 0.251637 0
0.781659 0.277562 0
0.835752 0.303517 0
0.889937 0.329473 0
0.944015 0.355383 0
0.997665 0.381048 0
1 0.406394 0
1 0.431235 0
1 0.455528 0
1 0.478828 0
1 0.500938 0
1 0.521553 0
1 0.54023 0
0.0241245 0.0337835 0.0217899
0.0326085 0.0327916 0.0185245
0.0412604 0.0324712 0.0150912
0.052903 0.0329747 0.0127108
0.0689555 0.0336614 0.00915541
0.0887922 0.0339666 0.00399786
0.112825 0.0343023 0
0.141573 0.0356146 0
0.173663 0.0384527 0
0.208728 0.043183 0
0.246433 0.0501411 0
0.286656 0.0598917 0
0.329473 0.0730755 0
0.37409 0.0899062 0
0.420554 0.11107 0
0.46862 0.134112 0
0.518135 0.157931 0
0.569451 0.181109 0
0.621195 0.204486 0
0.673213 0.229343 0
0.72607 0.254551 0
0.779492 0.280003 0
0.83299 0.305562 0
0.886519 0.331151 0
0.939849 0.356588 0
0.992706 0.381765 0
1 0.406607 0
1 0.430961 0
1 0.45478 0
1 0.477577 0
1 0.499153 0
1 0.519249 0
1 0.537423 0
0.028748 0.0379492 0.0218357
0.0365454 0.0377813 0.0190585
0.0438697 0.037995 0.0147097
0.0574044 0.0366217 0.00956741
0.072343 0.03682 0.00650034
0.0912947 0.0374304 0.00216678
0.114443 0.0381323 0
0.142153 0.0397498 0
0.17348 0.0428016 0
0.208072 0.0478218 0
0.24564 0.0553597 0
0.285664 0.065507 0
0.32813 0.0788434 0
0.372412 0.0957809 0
0.41857 0.116854 0
0.466392 0.139361 0
0.515648 0.162707 0
0.567178 0.182681 0
0.618006 0.206302 0
0.669474 0.230762 0
0.721752 0.255634 0
0.774502 0.280735 0
0.827237 0.305806 0
0.879942 0.330877 0
0.932403 0.35584 0
0.984329 0.380575 0
1 0.404913 0
1 0.428748 0
1 0.451987 0
1 0.474235 0
1 0.495277 0
1 0.514839 0
1 0.532494 0
0.0328832 0.0444648 0.0217594
0.0413062 0.0440375 0.018967
0.0481727 0.0449989 0.0155184
0.0615854 0.0447395 0.00822461
0.0803388 0.0424506 0.00105287
0.0980087 0.0421454 0
0.119097 0.0426337 0
0.144259 0.0442512 0
0.173724 0.0473945 0
0.207019 0.0525521 0
0.243473 0.059968 0
0.282826 0.0702525 0
0.324819 0.0837873 0
0.368612 0.100771 0
0.414237 0.12137 0
0.461585 0.14316 0
0.510643 0.16466 0
0.561837 0.183978 0
0.612421 0.2065 0
0.663142 0.230503 0
0.714687 0.255009 0
0.766613 0.279652 0
0.818448 0.304265 0
0.870222 0.328832 0
0.921675 0.353262 0
0.972564 0.377493 0
1 0.401328 0
1 0.424582 0
1 0.447242 0
1 0.46891 0
1 0.489387 0
1 0.508385 0
1 0.52549 0
0.0399481 0.0513008 0.0230259
0.0472725 0.0519112 0.0187991
0.0542916 0.0534218 0.0157778
0.0658274 0.0540169 0.00984207
0.0848249 0.0529793 0
0.108476 0.0499428 0
0.127489 0.0491646 0
0.149218 0.0500343 0
0.175692 0.0527199 0
0.206561 0.0575265 0
0.241215 0.0647135 0
0.279133 0.0747082 0
0.320043 0.0879988 0
0.363165 0.105058 0
0.408072 0.125032 0
0.454597 0.145876 0
0.503075 0.166293 0
0.553643 0.185 0
0.604608 0.205264 0
0.654536 0.228962 0
0.705104 0.252857 0
0.756054 0.276982 0
0.806882 0.301122 0
0.857588 0.3252 0
0.907942 0.349142 0
0.957641 0.372808 0
1 0.396017 0
1 0.418708 0
1 0.440772 0
1 0.461845 0
1 0.481727 0
1 0.50013 0
1 0.516701 0
0.0468757 0.0600137 0.0229191
0.054612 0.0614633 0.0189517
0.0617685 0.0633402 0.0159915
0.0724498 0.064332 0.0110475
0.0890211 0.0644846 0.00205997
0.113039 0.0627909 0
0.137942 0.0592203 0
0.156893 0.0583047 0
0.180011 0.0596323 0
0.207767 0.0635386 0
0.239902 0.070161 0
0.275792 0.0796674 0
0.31516 0.092607 0
0.356802 0.109133 0
0.400641 0.127993 0
0.446265 0.148104 0
0.493812 0.167941 0
0.543572 0.185931 0
0.594415 0.204486 0
0.644068 0.226352 0
0.693629 0.249805 0
0.743481 0.273396 0
0.793164 0.296941 0
0.842695 0.320531 0
0.891798 0.343893 0
0.940215 0.366934 0
0.987701 0.389548 0
1 0.411597 0
1 0.433051 0
1 0.453529 0
1 0.47277 0
1 0.490593 0
1 0.506615 0
0.054551 0.0699931 0.0225376
0.0626383 0.0719921 0.0189212
0.0702983 0.0745251 0.0161746
0.0806897 0.0759136 0.0121767
0.0957504 0.0766308 0.00437934
0.117174 0.0766155 0
0.141711 0.0742962 0
0.165805 0.0700542 0
0.18645 0.0693828 0
0.211048 0.0715648 0
0.240177 0.0770275 0
0.273472 0.0856641 0
0.310552 0.097673 0
0.350378 0.113329 0
0.39266 0.130938 0
0.436957 0.150027 0
0.483345 0.169665 0
0.532189 0.186892 0
0.581918 0.204654 0
0.63212 0.223194 0
0.680491 0.246036 0
0.729152 0.269078 0
0.777615 0.292149 0
0.825833 0.315022 0
0.87361 0.337728 0
0.920668 0.360143 0
0.966751 0.382132 0
1 0.403555 0
1 0.424369 0
1 0.44419 0
1 0.462837 0
1 0.480079 0
1 0.495567 0
0.0646983 0.0829175 0.0232548
0.0731212 0.0854047 0.0200351
0.0812848 0.0885328 0.0176089
0.0918593 0.0905928 0.014374
0.106126 0.0918593 0.00787366
0.124468 0.092134 0
0.145602 0.0910506 0
0.169009 0.087892 0
0.193973 0.0829328 0
0.21622 0.0827649 0
0.242176 0.0860304 0
0.272465 0.09308 0
0.306859 0.103807 0
0.344457 0.118196 0
0.384833 0.134447 0
0.427543 0.152483 0
0.472007 0.171496 0
0.519722 0.187884 0
0.568383 0.204852 0
0.617655 0.222232 0
0.666178 0.242069 0
0.713542 0.26453 0
0.760632 0.286839 0
0.807462 0.309087 0
0.853834 0.331121 0
0.899474 0.35285 0
0.944076 0.374228 0
0.987396 0.39498 0
1 0.415106 0
1 0.434287 0
1 0.452308 0
1 0.469001 0
1 0.484001 0
0.0786297 0.100175 0.0260624
0.087602 0.103334 0.0234684
0.0963149 0.107073 0.0217441
0.107073 0.109972 0.0186007
0.1205 0.111574 0.0131075
0.135943 0.112413 0.00430304
0.15378 0.112154 0
0.173953 0.110353 0
0.196857 0.106416 0
0.22385 0.100557 0
0.24715 0.100465 0
0.274022 0.104494 0
0.305043 0.112886 0
0.339803 0.124681 0
0.377798 0.139071 0
0.418341 0.155428 0
0.46096 0.173404 0
0.507027 0.189136 0
0.55433 0.205188 0
0.602472 0.22179 0
0.651041 0.238743 0
0.697078 0.260014 0
0.742718 0.281544 0
0.788113 0.303059 0
0.833021 0.324407 0
0.877241 0.345556 0
0.920317 0.366125 0
0.962203 0.386191 0
1 0.405661 0
1 0.424231 0
1 0.441672 0
1 0.457847 0
1 0.472374 0
0.0968795 0.12192 0.0313726
0.106737 0.125658 0.0297551
0.116136 0.129595 0.0288243
0.126253 0.132418 0.0255436
0.137667 0.134051 0.0209659
0.150835 0.135088 0.0133822
0.166018 0.135515 0.00273136
0.1832 0.134951 0
0.20209 0.13286 0
0.226352 0.128862 0
0.254994 0.122774 0
0.279225 0.122927 0
0.306981 0.127489 0
0.338247 0.135775 0
0.372976 0.147173 0
0.410773 0.161166 0
0.450996 0.177111 0
0.495201 0.191333 0
0.540887 0.206226 0
0.587289 0.221668 0
0.634363 0.237644 0
0.680278 0.256001 0
0.724437 0.276738 0
0.768338 0.297414 0
0.811749 0.31809 0
0.854414 0.338399 0
0.896101 0.358312 0
0.936553 0.377691 0
0.975708 0.39649 0
1 0.414481 0
1 0.431388 0
1 0.447044 0
1 0.461173 0
0.120287 0.145724 0.0401617
0.129442 0.149325 0.0390326
0.137987 0.153368 0.0389715
0.147402 0.156588 0.0357519
0.157488 0.158389 0.0322118
0.168856 0.159594 0.0258183
0.181781 0.160281 0.0165866
0.196201 0.160159 0.00422675
0.212238 0.159167 0
0.231449 0.157015 0
0.257389 0.153033 0
0.287572 0.147326 0
0.312612 0.147677 0
0.34052 0.152193 0
0.371771 0.16025 0
0.406241 0.171283 0
0.444434 0.183978 0
0.486381 0.196338 0
0.529686 0.209598 0
0.574014 0.223606 0
0.61915 0.238254 0
0.664302 0.25388 0
0.706783 0.273518 0
0.749004 0.293156 0
0.790814 0.312734 0
0.831952 0.332128 0
0.87219 0.351247 0
0.911254 0.369909 0
0.949035 0.388144 0
0.984939 0.405463 0
1 0.421836 0
1 0.437064 0
1 0.450858 0
0.145205 0.170947 0.0525673
0.153628 0.174624 0.0522469
0.161532 0.178653 0.0529641
0.17023 0.18201 0.0500649
0.179568 0.184314 0.047425
0.189502 0.185641 0.0422217
0.200443 0.186343 0.0341039
0.212604 0.18645 0.023209
0.226123 0.185992 0.00961318
0.241459 0.184909 0
0.262501 0.183093 0
0.289967 0.179217 0
0.321187 0.173404 0
0.346578 0.173968 0
0.374609 0.178485 0
0.406332 0.186038 0
0.442741 0.194553 0
0.481422 0.204654 0
0.522011 0.216068 0
0.563943 0.228443 0
0.606851 0.241566 0
0.650446 0.255329 0
0.691035 0.27332 0
0.731517 0.291615 0
0.771679 0.310033 0
0.811246 0.328359 0
0.850004 0.346502 0
0.887709 0.364416 0
0.924254 0.381811 0
0.95903 0.398505 0
0.991699 0.414313 0
1 0.42916 0
1 0.442771 0
0.171145 0.197284 0.0689403
0.179065 0.201129 0.0696422
0.186557 0.205249 0.0713817
0.194766 0.208789 0.0697032
0.203082 0.211124 0.066453
0.211902 0.212604 0.0624399
0.2215 0.213535 0.0558022
0.231907 0.213886 0.0464332
0.243336 0.213733 0.0345464
0.255924 0.21323 0.0205386
0.272389 0.212177 0.0012665
0.29482 0.210361 0
0.32372 0.206592 0
0.355642 0.201129 0
0.383474 0.201236 0
0.413596 0.204196 0
0.446418 0.209705 0
0.481697 0.217212 0
0.519081 0.226337 0
0.558251 0.23682 0
0.598764 0.248295 0
0.63949 0.260914 0
0.678096 0.276997 0
0.716731 0.29366 0
0.755199 0.310674 0
0.793256 0.327916 0
0.830594 0.345022 0
0.867063 0.361883 0
0.90248 0.378439 0
0.936309 0.394461 0
0.9682 0.409766 0
0.997772 0.424262 0
1 0.437522 0
0.197971 0.224552 0.0899825
0.20557 0.228626 0.0919356
0.212757 0.232853 0.0948043
0.220249 0.236301 0.0939193
0.227955 0.23888 0.0903029
0.235813 0.240421 0.0873274
0.244251 0.241443 0.0819409
0.253559 0.242252 0.0745861
0.263325 0.242359 0.0643931
0.273884 0.241978 0.0518044
0.286656 0.24126 0.0356756
0.304555 0.24036 0.013489
0.328252 0.238834 0
0.357717 0.235996 0
0.392691 0.230594 0
0.425727 0.227665 0
0.45565 0.229862 0
0.4878 0.234501 0
0.522103 0.241154 0
0.558236 0.249393 0
0.595697 0.258778 0
0.632288 0.271366 0
0.668925 0.285344 0
0.70573 0.300114 0
0.742596 0.315602 0
0.77911 0.33138 0
0.815076 0.347234 0
0.850278 0.363043 0
0.884642 0.378683 0
0.917571 0.393942 0
0.948806 0.408774 0
0.977905 0.422736 0
1 0.435706 0
0.225711 0.252811 0.115343
0.232685 0.256718 0.117632
0.239445 0.260884 0.120867
0.246494 0.264347 0.12105
0.253758 0.26717 0.118257
0.26096 0.26894 0.116121
0.268528 0.27013 0.112398
0.276356 0.270634 0.106111
0.284764 0.270848 0.097673
0.293812 0.270741 0.0868238
0.304128 0.270344 0.0737316
0.318547 0.269947 0.055436
0.338064 0.269627 0.0316167
0.362493 0.26862 0.00233463
0.392264 0.266285 0
0.427955 0.261799 0
0.461753 0.259312 0
0.494881 0.259892 0
0.527687 0.26305 0
0.560861 0.268894 0
0.594659 0.276997 0
0.629114 0.287007 0
0.663951 0.298634 0
0.699123 0.311498 0
0.734249 0.325017 0
0.769207 0.339086 0
0.80383 0.353506 0
0.837858 0.368109 0
0.871275 0.382864 0
0.903441 0.39736 0
0.933989 0.411353 0
0.962661 0.424765 0
0.988907 0.4374 0
0.253635 0.281315 0.140764
0.260304 0.285267 0.143572
0.266773 0.289464 0.147143
0.27335 0.292882 0.147982
0.279927 0.295521 0.145815
0.286473 0.297444 0.143023
0.293141 0.298558 0.140429
0.300145 0.299245 0.136248
0.307576 0.299596 0.13051
0.31548 0.299702 0.123247
0.324361 0.299825 0.114549
0.336248 0.299794 0.100618
0.352255 0.299748 0.0799268
0.372717 0.299641 0.0542916
0.397833 0.299107 0.0243534
0.427909 0.297444 0
0.464256 0.294118 0
0.498436 0.292165 0
0.531441 0.292515 0
0.56405 0.295369 0
0.59678 0.300557 0
0.629847 0.307881 0
0.663188 0.317037 0
0.696651 0.327413 0
0.730266 0.338903 0
0.763867 0.351232 0
0.797223 0.364111 0
0.830198 0.377462 0
0.862669 0.391043 0
0.894011 0.404501 0
0.923995 0.417731 0
0.95227 0.430549 0
0.978332 0.442741 0
0.281788 0.310063 0.166491
0.288151 0.314031 0.16965
0.293873 0.317815 0.172564
0.299931 0.321096 0.173434
0.30602 0.32372 0.172076
0.31223 0.325872 0.168994
0.318395 0.327153 0.167575
0.324834 0.328069 0.164965
0.331548 0.328634 0.161135
0.33872 0.329137 0.156481
0.346212 0.329244 0.150301
0.356298 0.329442 0.141131
0.369879 0.329763 0.127535
0.387274 0.330175 0.108309
0.408804 0.33048 0.081529
0.434669 0.330694 0.0518044
0.464973 0.32958 0.0173495
0.501305 0.326757 0
0.535653 0.325338 0
0.568719 0.325841 0
0.601465 0.32874 0
0.633753 0.33341 0
0.665934 0.339895 0
0.698207 0.347936 0
0.730556 0.35729 0
0.762982 0.367758 0
0.795392 0.379202 0
0.827283 0.390997 0
0.858763 0.403174 0
0.889357 0.415518 0
0.918776 0.427863 0
0.946777 0.440101 0
0.972763 0.451896 0
0.309575 0.338537 0.191592
0.315129 0.342031 0.194034
0.320897 0.346059 0.197452
0.326619 0.34931 0.198703
0.332448 0.352026 0.198123
0.338323 0.354299 0.195987
0.344167 0.355917 0.194186
0.350256 0.357137 0.192859
0.356466 0.358022 0.190509
0.362844 0.358557 0.187152
0.369497 0.358846 0.182864
0.378286 0.359228 0.176379
0.390051 0.359762 0.166827
0.405371 0.360769 0.15407
0.424109 0.361639 0.136355
0.44654 0.362371 0.112871
0.472557 0.362737 0.0830396
0.503075 0.362081 0.047364
0.539422 0.359945 0
0.574105 0.359335 0
0.607263 0.359976 0
0.639612 0.362417 0
0.671427 0.366674 0
0.703059 0.372549 0
0.734615 0.379873 0
0.766262 0.388586 0
0.797559 0.398047 0
0.828595 0.408316 0
0.859312 0.41915 0
0.88925 0.430335 0
0.918196 0.441764 0
0.945876 0.453223 0
0.971588 0.464302 0
0.336873 0.366583 0.2159
0.342458 0.370336 0.218845
0.34789 0.374228 0.222187
0.353414 0.377539 0.223835
0.35903 0.380362 0.223911
0.364691 0.382788 0.22266
0.370504 0.384939 0.220615
0.37612 0.386282 0.219974
0.381811 0.387259 0.218448
0.387717 0.388006 0.216251
0.39382 0.388586 0.213336
0.40174 0.389181 0.208667
0.41239 0.390112 0.201877
0.425772 0.391135 0.192264
0.442298 0.392309 0.179355
0.462181 0.393561 0.162661
0.48539 0.394659 0.141726
0.511681 0.395407 0.116747
0.542718 0.395453 0.0810712
0.578973 0.393927 0.0229953
0.613489 0.393408 0
0.646647 0.394232 0
0.678752 0.396612 0
0.710552 0.400839 0
0.741726 0.406226 0
0.772656 0.412863 0
0.803311 0.4206 0
0.833677 0.429252 0
0.863767 0.438697 0
0.893385 0.448905 0
0.921828 0.45919 0
0.94902 0.469596 0
0.974502 0.479957 0
0.364202 0.394705 0.240284
0.369574 0.398428 0.243351
0.374975 0.402457 0.246937
0.380392 0.405875 0.248951
0.385794 0.40882 0.249516
0.39147 0.411582 0.249195
0.396979 0.413825 0.247517
0.40238 0.415488 0.246448
0.407752 0.416678 0.245686
0.41326 0.417609 0.244297
0.419074 0.418524 0.242481
0.426535 0.419486 0.239216
0.436103 0.420462 0.23389
0.448157 0.421653 0.226459
0.462974 0.423026 0.216526
0.480766 0.424567 0.203738
0.501884 0.426383 0.188128
0.525795 0.427878 0.169162
0.5523 0.428992 0.147662
0.583291 0.429084 0.115572
0.619486 0.428016 0.0547189
0.653986 0.427863 0.00178531
0.687282 0.429206 0
0.71928 0.43154 0
0.750591 0.435218 0
0.781399 0.440192 0
0.81181 0.446326 0
0.841794 0.453452 0
0.871717 0.461707 0
0.900664 0.470375 0
0.92874 0.47953 0
0.955657 0.489021 0
0.980987 0.498604 0
0.39144 0.422736 0.264591
0.396735 0.426566 0.267826
0.402075 0.430686 0.271565
0.407492 0.434318 0.273991
0.41297 0.437568 0.275227
0.418296 0.440269 0.275181
0.423621 0.442634 0.274144
0.428946 0.444739 0.272419
0.434134 0.446174 0.272282
0.43949 0.447486 0.271717
0.445029 0.448615 0.270573
0.451987 0.449683 0.268025
0.460945 0.450874 0.26389
0.472068 0.452308 0.258076
0.485618 0.453895 0.250187
0.501991 0.455833 0.240208
0.521004 0.457786 0.227573
0.542748 0.459663 0.212268
0.567132 0.461402 0.194568
0.593805 0.462821 0.175402
0.625193 0.463157 0.145403
0.661524 0.462791 0.0886244
0.695827 0.462989 0.0320134
0.728771 0.464195 0
0.760678 0.466529 0
0.791791 0.470024 0
0.822553 0.474968 0
0.852491 0.48069 0
0.881971 0.487297 0
0.910689 0.494697 0
0.938521 0.502724 0
0.96524 0.511223 0
0.990753 0.520287 0
0.418647 0.450767 0.288869
0.423911 0.454719 0.292287
0.429267 0.458991 0.296193
0.434745 0.462867 0.29897
0.440024 0.466133 0.30042
0.445304 0.469047 0.300893
0.450507 0.471611 0.300435
0.455711 0.473899 0.299138
0.461067 0.476005 0.298604
0.466148 0.477455 0.298451
0.471489 0.478737 0.297734
0.478233 0.480049 0.295827
0.486732 0.481437 0.292546
0.497292 0.483146 0.287984
0.510063 0.4851 0.281727
0.525002 0.487068 0.273396
0.542397 0.489158 0.262913
0.562341 0.49131 0.250187
0.584802 0.493431 0.235279
0.609842 0.495613 0.218799
0.636866 0.497368 0.201328
0.668666 0.497902 0.172137
0.704356 0.497627 0.121218
0.738537 0.498085 0.0625467
0.77142 0.499428 0.00991836
0.803479 0.502068 0
0.834424 0.505486 0
0.864561 0.50988 0
0.894118 0.515236 0
0.922835 0.521447 0
0.950607 0.528374 0
0.977554 0.536171 0
1 0.544091 0
0.445838 0.478813 0.313054
0.451362 0.483162 0.316899
0.456718 0.487556 0.320912
0.462013 0.491432 0.32372
0.467277 0.494865 0.32546
0.47248 0.497963 0.326329
0.477714 0.500786 0.326421
0.483085 0.503487 0.325933
0.488197 0.50576 0.324514
0.493141 0.507469 0.324544
0.498466 0.50901 0.324224
0.505165 0.510597 0.322866
0.513466 0.512322 0.320378
0.523568 0.51426 0.316686
0.535424 0.516213 0.311345
0.549371 0.518349 0.304372
0.56556 0.520638 0.295552
0.584039 0.523003 0.284779
0.605035 0.525567 0.27216
0.628275 0.528008 0.257649
0.653544 0.530159 0.241566
0.680598 0.532021 0.225132
0.712734 0.532738 0.196124
0.748226 0.532769 0.148882
0.782589 0.533745 0.0942245
0.815335 0.535225 0.0374456
0.846967 0.537606 0
0.877623 0.540917 0
0.907485 0.545129 0
0.93669 0.550469 0
0.964614 0.556405 0
0.991302 0.562966 0
1 0.570031 0
0.473381 0.50724 0.337469
0.478706 0.511528 0.341207
0.484138 0.516106 0.345327
0.489494 0.520195 0.348379
0.494789 0.523827 0.350423
0.499977 0.527138 0.351629
0.505379 0.530327 0.352316
0.510491 0.533059 0.352071
0.515602 0.535561 0.351217
0.520607 0.537743 0.350347
0.526024 0.539528 0.350286
0.532921 0.541588 0.349569
0.540948 0.54345 0.347509
0.55053 0.545434 0.34432
0.561807 0.547555 0.339818
0.574945 0.549813 0.333867
0.590204 0.552316 0.326375
0.607706 0.555062 0.317266
0.627146 0.557656 0.306172
0.648737 0.56025 0.293278
0.67245 0.562707 0.278737
0.698054 0.564996 0.263111
0.725307 0.567224 0.247822
0.758022 0.568185 0.218463
0.793301 0.56846 0.173663
0.827146 0.569314 0.123461
0.859724 0.570916 0.0648814
0.891127 0.573327 0.0113527
0.921828 0.576806 0
0.951217 0.580972 0
0.979355 0.58587 0
1 0.591501 0
1 0.597772 0
0.500862 0.535683 0.361654
0.506264 0.540154 0.365515
0.511742 0.5449 0.369726
0.517159 0.549172 0.372946
0.522744 0.553262 0.375509
0.527993 0.556786 0.37702
0.533165 0.55996 0.377813
0.538277 0.56289 0.377966
0.543374 0.565591 0.377523
0.548424 0.568124 0.376562
0.554314 0.570565 0.376242
0.560967 0.572595 0.37557
0.568856 0.574624 0.373922
0.578149 0.576806 0.371267
0.588983 0.57908 0.367437
0.601587 0.581552 0.362371
0.616144 0.584298 0.355962
0.632395 0.586938 0.347814
0.650645 0.589685 0.338033
0.670939 0.592462 0.326589
0.693248 0.595163 0.313451
0.717632 0.597894 0.299077
0.743603 0.600473 0.284077
0.770748 0.602655 0.269184
0.803723 0.60354 0.238773
0.838773 0.604013 0.195605
0.872389 0.605035 0.148302
0.905028 0.607034 0.0932631
0.936202 0.609461 0.0356756
0.966033 0.612711 0
0.994522 0.616754 0
1 0.621546 0
1 0.627253 0
0.528527 0.56434 0.385809
0.534035 0.569055 0.389822
0.539635 0.573983 0.394156
0.545342 0.578683 0.397757
0.550744 0.582742 0.400275
0.556054 0.586465 0.402075
0.561273 0.589899 0.403189
0.56643 0.593027 0.403677
0.571496 0.595911 0.403601
0.576883 0.598871 0.403174
0.582818 0.601541 0.401663
0.589517 0.6038 0.401282
0.597314 0.606043 0.399939
0.606363 0.608362 0.397711
0.617121 0.611063 0.394644
0.629129 0.613596 0.390143
0.642786 0.61622 0.38436
0.658183 0.618982 0.377127
0.67541 0.621805 0.368399
0.694621 0.62475 0.358175
0.715953 0.627863 0.346471
0.738888 0.630671 0.33312
0.763439 0.633356 0.318715
0.789456 0.635843 0.303792
0.816648 0.638117 0.289311
0.850141 0.639139 0.257832
0.885039 0.639963 0.21622
0.918242 0.641138 0.171435
0.950164 0.642908 0.120943
0.980591 0.645426 0.0630655
1 0.648707 0.011429
1 0.652949 0
1 0.657832 0
0.556405 0.593286 0.409979
0.562173 0.598352 0.414267
0.567987 0.603586 0.418784
0.573587 0.60827 0.422339
0.579049 0.612528 0.42504
0.584421 0.616449 0.42707
0.589685 0.620081 0.428443
0.595102 0.623636 0.429465
0.600229 0.626764 0.42974
0.605539 0.629694 0.429236
0.611612 0.632654 0.427436
0.618418 0.635233 0.426657
0.626184 0.637659 0.425635
0.635386 0.640406 0.424002
0.645533 0.642939 0.421103
0.657069 0.645563 0.417136
0.670146 0.64828 0.411963
0.68481 0.651102 0.405493
0.701244 0.654047 0.397665
0.719661 0.657267 0.38854
0.739605 0.660227 0.377676
0.761349 0.663172 0.365347
0.78471 0.666041 0.351843
0.809583 0.668742 0.337453
0.835859 0.671382 0.322881
0.863188 0.673884 0.309102
0.896773 0.674769 0.276356
0.930922 0.675563 0.236027
0.963653 0.676844 0.193332
0.994766 0.678767 0.147478
1 0.681712 0.0957351
1 0.685069 0.0431983
1 0.689174 0
0.584741 0.622736 0.434379
0.590539 0.627939 0.438697
0.596384 0.633265 0.443229
0.60209 0.638163 0.446906
0.60766 0.642649 0.449805
0.613123 0.646754 0.452049
0.618616 0.650782 0.453849
0.62388 0.654353 0.454932
0.629023 0.657618 0.455482
