luts/Bat-DLog.cube
TITLE "Generated by Resolve"
LUT_3D_SIZE 33
0.029221 0.0315709 0.0206455
0.032166 0.0318914 0.0201419
0.0379034 0.032166 0.0193332
0.0463874 0.0322728 0.0171359
0.0565957 0.0328069 0.0148165
0.0679179 0.033402 0.0122225
0.0817884 0.0340581 0.00895705
0.0996567 0.0348363 0.00460822
0.124956 0.0354314 0
0.155718 0.0377661 0
0.19237 0.0424811 0
0.23444 0.0503243 0
0.282261 0.0628061 0
0.334783 0.0812085 0
0.391012 0.1066 0
0.449302 0.136919 0
0.508934 0.16669 0
0.56939 0.192554 0
0.62652 0.218616 0
0.678141 0.245457 0
0.724605 0.270191 0
0.764401 0.292287 0
0.797543 0.311894 0
0.824842 0.329564 0
0.84741 0.346105 0
0.866987 0.362219 0
0.884565 0.377798 0
0.900587 0.392721 0
0.915465 0.40676 0
0.928756 0.419638 0
0.940734 0.431098 0
0.951156 0.441184 0
0.959823 0.449424 0
0.0289616 0.0346075 0.0217899
0.0336004 0.0346685 0.0205997
0.0405127 0.0347906 0.0180209
0.0496529 0.0346838 0.0151217
0.0598917 0.0348669 0.0123445
0.0698405 0.0356909 0.0105135
0.0834821 0.0364538 0.0074464
0.101396 0.0370184 0.00274662
0.126421 0.0383307 0
0.156771 0.0410163 0
0.192844 0.0458991 0
0.234531 0.0542611 0
0.281575 0.0668803 0
0.332921 0.0851453 0
0.388052 0.110491 0
0.445182 0.139437 0
0.504005 0.167819 0
0.563638 0.192966 0
0.621103 0.217502 0
0.672511 0.243885 0
0.719142 0.268635 0
0.759243 0.290867 0
0.792935 0.310689 0
0.820996 0.328756 0
0.844404 0.34583 0
0.86453 0.362036 0
0.882719 0.377874 0
0.899275 0.393042 0
0.914611 0.407309 0
0.928191 0.420264 0
0.940383 0.431769 0
0.950774 0.441672 0
0.959716 0.450141 0
0.0336767 0.0386053 0.0218967
0.0377508 0.0387884 0.0205081
0.0438239 0.0392462 0.0171054
0.0548867 0.0383154 0.0115816
0.0639506 0.0382849 0.010071
0.074403 0.0387121 0.0077821
0.0878157 0.0393378 0.00466926
0.105272 0.0399939 0.00015259
0.128939 0.0413062 0
0.15816 0.0442664 0
0.193271 0.049485 0
0.233738 0.0577096 0
0.280079 0.0706645 0
0.330404 0.0886091 0
0.384558 0.113375 0
0.440864 0.141207 0
0.499184 0.168887 0
0.558282 0.193393 0
0.615549 0.217441 0
0.667369 0.242527 0
0.713909 0.26714 0
0.754345 0.28957 0
0.788525 0.30956 0
0.817365 0.328191 0
0.841352 0.345403 0
0.862409 0.362173 0
0.881209 0.378256 0
0.898207 0.3935 0
0.913817 0.407874 0
0.927764 0.420966 0
0.940047 0.432456 0
0.950576 0.442374 0
0.959655 0.450874 0
0.0383459 0.0430762 0.0219425
0.0424811 0.0440681 0.0198825
0.0485847 0.0447852 0.0166476
0.0584573 0.0448615 0.0112612
0.071809 0.0434424 0.00447089
0.0822309 0.0429084 0.00257877
0.0950942 0.043122 0
0.11223 0.0437629 0
0.13341 0.0450752 0
0.160678 0.0478676 0
0.194018 0.0528878 0
0.233249 0.0611734 0
0.278294 0.0737469 0
0.327871 0.0915236 0
0.381003 0.11574 0
0.436774 0.142916 0
0.494148 0.169757 0
0.553109 0.19379 0
0.609888 0.217319 0
0.662379 0.241245 0
0.709026 0.265812 0
0.749706 0.288304 0
0.78439 0.30869 0
0.813703 0.327459 0
0.838621 0.345312 0
0.860227 0.362264 0
0.879606 0.378576 0
0.897063 0.393988 0
0.913115 0.408499 0
0.927199 0.421439 0
0.939895 0.433234 0
0.950423 0.443091 0
0.959701 0.451652 0
0.0432136 0.0484932 0.0212863
0.0475319 0.0497749 0.0190738
0.0535897 0.0505379 0.0159915
0.0629282 0.0510109 0.0109865
0.0748302 0.0506752 0.00459297
0.0898604 0.0491188 0
0.103716 0.0482643 0
0.119921 0.048249 0
0.138827 0.049012 0
0.16405 0.0514992 0
0.195438 0.0564584 0
0.233112 0.0643015 0
0.27686 0.0765545 0
0.325246 0.0941176 0
0.377676 0.117861 0
0.432746 0.144183 0
0.489448 0.170642 0
0.547967 0.19411 0
0.604807 0.217273 0
0.657572 0.240009 0
0.704417 0.264759 0
0.745251 0.287114 0
0.780514 0.307851 0
0.810452 0.327092 0
0.835859 0.345083 0
0.858091 0.362249 0
0.878202 0.378851 0
0.89601 0.394507 0
0.912367 0.408957 0
0.926726 0.42211 0
0.939452 0.433722 0
0.950423 0.44387 0
0.95964 0.452384 0
0.0480354 0.0540169 0.0203098
0.0527657 0.0556191 0.0181582
0.0592508 0.0567483 0.0155337
0.0682841 0.0574044 0.0108949
0.0793011 0.057435 0.00477607
0.0926223 0.0567941 0
0.111788 0.0545357 0
0.127687 0.0536202 0
0.14519 0.0538338 0
0.168124 0.0556802 0
0.197436 0.0598764 0
0.233555 0.0676738 0
0.275547 0.0795758 0
0.323049 0.0968795 0
0.374472 0.119921 0
0.428656 0.145312 0
0.485084 0.171557 0
0.543008 0.194461 0
0.599603 0.217197 0
0.652995 0.239033 0
0.699733 0.263569 0
0.740932 0.286198 0
0.776562 0.307057 0
0.807218 0.32668 0
0.833295 0.345052 0
0.856184 0.362554 0
0.876707 0.379263 0
0.895018 0.394965 0
0.91165 0.409613 0
0.926284 0.422812 0
0.939162 0.434455 0
0.950286 0.444633 0
0.959396 0.452918 0
0.0543984 0.061387 0.0194858
0.0594492 0.0631266 0.0172122
0.0660258 0.0641947 0.0146181
0.0751049 0.065095 0.0102693
0.0854353 0.0655375 0.00483711
0.0979171 0.0655375 0
0.115114 0.0644999 0
0.136446 0.0616312 0
0.153017 0.0606546 0
0.173892 0.0615702 0
0.200961 0.0652171 0
0.234607 0.0721752 0
0.274632 0.0835737 0
0.320653 0.100267 0
0.370794 0.122286 0
0.424201 0.147051 0
0.479301 0.172549 0
0.537285 0.19498 0
0.593393 0.217151 0
0.646754 0.238605 0
0.69424 0.262394 0
0.735607 0.285084 0
0.771893 0.306401 0
0.803235 0.326406 0
0.830198 0.34519 0
0.853849 0.363012 0
0.874876 0.379843 0
0.893736 0.395712 0
0.910933 0.410544 0
0.925917 0.423819 0
0.938949 0.435462 0
0.950027 0.445487 0
0.95935 0.453895 0
0.0622568 0.070573 0.0186465
0.0681163 0.0727398 0.0165713
0.0750744 0.0740826 0.014313
0.0838941 0.0750286 0.0102083
0.093904 0.0757458 0.00517281
0.105165 0.0759594 0
0.120806 0.0757916 0
0.139681 0.0744488 0
0.162036 0.0710918 0
0.181338 0.0704814 0
0.205921 0.0726177 0
0.236973 0.0785534 0
0.274479 0.0889143 0
0.318074 0.104448 0
0.366644 0.125414 0
0.418723 0.14902 0
0.472953 0.173999 0
0.529961 0.195575 0
0.585946 0.217182 0
0.639231 0.238148 0
0.687327 0.26099 0
0.729397 0.284199 0
0.766339 0.305867 0
0.798352 0.326101 0
0.826276 0.345312 0
0.850767 0.363424 0
0.87274 0.380621 0
0.892378 0.396826 0
0.909804 0.411536 0
0.925109 0.424857 0
0.938659 0.43679 0
0.949889 0.446754 0
0.959487 0.455268 0
0.0729534 0.0830854 0.0191348
0.0794842 0.0854963 0.0167697
0.0869764 0.0870527 0.0146181
0.095964 0.088426 0.0111391
0.105516 0.0892042 0.00643931
0.116075 0.0897688 0.00111391
0.129335 0.0898909 0
0.14583 0.08925 0
0.165743 0.0874189 0
0.190204 0.0834669 0
0.212665 0.0834211 0
0.240772 0.0872663 0
0.275273 0.0960861 0
0.316182 0.11078 0
0.362402 0.129458 0
0.412711 0.151644 0
0.465492 0.175753 0
0.521859 0.19649 0
0.576959 0.217304 0
0.63061 0.23801 0
0.679347 0.259983 0
0.72192 0.283452 0
0.75967 0.305562 0
0.792782 0.326299 0
0.82179 0.345846 0
0.847303 0.364324 0
0.870298 0.381979 0
0.89044 0.398108 0
0.908812 0.41323 0
0.924559 0.426612 0
0.938216 0.438346 0
0.949813 0.448524 0
0.959518 0.457023 0
0.0894636 0.101778 0.021973
0.0967575 0.104494 0.0195621
0.10486 0.106172 0.0172732
0.113909 0.107652 0.0141299
0.122438 0.108812 0.00994888
0.131319 0.109682 0.00527962
0.142367 0.110094 0
0.156298 0.110018 0
0.173541 0.109209 0
0.19443 0.106569 0
0.2224 0.101686 0
0.247761 0.102617 0
0.278813 0.108614 0
0.316106 0.120195 0
0.359319 0.136599 0
0.406775 0.156222 0
0.457862 0.178759 0
0.513191 0.198428 0
0.568048 0.218601 0
0.621225 0.238727 0
0.670604 0.259922 0
0.713726 0.283497 0
0.752285 0.305959 0
0.786313 0.327031 0
0.816648 0.347021 0
0.843381 0.36582 0
0.867445 0.383764 0
0.888563 0.400259 0
0.90753 0.41532 0
0.923781 0.428779 0
0.937942 0.440711 0
0.949706 0.45066 0
0.959594 0.459174 0
0.113848 0.127321 0.0280156
0.121309 0.129793 0.0255283
0.129122 0.131533 0.0235904
0.136492 0.132601 0.0203861
0.143709 0.133669 0.0170138
0.150988 0.134249 0.0124971
0.16022 0.135027 0.00669871
0.17171 0.135332 0
0.185992 0.135134 0
0.203372 0.134234 0
0.227222 0.131701 0
0.258381 0.126818 0
0.286473 0.128527 0
0.319677 0.135637 0
0.358892 0.148318 0
0.403098 0.165164 0
0.452155 0.184451 0
0.505699 0.202655 0
0.559426 0.221668 0
0.612009 0.241016 0
0.661524 0.261418 0
0.705043 0.285023 0
0.744274 0.307424 0
0.779461 0.32874 0
0.811261 0.349279 0
0.839185 0.368292 0
0.864378 0.386419 0
0.886656 0.403189 0
0.906371 0.418387 0
0.923217 0.431907 0
0.937697 0.443641 0
0.949813 0.453773 0
0.960113 0.462333 0
0.143587 0.156695 0.0386816
0.150713 0.15903 0.0364691
0.157107 0.160403 0.0345159
0.163455 0.161532 0.0318303
0.169299 0.162219 0.0284428
0.175402 0.162951 0.0247654
0.182788 0.163485 0.0194247
0.192264 0.164111 0.0122988
0.203906 0.164233 0.00213626
0.217945 0.163928 0
0.236789 0.162799 0
0.263981 0.16054 0
0.297734 0.155825 0
0.32784 0.158389 0
0.362829 0.166567 0
0.402991 0.179843 0
0.450294 0.194141 0
0.501106 0.210193 0
0.553201 0.22768 0
0.604578 0.245777 0
0.65304 0.265736 0
0.696712 0.288762 0
0.736492 0.310887 0
0.772915 0.332418 0
0.805676 0.352743 0
0.835142 0.372213 0
0.861494 0.390402 0
0.884718 0.407218 0
0.905272 0.422461 0
0.92285 0.435996 0
0.937667 0.447623 0
0.950271 0.457771 0
0.960723 0.466239 0
0.177722 0.189975 0.0554513
0.18352 0.191608 0.0536965
0.188952 0.192767 0.0517586
0.19408 0.193652 0.0493324
0.199069 0.194385 0.04654
0.203784 0.194842 0.043183
0.209934 0.195468 0.0387274
0.217365 0.195895 0.0324407
0.226841 0.196399 0.024155
0.238102 0.196475 0.0129854
0.252613 0.196109 0
0.274006 0.195331 0
0.303914 0.193164 0
0.340337 0.188968 0
0.371878 0.192218 0
0.410636 0.198962 0
0.454322 0.209354 0
0.501411 0.222461 0
0.550439 0.237629 0
0.599939 0.253986 0
0.646235 0.273823 0
0.689433 0.295628 0
0.729763 0.317205 0
0.766903 0.338308 0
0.800961 0.358709 0
0.831495 0.377874 0
0.859052 0.395987 0
0.883177 0.41268 0
0.904738 0.428 0
0.922866 0.441459 0
0.938323 0.453071 0
0.951217 0.463081 0
0.961852 0.471412 0
0.214649 0.225879 0.0796063
0.219364 0.227085 0.0785229
0.223835 0.228077 0.0770123
0.227909 0.228641 0.0746166
0.231922 0.229282 0.0723583
0.235706 0.229587 0.069276
0.240604 0.230182 0.0657511
0.246738 0.230716 0.0605783
0.254078 0.231052 0.0534676
0.263005 0.231266 0.0440833
0.27425 0.231235 0.0313878
0.29099 0.231357 0.0127108
0.314794 0.231022 0
0.346624 0.229465 0
0.387137 0.225071 0
0.42623 0.225345 0
0.465583 0.231464 0
0.508354 0.240818 0
0.553994 0.252995 0
0.598856 0.268711 0
0.642557 0.287495 0
0.684886 0.307317 0
0.725414 0.327626 0
0.762875 0.347723 0
0.797711 0.367453 0
0.829267 0.386328 0
0.857771 0.404135 0
0.882856 0.420569 0
0.904982 0.435477 0
0.923888 0.448875 0
0.939681 0.460258 0
0.952865 0.470069 0
0.963745 0.478248 0
0.253605 0.263752 0.112825
0.257465 0.264668 0.111864
0.260838 0.265217 0.110231
0.264179 0.265812 0.108644
0.267323 0.266209 0.106554
0.270237 0.266438 0.104112
0.274098 0.266804 0.100999
0.278889 0.267292 0.0970169
0.284627 0.267475 0.0905928
0.291615 0.267689 0.0829633
0.300572 0.268055 0.0733349
0.313497 0.26836 0.0583352
0.332174 0.268772 0.0367742
0.357824 0.269062 0.00817884
0.39089 0.268559 0
0.433585 0.265675 0
0.475364 0.265995 0
0.516686 0.270558 0
0.558663 0.279576 0
0.600702 0.291981 0
0.642908 0.307469 0
0.684062 0.324468 0
0.72398 0.342657 0
0.761578 0.361227 0
0.796841 0.37995 0
0.829038 0.397986 0
0.858289 0.415122 0
0.883864 0.430945 0
0.906767 0.445533 0
0.926009 0.458427 0
0.942382 0.469688 0
0.955871 0.479255 0
0.966964 0.487221 0
0.293202 0.302235 0.14609
0.29604 0.302785 0.145129
0.29868 0.303136 0.143771
0.301289 0.303624 0.142733
0.303807 0.303975 0.141451
0.306111 0.304067 0.139651
0.309163 0.304494 0.137942
0.313008 0.304906 0.135409
0.31754 0.30515 0.131746
0.323217 0.305501 0.127031
0.330434 0.305867 0.120424
0.340932 0.306401 0.109804
0.356023 0.307134 0.0924849
0.376806 0.308171 0.0686198
0.403998 0.309255 0.03888
0.438117 0.309575 0.00483711
0.481773 0.308019 0
0.52398 0.309361 0
0.565393 0.313893 0
0.606607 0.322377 0
0.647578 0.334081 0
0.687495 0.347829 0
0.726604 0.363287 0
0.763989 0.380011 0
0.799008 0.39675 0
0.831525 0.413428 0
0.861219 0.429694 0
0.88719 0.444663 0
0.91043 0.45861 0
0.930007 0.470817 0
0.946639 0.481636 0
0.960266 0.490806 0
0.971374 0.498405 0
0.333059 0.341161 0.179477
0.335348 0.341634 0.178882
0.337514 0.342016 0.178149
0.339544 0.342382 0.177447
0.341344 0.342519 0.176425
0.343328 0.342809 0.175586
0.345785 0.34313 0.174426
0.348699 0.34345 0.172808
0.352407 0.343801 0.170657
0.356878 0.344167 0.167834
0.36321 0.344732 0.163516
0.372152 0.345373 0.156497
0.384695 0.346365 0.146059
0.402136 0.347936 0.130938
0.424842 0.349645 0.108644
0.453162 0.351263 0.0779126
0.487922 0.352193 0.0426642
0.531807 0.351858 0
0.574121 0.353918 0
0.615564 0.358816 0
0.655558 0.366552 0
0.695109 0.377234 0
0.733227 0.389624 0
0.770138 0.403769 0
0.804868 0.418402 0
0.837324 0.433509 0
0.866758 0.448081 0
0.893172 0.46215 0
0.916243 0.474876 0
0.936095 0.486503 0
0.952819 0.496666 0
0.966552 0.505302 0
0.977813 0.512505 0
0.37348 0.380835 0.21387
0.375235 0.381231 0.213504
0.376715 0.381338 0.212772
0.378347 0.381643 0.212314
0.379889 0.381949 0.211887
0.381476 0.382223 0.211429
0.383398 0.382544 0.210758
0.385641 0.382712 0.209583
0.388647 0.383185 0.208408
0.392645 0.383536 0.206149
0.398474 0.38436 0.20322
0.406332 0.385168 0.198276
0.417166 0.386252 0.190951
0.432029 0.388037 0.18088
0.45124 0.389975 0.166293
0.47541 0.392264 0.146868
0.504891 0.394522 0.121752
0.5402 0.396338 0.0874952
0.583841 0.39678 0.0233158
0.625742 0.399268 0
0.666575 0.404242 0
0.705806 0.411841 0
0.743511 0.421241 0
0.779919 0.432624 0
0.814237 0.444862 0
0.846403 0.457923 0
0.875761 0.471 0
0.901884 0.48336 0
0.925078 0.49514 0
0.94493 0.505791 0
0.961486 0.515145 0
0.975204 0.523156 0
0.986404 0.529824 0
0.413779 0.420661 0.248173
0.415137 0.420996 0.247974
0.416449 0.421302 0.247745
0.417731 0.421576 0.247501
0.418952 0.42182 0.247211
0.419989 0.421912 0.246738
0.421546 0.422171 0.246296
0.423697 0.422583 0.245624
0.426673 0.423148 0.244694
0.430457 0.423621 0.242878
0.43592 0.424521 0.240513
0.44303 0.425437 0.236713
0.452613 0.426657 0.23122
0.465599 0.428534 0.22388
0.482109 0.430625 0.213428
0.503029 0.433066 0.199344
0.528572 0.435767 0.181476
0.558694 0.438544 0.160266
0.594308 0.440925 0.131426
0.637613 0.442267 0.0669718
0.678782 0.445106 0.00982681
0.718578 0.449989 0
0.756466 0.457115 0
0.792813 0.465873 0
0.826658 0.47567 0
0.858518 0.486595 0
0.887556 0.49778 0
0.913695 0.508797 0
0.936263 0.51899 0
0.955917 0.52845 0
0.972503 0.53695 0
0.986175 0.544396 0
0.997253 0.550469 0
0.454231 0.460975 0.282597
0.455375 0.46128 0.28246
0.456458 0.461494 0.2822
0.457481 0.461601 0.281773
0.458656 0.461875 0.281498
0.459892 0.462181 0.281254
0.461524 0.462547 0.280873
0.463676 0.46302 0.280262
0.466346 0.46334 0.279042
0.470176 0.464134 0.277775
0.475303 0.465095 0.275776
0.481804 0.466072 0.272679
0.49044 0.467338 0.268269
0.502007 0.469276 0.262531
0.516518 0.471382 0.254429
0.534737 0.47393 0.243702
0.557107 0.476783 0.229877
0.583688 0.479866 0.213107
0.614145 0.483101 0.194491
0.649927 0.485832 0.167834
0.692348 0.487694 0.112123
0.732647 0.491035 0.0516976
0.771282 0.495964 0.000808728
0.80734 0.502205 0
0.841505 0.510063 0
0.87303 0.518898 0
0.901823 0.528206 0
0.927687 0.53753 0
0.950195 0.546532 0
0.969665 0.554833 0
0.985824 0.56228 0
0.999176 0.568704 0
1 0.574411 0
0.495857 0.501427 0.315496
0.497032 0.501686 0.315236
0.498192 0.502007 0.315007
0.499352 0.502297 0.314733
0.500526 0.502571 0.314443
0.501762 0.502876 0.314183
0.503319 0.503197 0.31368
0.505165 0.503471 0.312871
0.507942 0.504067 0.312016
0.511574 0.504891 0.310872
0.516075 0.505608 0.308858
0.522332 0.506844 0.306416
0.530083 0.508171 0.302846
0.540505 0.510079 0.2981
0.553353 0.512169 0.291539
0.569497 0.514656 0.282826
0.589471 0.5178 0.272007
0.613031 0.521035 0.258381
0.640345 0.524437 0.242451
0.670924 0.527947 0.225574
0.706676 0.530831 0.199374
0.747555 0.532799 0.14995
0.786618 0.536263 0.0944991
0.823331 0.541054 0.0404822
0.857527 0.547051 0
0.889326 0.553918 0
0.917845 0.561502 0
0.943481 0.569238 0
0.965743 0.576822 0
0.984939 0.583917 0
1 0.590326 0
1 0.596246 0
1 0.600961 0
0.539437 0.542229 0.346716
0.540551 0.542535 0.346487
0.54168 0.542794 0.346181
0.542794 0.543099 0.345937
0.543755 0.543206 0.345449
0.544793 0.543389 0.345037
0.546288 0.54374 0.34461
0.548257 0.544228 0.344076
0.55082 0.544839 0.343267
0.554208 0.545586 0.342138
0.558328 0.546273 0.340337
0.564019 0.547509 0.338247
0.571084 0.548791 0.335088
0.580392 0.550637 0.331136
0.591913 0.552605 0.325505
0.606516 0.555322 0.318608
0.624109 0.558099 0.309255
0.645045 0.561257 0.29778
0.66949 0.564706 0.284138
0.697185 0.568322 0.268849
0.727611 0.571984 0.253208
0.763287 0.574929 0.22652
0.802747 0.577432 0.182147
0.839933 0.580911 0.135042
0.874586 0.585367 0.0829328
0.906203 0.590753 0.0363012
0.934905 0.596735 0
0.960403 0.603006 0
0.982406 0.609308 0
1 0.615259 0
1 0.620722 0
1 0.625834 0
1 0.629892 0
0.583917 0.582712 0.375982
0.584878 0.582879 0.375616
0.585733 0.58294 0.375128
0.586755 0.583215 0.374899
0.587793 0.583474 0.374563
0.588861 0.583719 0.374212
0.590219 0.584085 0.373846
0.59202 0.584527 0.373327
0.5944 0.585077 0.372519
0.597482 0.585794 0.371481
0.601175 0.586419 0.369833
0.606317 0.587594 0.367987
0.612894 0.588998 0.365393
0.621057 0.590509 0.36173
0.631678 0.592615 0.357061
0.644465 0.594873 0.35082
0.660136 0.597513 0.34284
0.678889 0.600565 0.332982
0.701106 0.604105 0.321279
0.726314 0.607782 0.307713
0.754147 0.61149 0.292927
0.783978 0.615259 0.27837
0.819303 0.618097 0.25066
0.85687 0.620645 0.209659
0.891661 0.624033 0.168246
0.923415 0.628168 0.126055
0.952224 0.632822 0.0812543
0.977447 0.637903 0.0437781
0.999207 0.643046 0.0145266
1 0.648005 0
1 0.652873 0
1 0.656931 0
1 0.660685 0
0.628229 0.622095 0.402975
0.629038 0.622187 0.402564
0.629984 0.622415 0.402243
0.630915 0.62266 0.402029
0.631846 0.622889 0.401709
0.632807 0.623117 0.401373
0.634028 0.623453 0.401022
0.635676 0.623819 0.400458
0.637797 0.624353 0.399786
0.640543 0.62501 0.39884
0.643839 0.625559 0.397314
0.648478 0.626596 0.39556
0.654429 0.627909 0.39324
0.661677 0.629221 0.389899
0.671107 0.631235 0.385946
0.682567 0.633265 0.380362
0.696941 0.636011 0.373617
0.713832 0.638834 0.364889
0.733654 0.642008 0.354421
0.756436 0.645457 0.342168
0.781979 0.649027 0.32842
0.809705 0.652796 0.314183
0.838697 0.656535 0.300633
0.87303 0.659205 0.27219
0.908309 0.661952 0.23505
0.940124 0.665141 0.199069
0.96878 0.668803 0.164202
0.993896 0.672862 0.13109
1 0.677012 0.0988785
1 0.681163 0.0711223
1 0.685191 0.0500649
1 0.688548 0.0333562
1 0.691814 0.0221866
0.671794 0.66009 0.427893
0.672633 0.660258 0.427573
0.673335 0.660319 0.427176
0.674006 0.660426 0.426871
0.67483 0.660609 0.426551
0.675685 0.660822 0.42623
0.676814 0.661082 0.425818
0.678233 0.661448 0.425376
0.680171 0.661875 0.424674
0.682612 0.66247 0.423804
0.685832 0.663218 0.422629
0.689693 0.663905 0.420813
0.694972 0.665034 0.418662
0.701717 0.666514 0.41593
0.70988 0.668009 0.41207
0.720455 0.670146 0.407324
0.733013 0.672374 0.401129
0.748577 0.675242 0.393561
0.766613 0.678141 0.384054
0.78735 0.681361 0.373007
0.810712 0.684779 0.360449
0.836301 0.688289 0.346883
0.863325 0.69189 0.333379
0.891112 0.695583 0.321126
0.924208 0.698146 0.292027
0.956222 0.700664 0.258732
0.984802 0.703532 0.227573
1 0.706767 0.198947
1 0.71014 0.173114
1 0.713802 0.15082
1 0.716976 0.131502
1 0.720058 0.115038
1 0.722515 0.101457
0.713176 0.695552 0.450187
0.713939 0.69572 0.449897
0.714702 0.695888 0.449622
0.71545 0.696056 0.449332
0.716182 0.696223 0.449042
0.716915 0.696437 0.448829
0.717891 0.696651 0.448447
0.719203 0.696941 0.447944
0.720775 0.697261 0.447303
0.722774 0.697551 0.44625
0.725612 0.698207 0.445167
0.72932 0.699031 0.443717
0.734081 0.700069 0.441764
0.739757 0.701091 0.439063
0.747433 0.702647 0.435676
0.756924 0.704555 0.431418
0.768215 0.706538 0.425818
0.782177 0.709056 0.418952
0.798566 0.711803 0.410544
0.817563 0.714733 0.400366
0.839048 0.717906 0.388815
0.862699 0.721233 0.376165
0.888212 0.724956 0.363394
0.914183 0.728389 0.350835
0.940246 0.731762 0.339635
0.97145 0.733883 0.309621
0.999985 0.736217 0.280324
1 0.738766 0.253605
1 0.741817 0.230625
1 0.744533 0.210208
1 0.74725 0.193545
1 0.749859 0.179904
1 0.752224 0.169085
0.751995 0.728099 0.469902
0.752667 0.728237 0.469627
0.753353 0.728389 0.469368
0.753964 0.728557 0.4692
0.754559 0.728649 0.468879
0.755138 0.72871 0.468513
0.755886 0.728771 0.468071
0.757 0.729015 0.467597
0.758495 0.729351 0.467033
0.76051 0.729763 0.466209
0.763012 0.730343 0.465202
0.766323 0.73106 0.463874
0.770581 0.731975 0.462074
0.775692 0.732799 0.45948
0.782528 0.734203 0.456504
0.791135 0.735897 0.452552
0.801358 0.737636 0.44744
0.814084 0.739879 0.441093
0.829068 0.742382 0.433387
0.846433 0.745083 0.424109
0.866316 0.748211 0.413672
0.888426 0.751461 0.401907
0.911925 0.754711 0.389517
0.936461 0.757946 0.377035
0.961059 0.761166 0.365515
0.98613 0.76405 0.352377
1 0.766247 0.324651
1 0.768399 0.299428
1 0.770703 0.277485
1 0.773251 0.258656
1 0.775433 0.24303
1 0.777661 0.230304
1 0.7794 0.220172
0.787243 0.757092 0.48687
0.787839 0.757214 0.486625
0.788342 0.757321 0.486427
0.788861 0.757366 0.486122
0.789349 0.757412 0.485817
0.789883 0.757458 0.485481
0.790661 0.75761 0.48513
0.791699 0.757824 0.484688
0.793011 0.758144 0.484184
