luts/Bat-SLog2.cube
TITLE "Generated by Resolve"
LUT_3D_SIZE 5
0.024094 0.0297398 0.0202182
0.214801 0.0395361 0
0.600443 0.191714 0
1 0.389914 0
1 0.54023 0
0.101244 0.126589 0.03299
0.232425 0.13344 0
0.519997 0.200656 0
0.8645 0.34403 0
1 0.459083 0
0.325826 0.35523 0.206073
0.378698 0.376074 0.203861
0.526421 0.381704 0.0666514
0.780438 0.405386 0
0.972763 0.473121 0
0.538155 0.574334 0.394171
0.5879 0.610101 0.411978
0.677302 0.631891 0.382315
0.866148 0.651362 0.264134
1 0.668574 0
0.727443 0.771664 0.555444
0.782422 0.81651 0.5794
0.861006 0.841856 0.557473
1 0.863294 0.483879
1 0.877119 0.372366
0.0408484 0.0867475 0.149248
0.149828 0.114473 0.184924
0.579522 0.198932 0.0235294
0.986984 0.39646 0
1 0.547555 0
0 0.167742 0.208438
0.163714 0.179065 0.180545
0.48397 0.244419 0.114107
0.826337 0.372366 0
1 0.474769 0
0.295171 0.367666 0.290028
0.363622 0.390051 0.294194
0.511925 0.407584 0.233463
0.773281 0.436439 0.0420081
0.967453 0.501472 0
0.534676 0.585855 0.445686
0.587991 0.624491 0.467948
0.682017 0.651926 0.43975
0.869154 0.675319 0.359258
1 0.694636 0.18587
0.730983 0.786526 0.598077
0.786221 0.832654 0.629145
0.866896 0.861036 0.605722
1 0.88249 0.544701
1 0.896757 0.458854
0.125582 0.271183 0.42118
0.206119 0.286854 0.428565
0.446464 0.363485 0.508568
0.948272 0.418585 0.371328
1 0.540185 0.234867
0.086656 0.264424 0.389731
0.186984 0.278645 0.385901
0.401556 0.345403 0.449363
0.796536 0.399527 0.361913
1 0.486503 0.301869
0.0801404 0.413367 0.47509
0.235447 0.439246 0.487831
0.441733 0.45655 0.461387
0.700725 0.50277 0.434256
0.903578 0.566857 0.425956
0.47866 0.610452 0.55288
0.534096 0.653101 0.595926
0.643854 0.678401 0.596582
0.822278 0.712047 0.561563
1 0.738598 0.488106
0.688167 0.809689 0.697749
0.744762 0.855238 0.7458
0.836469 0.880766 0.737148
0.971054 0.907317 0.688701
1 0.9243 0.645731
0.252857 0.475593 0.719387
0.298863 0.480842 0.718135
0.461143 0.537316 0.795666
0.765469 0.626001 0.840162
1 0.676509 0.774884
0.209186 0.429511 0.638941
0.263325 0.431067 0.626062
0.408209 0.466606 0.662669
0.65948 0.549706 0.714961
0.924453 0.595895 0.675395
0.178347 0.47924 0.651499
0.272725 0.489494 0.632898
0.442222 0.514717 0.614145
0.637263 0.580118 0.675532
0.870115 0.628809 0.663722
0.306188 0.666102 0.744533
0.390585 0.709865 0.784665
0.543053 0.735348 0.789136
0.752209 0.765515 0.77322
0.944167 0.803098 0.766003
0.559548 0.859129 0.851743
0.61825 0.907546 0.900572
0.739956 0.927138 0.906081
0.907073 0.941756 0.88719
1 0.965301 0.861128
0.349264 0.631174 0.946334
0.381323 0.631052 0.939406
0.521111 0.674479 0.976959
0.743206 0.731258 1
0.996201 0.809552 1
0.29688 0.560876 0.833082
0.331167 0.551904 0.808209
0.4542 0.5691 0.803983
0.639109 0.62118 0.90222
0.838544 0.68983 0.888991
0.250599 0.535622 0.746944
0.316487 0.548287 0.737545
0.460548 0.575341 0.732128
0.628275 0.6318 0.808774
0.80914 0.705791 0.847349
0.293431 0.710552 0.888243
0.377722 0.751537 0.921386
0.554452 0.769772 0.900618
0.751812 0.802853 0.87837
0.899611 0.854688 0.930724
0.461524 0.90016 0.998108
0.532296 0.948318 1
0.662531 0.970184 1
0.837858 0.986343 1
0.995193 1 1
