luts/Bat-Slog3.cube
TITLE "Generated by Resolve"
LUT_3D_SIZE 33
0.0302129 0.0325017 0.0217594
0.0330816 0.0328374 0.0215152
0.0392309 0.0331884 0.0207675
0.0489967 0.0330358 0.0183108
0.0593271 0.0333715 0.0158999
0.0703899 0.0337835 0.0133822
0.0834669 0.0341039 0.0101472
0.100816 0.0344549 0.00573739
0.125216 0.0353246 0
0.155016 0.0375525 0
0.190829 0.0420539 0
0.232944 0.0488899 0
0.280797 0.0594186 0
0.333867 0.0751659 0
0.391745 0.0978561 0
0.453773 0.127306 0
0.519219 0.158648 0
0.587198 0.189441 0
0.656214 0.222202 0
0.725765 0.255253 0
0.795621 0.288411 0
0.864286 0.321035 0
0.930678 0.352636 0
0.993805 0.382666 0
1 0.410864 0
1 0.436637 0
1 0.459632 0
1 0.479622 0
1 0.496742 0
1 0.511086 0
1 0.522515 0
1 0.531777 0
1 0.538766 0
0.0286412 0.0358129 0.0239109
0.0332189 0.035935 0.022797
0.0405585 0.0359655 0.020676
0.0493782 0.0360113 0.0183108
0.059205 0.0362554 0.0159152
0.0698405 0.0365911 0.0133822
0.0831617 0.0369573 0.0101472
0.100557 0.0379644 0.00660716
0.125277 0.0388952 0.000717174
0.155444 0.0410773 0
0.191424 0.0451667 0
0.233219 0.0521553 0
0.280827 0.0633402 0
0.333761 0.079881 0
0.39144 0.102831 0
0.453162 0.131701 0
0.518746 0.161105 0
0.586114 0.19176 0
0.654627 0.224048 0
0.723644 0.256672 0
0.79292 0.289494 0
0.860945 0.321752 0
0.926604 0.35288 0
0.988983 0.382483 0
1 0.410315 0
1 0.435691 0
1 0.458289 0
1 0.477943 0
1 0.494759 0
1 0.508843 0
1 0.520043 0
1 0.529122 0
1 0.535958 0
0.0326543 0.039704 0.0244755
0.0365911 0.0397345 0.0233616
0.0425574 0.0400092 0.0204929
0.053193 0.0393225 0.0159915
0.0642405 0.0385748 0.0121157
0.0747234 0.0384833 0.00935378
0.0857099 0.0395209 0.0081178
0.101747 0.0408026 0.00550851
0.125612 0.0418097 0
0.155108 0.0440986 0
0.190768 0.0485084 0
0.232425 0.0559396 0
0.279759 0.0673381 0
0.332326 0.0839094 0
0.389792 0.107088 0
0.451286 0.135546 0
0.516976 0.162554 0
0.583703 0.192966 0
0.651713 0.224964 0
0.720119 0.257252 0
0.788663 0.289601 0
0.855924 0.321401 0
0.92079 0.352148 0
0.982345 0.381338 0
1 0.408698 0
1 0.433646 0
1 0.455879 0
1 0.475181 0
1 0.491676 0
1 0.505486 0
1 0.516457 0
1 0.525338 0
1 0.532036 0
0.0361486 0.0446479 0.0247959
0.0408789 0.0445716 0.0242924
0.0463264 0.045243 0.0209659
0.0551003 0.0452583 0.0163729
0.0681926 0.0437171 0.00988785
0.0780194 0.0430915 0.0078584
0.0889601 0.0433356 0.00616464
0.105409 0.0439155 0.00270085
0.127382 0.0449531 0
0.155474 0.0473945 0
0.190005 0.0518349 0
0.230777 0.0592203 0
0.277592 0.0707713 0
0.329839 0.087602 0
0.386831 0.110933 0
0.447807 0.138308 0
0.513436 0.163897 0
0.579995 0.193347 0
0.647303 0.224872 0
0.714961 0.256703 0
0.782757 0.288701 0
0.849165 0.320089 0
0.913146 0.350347 0
0.973785 0.37908 0
1 0.406012 0
1 0.430549 0
1 0.452369 0
1 0.47129 0
1 0.487465 0
1 0.500984 0
1 0.511711 0
1 0.520409 0
1 0.526955 0
0.0409552 0.0494392 0.0260929
0.0451667 0.0499886 0.0247807
0.0505379 0.050782 0.0213474
0.0582742 0.0510109 0.0170291
0.0696574 0.0505989 0.0108186
0.083711 0.0486915 0.0037232
0.0955367 0.0479591 0.00199893
0.111482 0.0479744 0
0.130968 0.0485237 0
0.156817 0.0506142 0
0.1897 0.0549783 0
0.229389 0.062501 0
0.275288 0.0739757 0
0.326726 0.090547 0
0.383169 0.11371 0
0.443702 0.140597 0
0.508965 0.165103 0
0.575525 0.192905 0
0.642145 0.224125 0
0.709072 0.255634 0
0.775998 0.28716 0
0.84155 0.31809 0
0.904646 0.347951 0
0.96437 0.376257 0
1 0.402747 0
1 0.426841 0
1 0.448295 0
1 0.46688 0
1 0.482719 0
1 0.495964 0
1 0.506477 0
1 0.514977 0
1 0.521385 0
0.0447547 0.0540322 0.026215
0.0491493 0.0551308 0.024979
0.0546883 0.0561837 0.021561
0.0620737 0.0567025 0.0178531
0.0723125 0.0568093 0.0122683
0.0847486 0.055848 0.00535592
0.101778 0.0535439 0
0.117556 0.0525216 0
0.135531 0.0525521 0
0.159457 0.0543526 0
0.190433 0.0584115 0
0.228473 0.0655375 0
0.273243 0.0768444 0
0.323949 0.0934462 0
0.379721 0.11632 0
0.439551 0.142397 0
0.504402 0.166171 0
0.571069 0.19237 0
0.636957 0.223148 0
0.703105 0.2542 0
0.769268 0.285389 0
0.834012 0.315969 0
0.896239 0.345403 0
0.955123 0.373281 0
1 0.39939 0
1 0.423133 0
1 0.444236 0
1 0.462486 0
1 0.478035 0
1 0.491051 0
1 0.50135 0
1 0.509682 0
1 0.515969 0
0.0495155 0.06009 0.0262913
0.054078 0.0615091 0.0251469
0.0597238 0.0627604 0.0216373
0.0669108 0.0634775 0.0184024
0.0761883 0.0637827 0.0133364
0.08748 0.0636149 0.0071107
0.103075 0.0624094 0
0.124727 0.0594034 0
0.141817 0.0584115 0
0.163302 0.0590524 0
0.191791 0.0623178 0
0.227787 0.0690471 0
0.270939 0.0800641 0
0.320287 0.0961624 0
0.375006 0.118395 0
0.434073 0.143908 0
0.498207 0.1673 0
0.564904 0.191669 0
0.630243 0.221546 0
0.695476 0.252155 0
0.760678 0.282841 0
0.82443 0.312901 0
0.885679 0.341894 0
0.943557 0.36936 0
0.997574 0.394995 0
1 0.418311 0
1 0.439017 0
1 0.456901 0
1 0.472145 0
1 0.484886 0
1 0.494972 0
1 0.50312 0
1 0.509255 0
0.0557717 0.0681621 0.0263066
0.0605631 0.0699168 0.0253605
0.0664988 0.0714885 0.0222477
0.07364 0.0725109 0.0191196
0.0824903 0.073228 0.0148775
0.0925765 0.0733349 0.00920119
0.10663 0.0730449 0.00158694
0.12697 0.0712444 0
0.149828 0.0674601 0
0.169467 0.0667582 0
0.195193 0.0687419 0
0.228214 0.0743267 0
0.268788 0.0844434 0
0.316243 0.100038 0
0.369451 0.121462 0
0.427131 0.145815 0
0.490105 0.168719 0
0.555795 0.192248 0
0.621363 0.219318 0
0.685405 0.249332 0
0.749386 0.279469 0
0.811872 0.30898 0
0.871824 0.337346 0
0.928435 0.364172 0
0.981201 0.389258 0
1 0.412024 0
1 0.432227 0
1 0.449683 0
1 0.464515 0
1 0.476936 0
1 0.486748 0
1 0.494682 0
1 0.500648 0
0.0639963 0.0786908 0.0267948
0.0688945 0.0806439 0.0259861
0.0750134 0.082414 0.0231479
0.0823529 0.0839094 0.0201419
0.0907149 0.0847181 0.0163882
0.100237 0.0853132 0.0116426
0.113039 0.0854505 0.00476081
0.130694 0.0849317 0
0.152621 0.0823224 0
0.176791 0.0778363 0
0.200259 0.077821 0
0.230152 0.0817731 0
0.267521 0.0905013 0
0.312123 0.104784 0
0.363088 0.124834 0
0.419028 0.148028 0
0.480308 0.170397 0
0.544778 0.192966 0
0.610574 0.216754 0
0.673167 0.246052 0
0.735607 0.27538 0
0.796551 0.304128 0
0.854963 0.331792 0
0.910063 0.357946 0
0.961364 0.382315 0
1 0.40444 0
1 0.424048 0
1 0.441001 0
1 0.455436 0
1 0.46746 0
1 0.476997 0
1 0.484688 0
1 0.490486 0
0.0760357 0.0937819 0.028748
0.0814679 0.0962997 0.0284428
0.0881361 0.0987106 0.0263066
0.0955367 0.100496 0.0230411
0.103777 0.10164 0.0200046
0.112703 0.102235 0.0157168
0.123644 0.102846 0.00988785
0.138415 0.102846 0.000579843
0.157321 0.101595 0
0.179965 0.098146 0
0.207614 0.092607 0
0.234409 0.09337 0
0.267948 0.0995041 0
0.308873 0.111879 0
0.356741 0.129381 0
0.410132 0.15079 0
0.4692 0.172503 0
0.532036 0.193881 0
0.596323 0.216205 0
0.658686 0.242237 0
0.719356 0.27068 0
0.778531 0.298528 0
0.835187 0.325322 0
0.888579 0.350668 0
0.938216 0.374304 0
0.983093 0.395727 0
1 0.414694 0
1 0.431144 0
1 0.445075 0
1 0.456703 0
1 0.46595 0
1 0.473396 0
1 0.479011 0
0.0937057 0.115419 0.0335088
0.0995956 0.118318 0.0337072
0.106783 0.12108 0.0321965
0.114763 0.123339 0.0287938
0.122515 0.124727 0.0265202
0.129915 0.125414 0.0228733
0.139055 0.126131 0.0178531
0.151293 0.126497 0.00973526
0.166964 0.126101 0
0.186206 0.124483 0
0.211215 0.120546 0
0.242405 0.114366 0
0.272114 0.115923 0
0.308507 0.123842 0
0.351949 0.137316 0
0.401602 0.155581 0
0.457588 0.175418 0
0.518196 0.195224 0
0.580453 0.216175 0
0.642451 0.238529 0
0.70106 0.265827 0
0.758206 0.292653 0
0.812894 0.318456 0
0.864393 0.34287 0
0.912261 0.365652 0
0.955505 0.386313 0
0.993652 0.404623 0
1 0.420478 0
1 0.433936 0
1 0.445182 0
1 0.454124 0
1 0.461341 0
1 0.466789 0
0.118715 0.141695 0.0425116
0.12462 0.144671 0.0432746
0.13138 0.147463 0.0423896
0.138354 0.149798 0.0395514
0.145159 0.1514 0.0369879
0.15169 0.152361 0.034287
0.159243 0.153048 0.0299535
0.169543 0.153796 0.02327
0.182345 0.153811 0.0129091
0.198108 0.153185 0
0.217655 0.151324 0
0.246235 0.147173 0
0.280674 0.140963 0
0.312703 0.14316 0
0.351156 0.151843 0
0.396002 0.165988 0
0.448539 0.181781 0
0.505684 0.199115 0
0.565011 0.217945 0
0.624857 0.237583 0
0.681727 0.261982 0
0.736522 0.287343 0
0.789014 0.311925 0
0.838468 0.335225 0
0.884474 0.357046 0
0.92604 0.376883 0
0.962722 0.394491 0
0.994339 0.409751 0
1 0.422782 0
1 0.433631 0
1 0.442298 0
1 0.449287 0
1 0.454597 0
0.147692 0.171405 0.0569924
0.153353 0.174609 0.0586862
0.159274 0.177249 0.0582437
0.165759 0.179812 0.0564431
0.171847 0.181628 0.053254
0.1776 0.182773 0.0514229
0.184054 0.183612 0.0480507
0.192523 0.184314 0.042359
0.20322 0.184833 0.0338903
0.216007 0.184665 0.0217594
0.231357 0.183795 0.00578317
0.253147 0.181979 0
0.285176 0.177783 0
0.322301 0.171878 0
0.356146 0.174716 0
0.397436 0.182467 0
0.445411 0.193591 0
0.497871 0.20766 0
0.553231 0.223774 0
0.609659 0.241077 0
0.663996 0.262119 0
0.716075 0.285451 0
0.766094 0.308232 0
0.813336 0.330083 0
0.857343 0.350668 0
0.897185 0.369543 0
0.932433 0.386313 0
0.962829 0.4009 0
0.988663 0.413352 0
1 0.423911 0
1 0.432273 0
1 0.439139 0
1 0.444358 0
0.179767 0.204273 0.0785229
0.184924 0.207401 0.0808576
0.190585 0.210315 0.08159
0.196262 0.212665 0.0803082
0.201953 0.214801 0.077821
0.206867 0.215976 0.0753033
0.21268 0.217151 0.073228
0.219898 0.218021 0.0688334
0.228641 0.218509 0.0616465
0.239078 0.218647 0.0514534
0.251743 0.21854 0.0381476
0.267781 0.21767 0.0193942
0.292454 0.216037 0
0.32723 0.2121 0
0.370504 0.205249 0
0.407904 0.2065 0
0.450141 0.212589 0
0.497108 0.222477 0
0.547539 0.235126 0
0.599802 0.249561 0
0.650034 0.268605 0
0.699077 0.289113 0
0.746456 0.309728 0
0.791363 0.329778 0
0.833356 0.348806 0
0.871626 0.366415 0
0.905562 0.382239 0
0.934966 0.396231 0
0.960021 0.408148 0
0.981018 0.418189 0
0.997665 0.426383 0
1 0.433021 0
1 0.438102 0
0.21413 0.239506 0.107881
0.21915 0.242817 0.11107
0.224186 0.245563 0.112261
0.229603 0.248188 0.112306
0.234546 0.250111 0.110521
0.239246 0.251759 0.107942
0.244175 0.252827 0.106218
0.250462 0.253895 0.10338
0.257893 0.254612 0.0979019
0.266468 0.254856 0.0891737
0.276555 0.254765 0.07776
0.288716 0.254337 0.0630198
0.307149 0.253803 0.0405585
0.334157 0.252705 0.00830091
0.370886 0.249744 0
0.416983 0.243977 0
0.461021 0.242359 0
0.504921 0.246067 0
0.549752 0.254841 0
0.595438 0.267613 0
0.641642 0.282918 0
0.687572 0.299931 0
0.73228 0.317845 0
0.774884 0.335653 0
0.814984 0.352972 0
0.851621 0.369207 0
0.884306 0.383886 0
0.912749 0.396902 0
0.937133 0.40824 0
0.957656 0.417929 0
0.974014 0.425681 0
0.987366 0.432166 0
0.997497 0.437201 0
0.250187 0.276509 0.140185
0.254871 0.279744 0.14345
0.259846 0.282765 0.145525
0.264576 0.28513 0.145876
0.26891 0.286915 0.144686
0.272908 0.288334 0.142672
0.27744 0.289769 0.140169
0.282811 0.290791 0.138384
0.289143 0.291554 0.135042
0.296483 0.292073 0.1299
0.304952 0.292271 0.122499
0.314794 0.292317 0.112734
0.328923 0.292271 0.0962844
0.349874 0.292195 0.0698558
0.379095 0.291814 0.0347601
0.417182 0.289906 0
0.464683 0.285466 0
0.509483 0.284398 0
0.553124 0.287739 0
0.59646 0.295323 0
0.640009 0.306203 0
0.683131 0.319371 0
0.7252 0.333944 0
0.76556 0.349111 0
0.803738 0.364218 0
0.838819 0.378637 0
0.870298 0.391989 0
0.897963 0.404166 0
0.921721 0.41471 0
0.941756 0.423713 0
0.957961 0.431266 0
0.971069 0.437308 0
0.981186 0.442191 0
0.287037 0.314336 0.173358
0.291295 0.317388 0.176272
0.29543 0.319936 0.177768
0.299657 0.322164 0.178256
0.303838 0.324178 0.178027
0.307408 0.325536 0.176699
0.31165 0.327153 0.174975
0.316609 0.328527 0.172885
0.322271 0.329488 0.17113
0.328908 0.330465 0.168475
0.336217 0.330953 0.164019
0.344381 0.331212 0.157992
0.355718 0.331533 0.148486
0.37261 0.332113 0.132662
0.396231 0.332799 0.107378
0.427283 0.333211 0.0704509
0.4663 0.33228 0.0269627
0.514214 0.328756 0
0.559136 0.328237 0
0.60209 0.331334 0
0.64419 0.337789 0
0.685359 0.346914 0
0.725383 0.357961 0
0.763821 0.370169 0
0.80029 0.382849 0
0.833967 0.395315 0
0.864469 0.407263 0
0.891264 0.418143 0
0.914397 0.427741 0
0.934188 0.436255 0
0.950011 0.443137 0
0.963104 0.449027 0
0.973022 0.453483 0
0.323339 0.351766 0.205432
0.327306 0.354711 0.208255
0.331289 0.357336 0.210086
0.335546 0.359884 0.211353
0.339315 0.361791 0.21146
0.342885 0.363424 0.211078
0.346624 0.364935 0.209888
0.351461 0.366766 0.20798
0.35671 0.368093 0.206714
0.362539 0.369131 0.205219
0.369024 0.369909 0.202625
0.376181 0.370489 0.198932
0.385763 0.37113 0.19295
0.399893 0.372091 0.182864
0.419547 0.373327 0.167117
0.445548 0.374731 0.144106
0.478065 0.375875 0.112459
0.517723 0.375708 0.0674296
0.565744 0.373526 0
0.610315 0.373648 0
0.652659 0.376471 0
0.693049 0.38175 0
0.731868 0.389334 0
0.769177 0.398733 0
0.804456 0.408911 0
0.836988 0.419242 0
0.866407 0.429328 0
0.892409 0.438743 0
0.91516 0.447486 0
0.934417 0.455009 0
0.950027 0.461357 0
0.962966 0.466758 0
0.973007 0.471153 0
0.359533 0.38909 0.237522
0.363409 0.392096 0.240482
0.367498 0.39501 0.242832
0.37142 0.397467 0.244205
0.375113 0.399542 0.244862
0.378439 0.401221 0.244892
0.382025 0.402838 0.244358
0.386648 0.404868 0.243381
0.391653 0.406653 0.241245
0.39704 0.40795 0.240742
0.402975 0.409064 0.239414
0.409445 0.409964 0.237278
0.418082 0.411032 0.233494
0.43035 0.412253 0.22649
0.447333 0.413886 0.215641
0.469642 0.415824 0.199847
0.497704 0.417884 0.178332
0.531258 0.419654 0.151263
0.571298 0.420081 0.112169
0.618631 0.418875 0.0351263
0.662791 0.419409 0
0.704112 0.42211 0
0.743023 0.426825 0
0.77969 0.433249 0
0.814206 0.440833 0
0.846021 0.449027 0
0.8748 0.457328 0
0.900236 0.465309 0
0.922621 0.472953 0
0.941482 0.47953 0
0.957107 0.485405 0
0.969696 0.490105 0
0.979706 0.494148 0
0.395483 0.426184 0.26949
0.399527 0.42948 0.27277
0.403342 0.432288 0.275074
0.407187 0.434867 0.276753
0.410956 0.437217 0.277943
0.414038 0.438895 0.278218
0.4177 0.440833 0.278416
0.421927 0.442817 0.277867
0.426749 0.444831 0.276493
0.432212 0.446906 0.27541
0.437797 0.448356 0.275013
0.443839 0.449622 0.273945
0.451865 0.45098 0.271366
0.463157 0.452628 0.266484
0.47834 0.454612 0.258549
0.498054 0.456947 0.246891
0.522744 0.459541 0.230915
0.552224 0.461906 0.210117
0.586374 0.464103 0.186038
0.626444 0.465064 0.151354
0.673121 0.46453 0.0781262
0.716258 0.465431 0.0103761
0.756207 0.467979 0
0.793317 0.472084 0
0.827848 0.477455 0
0.85948 0.48365 0
0.888167 0.49041 0
0.913436 0.497078 0
0.935286 0.503273 0
0.954223 0.509178 0
0.969406 0.514076 0
0.982193 0.518502 0
0.991852 0.521874 0
0.431098 0.462959 0.301152
0.435004 0.466224 0.304341
0.438804 0.469154 0.306798
0.442817 0.472084 0.308965
0.446342 0.474372 0.310201
0.449622 0.476402 0.311055
0.452979 0.478309 0.311391
0.457237 0.480552 0.311467
0.462028 0.482902 0.310933
0.467185 0.485176 0.309575
0.472663 0.487114 0.308949
0.478523 0.488762 0.308644
0.48632 0.490486 0.306966
0.49691 0.492485 0.30338
0.510918 0.494804 0.297353
0.528801 0.497429 0.288319
0.550988 0.500374 0.275792
0.577691 0.503487 0.25948
0.608682 0.506508 0.239658
0.643046 0.509133 0.217929
0.683345 0.510353 0.184619
0.728679 0.510338 0.12163
0.77023 0.511376 0.0507668
0.808469 0.513756 0
0.843915 0.517525 0
0.875883 0.522011 0
0.904509 0.527047 0
0.929686 0.53225 0
0.951659 0.537469 0
0.970382 0.542321 0
0.985809 0.546761 0
0.998276 0.550378 0
1 0.553628 0
0.466026 0.499077 0.332021
0.469902 0.502403 0.33521
0.47393 0.505699 0.338033
0.477745 0.508568 0.340139
0.481498 0.511254 0.341863
0.484565 0.513207 0.342718
0.488151 0.515511 0.343633
0.492271 0.517891 0.34406
0.49688 0.520333 0.343908
0.502068 0.522927 0.343297
0.507698 0.525597 0.342031
0.513573 0.527657 0.342046
0.521324 0.529763 0.341024
0.531533 0.532097 0.338338
0.544717 0.534722 0.333608
0.561074 0.537423 0.326177
0.581338 0.540551 0.315923
0.605676 0.543969 0.302495
0.633982 0.547448 0.285817
0.665675 0.550744 0.266621
0.700175 0.553582 0.246235
0.740261 0.554986 0.213306
0.783932 0.555413 0.157214
0.823804 0.556725 0.093431
0.860197 0.558953 0.0302586
0.892973 0.562051 0
0.922103 0.565774 0
0.947921 0.570123 0
0.969924 0.574182 0
0.988602 0.578012 0
1 0.581827 0
1 0.585153 0
1 0.587701 0
0.500267 0.534539 0.362097
0.504204 0.538033 0.365347
0.50808 0.541268 0.368063
0.512169 0.544518 0.370565
0.515724 0.547143 0.372229
0.519036 0.549477 0.373556
0.522438 0.551736 0.374487
0.526772 0.554559 0.375494
0.531426 0.557229 0.375799
0.536446 0.560006 0.375601
0.541909 0.562768 0.374792
0.548089 0.565484 0.373648
0.555856 0.567971 0.373068
0.56585 0.570596 0.371069
0.578439 0.573465 0.367254
0.594079 0.576623 0.361288
0.613031 0.580041 0.352758
0.635554 0.583673 0.341375
0.661692 0.587427 0.327062
0.691096 0.591134 0.310155
0.723369 0.594537 0.291173
0.757473 0.597498 0.272099
0.796994 0.598947 0.238911
0.838575 0.599619 0.187778
0.876417 0.600992 0.133104
0.910277 0.603052 0.0721904
0.9402 0.605722 0.0194705
0.966186 0.608789 0
0.988861 0.612284 0
1 0.615366 0
1 0.618402 0
1 0.621118 0
1 0.62359 0
0.533196 0.568719 0.390723
0.537453 0.57261 0.394293
0.541421 0.576013 0.397131
0.545403 0.579293 0.399603
0.549157 0.582223 0.401587
0.552438 0.584634 0.402991
0.555978 0.587121 0.404211
0.560143 0.589929 0.40528
0.564935 0.592996 0.406088
0.570077 0.596078 0.406409
0.575509 0.599084 0.406104
0.58201 0.602289 0.40444
0.58996 0.605203 0.403616
0.599817 0.608133 0.402106
0.612009 0.611231 0.398978
0.626932 0.614572 0.393927
0.644846 0.618158 0.386603
0.665843 0.621866 0.376654
0.690227 0.625772 0.36408
0.717449 0.629526 0.348867
0.747753 0.633265 0.331487
0.780041 0.636683 0.312932
0.813352 0.639673 0.295018
0.851972 0.641077 0.261204
0.891203 0.641871 0.214176
0.926146 0.643214 0.166781
0.957229 0.645411 0.118379
0.983825 0.6477 0.0679484
1 0.650172 0.0267033
1 0.652934 0
1 0.655329 0
1 0.657725 0
1 0.659617 0
0.564981 0.60177 0.418143
0.569345 0.605829 0.42179
0.573404 0.609415 0.424735
0.577417 0.612787 0.427268
0.581308 0.615946 0.429465
0.584451 0.618326 0.430838
0.58819 0.621118 0.43238
0.592416 0.624109 0.433677
0.597086 0.627237 0.434607
0.602472 0.630701 0.435447
0.607965 0.633967 0.435431
0.614694 0.637415 0.433997
0.622843 0.640848 0.432273
0.632624 0.644022 0.431159
0.644526 0.647334 0.428534
0.658869 0.650813 0.42417
0.675898 0.654505 0.417716
0.695583 0.658122 0.408759
0.718547 0.662135 0.397543
0.744396 0.666209 0.383948
0.772946 0.670146 0.368017
0.80354 0.673823 0.35053
0.835355 0.67715 0.332692
0.867353 0.680034 0.316182
0.904646 0.681224 0.281727
0.940719 0.682124 0.239536
0.972442 0.683574 0.199084
0.999939 0.685466 0.160418
1 0.687358 0.122667
1 0.689601 0.0856641
1 0.691554 0.0558633
1 0.693599 0.0329137
1 0.695155 0.0158846
0.594965 0.633005 0.443839
0.59942 0.637201 0.447532
0.603571 0.64094 0.450553
0.607736 0.644541 0.453269
0.611643 0.647791 0.455528
0.614832 0.650294 0.457008
0.618616 0.653223 0.458701
0.622904 0.656367 0.460151
0.627756 0.659815 0.461479
0.633005 0.663325 0.462409
0.638712 0.666819 0.462593
0.64567 0.670512 0.461326
0.653986 0.674342 0.458854
0.663676 0.677729 0.458
0.675364 0.681193 0.455787
0.689265 0.684825 0.451926
0.705638 0.688624 0.446159
0.724605 0.692454 0.438178
0.746227 0.696269 0.427817
0.770718 0.700359 0.415396
0.797787 0.704341 0.400687
0.826856 0.708156 0.384314
0.857252 0.711681 0.367147
0.888045 0.714824 0.350317
0.918395 0.71751 0.335164
0.95378 0.718502 0.300282
0.986587 0.719768 0.26334
1 0.721065 0.229007
1 0.72253 0.197498
1 0.724361 0.169162
1 0.725948 0.14435
1 0.727657 0.122713
1 0.72903 0.104707
0.622919 0.662165 0.467658
0.627298 0.666316 0.471229
0.63151 0.670161 0.474311
0.63592 0.674083 0.477272
0.639704 0.677272 0.479454
0.643214 0.680156 0.481285
0.646799 0.682963 0.482856
0.65127 0.686351 0.484581
0.656138 0.689937 0.486046
0.661295 0.693492 0.487114
0.667247 0.6972 0.487327
0.674342 0.701106 0.486213
0.682795 0.705226 0.48336
0.692515 0.708797 0.482475
0.70396 0.712398 0.480507
0.717494 0.716091 0.477028
0.733333 0.719875 0.471748
0.751644 0.723751 0.464439
0.772564 0.727733 0.454994
0.796002 0.731807 0.443473
0.821698 0.735668 0.429664
0.849607 0.73962 0.414328
0.878569 0.743099 0.397772
0.908202 0.74638 0.381155
0.937743 0.749371 0.36553
0.965942 0.751965 0.352132
0.999069 0.752712 0.316838
1 0.753689 0.284566
1 0.755001 0.255772
1 0.756374 0.230274
1 0.757687 0.208881
1 0.759167 0.190875
1 0.760571 0.176867
0.648219 0.688594 0.489082
0.652781 0.692958 0.49279
0.657176 0.697032 0.49604
0.661402 0.700801 0.498833
0.665492 0.704356 0.50132
0.668772 0.707057 0.502983
0.672648 0.710231 0.50486
0.677043 0.713619 0.5066
0.681849 0.717189 0.508095
