luts/Bat-SLog2.cube
TITLE "Generated by Resolve"
LUT_3D_SIZE 9
0.024094 0.0297398 0.0202182
0.076585 0.0301976 0.00636301
0.214801 0.0395361 0
0.396475 0.0926375 0
0.600443 0.191714 0
0.811307 0.291814 0
1 0.389914 0
1 0.476204 0
1 0.54023 0
0.0426642 0.0546578 0.0229191
0.0958114 0.0568093 0
0.213138 0.0609598 0
0.382635 0.116411 0
0.580224 0.196674 0
0.778653 0.288701 0
0.967544 0.3785 0
1 0.456153 0
1 0.512627 0
0.101244 0.126589 0.03299
0.146532 0.1393 0.0203403
0.232425 0.13344 0
0.355093 0.143648 0
0.519997 0.200656 0
0.701106 0.266636 0
0.8645 0.34403 0
1 0.410651 0
1 0.459083 0
0.21178 0.238621 0.102693
0.243824 0.253727 0.10341
0.285527 0.256123 0.0661479
0.374899 0.250935 0
0.512078 0.247852 0
0.649729 0.28542 0
0.785946 0.339925 0
0.906249 0.393484 0
0.996063 0.436149 0
0.325826 0.35523 0.206073
0.350591 0.369894 0.212985
0.378698 0.376074 0.203861
0.425238 0.37908 0.170184
0.526421 0.381704 0.0666514
0.661326 0.382589 0
0.780438 0.405386 0
0.887861 0.439719 0
0.972763 0.473121 0
0.433646 0.466224 0.302235
0.457115 0.483177 0.31458
0.481834 0.494102 0.312703
0.517372 0.50106 0.301106
0.586557 0.510063 0.261601
0.692699 0.51696 0.18555
0.820874 0.520897 0
0.927016 0.536461 0
1 0.557931 0
0.538155 0.574334 0.394171
0.562737 0.594629 0.409705
0.5879 0.610101 0.411978
0.621378 0.620676 0.405417
0.677302 0.631891 0.382315
0.759335 0.64329 0.33669
0.866148 0.651362 0.264134
0.98201 0.65658 0.100664
1 0.668574 0
0.638361 0.678614 0.480156
0.664759 0.702174 0.497871
0.691432 0.720729 0.503166
0.724727 0.734051 0.496498
0.773678 0.745754 0.480064
0.843137 0.757702 0.445716
0.930449 0.768536 0.396277
1 0.775723 0.325734
1 0.781888 0.217563
0.727443 0.771664 0.555444
0.754559 0.796765 0.573922
0.782422 0.81651 0.5794
0.815778 0.83064 0.571725
0.861006 0.841856 0.557473
0.923049 0.852949 0.527901
1 0.863294 0.483879
1 0.871855 0.436377
1 0.877119 0.372366
0.029984 0.0437629 0.0537575
0.055848 0.0475929 0.0623178
0.211383 0.0471962 0.0245518
0.392859 0.10103 0
0.591119 0.19968 0
0.798306 0.302892 0
1 0.399145 0
1 0.482429 0
1 0.544533 0
0.00361639 0.0700389 0.0863661
0.0640574 0.0737621 0.0697185
0.194064 0.085069 0.0428779
0.368887 0.140505 0.00517281
0.565164 0.216831 0
0.764782 0.302846 0
0.95375 0.387854 0
1 0.462272 0
1 0.51664 0
0.0747387 0.144274 0.100984
0.126986 0.150744 0.0981613
0.208896 0.153262 0.0440986
0.355657 0.157092 0
0.517891 0.210376 0
0.689799 0.282017 0
0.852476 0.354635 0
0.990082 0.418097 0
1 0.464591 0
0.201602 0.247471 0.164034
0.234989 0.260365 0.163821
0.276707 0.265644 0.134051
0.364034 0.265721 0.0572366
0.507729 0.265904 0
0.645014 0.301717 0
0.780484 0.353094 0
0.900359 0.404273 0
0.990158 0.445396 0
0.320363 0.360174 0.242405
0.347173 0.375647 0.249592
0.376913 0.384176 0.236851
0.425055 0.388785 0.210956
0.525414 0.39382 0.142443
0.662348 0.396582 0
0.781949 0.418845 0
0.889723 0.452338 0
0.974838 0.484871 0
0.432456 0.471595 0.327993
0.457343 0.489433 0.340047
0.483421 0.501839 0.33608
0.52105 0.510048 0.3243
0.591348 0.520272 0.289693
0.697154 0.528374 0.226764
0.826215 0.533165 0.0571298
0.933028 0.548821 0
1 0.570016 0
0.540017 0.580896 0.414511
0.565393 0.601724 0.429648
0.591562 0.617807 0.431968
0.627253 0.630014 0.42295
0.683818 0.64155 0.401144
0.766522 0.653727 0.35906
0.87306 0.662348 0.294118
0.989242 0.667979 0.156924
1 0.680003 0.0213626
0.642237 0.686229 0.497627
0.669032 0.710018 0.514946
0.696834 0.729259 0.520165
0.731517 0.743435 0.511391
0.781018 0.755352 0.495842
0.850492 0.767376 0.463188
0.937881 0.778637 0.417151
1 0.786099 0.352285
1 0.792447 0.25478
0.73225 0.779751 0.571145
0.759823 0.805097 0.589502
0.788342 0.825147 0.59501
0.82237 0.839796 0.585916
0.86807 0.851362 0.572839
0.930129 0.862516 0.544579
1 0.872694 0.502541
1 0.881086 0.45803
1 0.886381 0.398733
0.0408484 0.0867475 0.149248
0.0664225 0.0906386 0.149508
0.149828 0.114473 0.184924
0.372671 0.126558 0.129488
0.579522 0.198932 0.0235294
0.786786 0.297749 0
0.986984 0.39646 0
1 0.48333 0
1 0.547555 0
0.0322881 0.0996262 0.156008
0.068925 0.109606 0.155612
0.153903 0.13315 0.185916
0.359609 0.154681 0.139757
0.553964 0.221805 0.0655222
0.748638 0.307866 0
0.932754 0.394202 0
1 0.469734 0
1 0.524727 0
0 0.167742 0.208438
0.0432593 0.177966 0.207111
0.163714 0.179065 0.180545
0.314382 0.195743 0.149889
0.48397 0.244419 0.114107
0.661158 0.307164 0.056672
0.826337 0.372366 0
0.964797 0.431052 0
1 0.474769 0
0.148821 0.26038 0.225467
0.197498 0.272389 0.232181
0.251499 0.27538 0.223453
0.336446 0.28249 0.187213
0.486412 0.289921 0.100206
0.626566 0.324239 0.0428473
0.763287 0.371908 0
0.884016 0.420035 0
0.974655 0.45948 0
0.295171 0.367666 0.290028
0.329381 0.380987 0.301701
0.363622 0.390051 0.294194
0.414206 0.398978 0.270039
0.511925 0.407584 0.233463
0.652018 0.413382 0.124681
0.773281 0.436439 0.0420081
0.881621 0.469169 0
0.967453 0.501472 0
0.421332 0.475914 0.367376
0.448386 0.494087 0.379202
0.47631 0.507515 0.379339
0.516655 0.519234 0.36347
0.586679 0.531121 0.339071
0.690318 0.541222 0.297154
0.821225 0.548119 0.190082
0.928954 0.56466 0.0952468
1 0.586572 0.0310826
0.534676 0.585855 0.445686
0.560983 0.607462 0.461921
0.587991 0.624491 0.467948
0.625315 0.639078 0.455131
0.682017 0.651926 0.43975
0.764065 0.665248 0.406989
0.869154 0.675319 0.359258
0.986389 0.6822 0.259236
1 0.694636 0.18587
0.639979 0.692271 0.524941
0.666682 0.716731 0.544808
0.694621 0.736507 0.553658
0.730739 0.75285 0.541878
0.779858 0.765179 0.530083
0.849104 0.778027 0.503304
0.935729 0.78996 0.4654
1 0.798199 0.414023
1 0.804791 0.336004
0.730983 0.786526 0.598077
0.757534 0.812039 0.619898
0.786221 0.832654 0.629145
0.821302 0.848783 0.618097
0.866896 0.861036 0.605722
0.9281 0.872053 0.581201
1 0.88249 0.544701
1 0.89099 0.507271
1 0.896757 0.458854
0.070222 0.1729 0.277699
0.0997482 0.176516 0.276036
0.160006 0.193652 0.305791
0.289494 0.232181 0.339849
0.52961 0.263432 0.299611
0.770123 0.30634 0.190005
0.971405 0.393927 0.0691234
1 0.476936 0
1 0.539513 0
0.0611276 0.175418 0.272602
0.0964828 0.182925 0.273884
0.164248 0.199939 0.291569
0.288563 0.241047 0.335042
0.514473 0.272923 0.298939
0.735042 0.316701 0.21474
0.918761 0.393149 0.136873
1 0.464744 0.0509346
1 0.517952 0
0.032929 0.203861 0.293111
0.0847334 0.210086 0.287007
0.164752 0.216724 0.275029
0.269596 0.244907 0.308339
0.470741 0.269444 0.271855
0.651423 0.316716 0.222538
0.811063 0.379339 0.181277
0.945083 0.437736 0.145464
1 0.48188 0.122194
0 0.288121 0.341192
0.070222 0.302159 0.34789
0.176074 0.306294 0.338964
0.29366 0.309728 0.313558
0.438346 0.326528 0.290944
0.584787 0.360662 0.267872
0.725231 0.405844 0.250202
0.850477 0.449775 0.230228
0.943847 0.486793 0.218875
0.237171 0.38349 0.355428
0.276081 0.399725 0.37052
0.32163 0.407568 0.37409
0.384405 0.413382 0.368154
0.480369 0.427924 0.345296
0.623224 0.439567 0.293217
0.747234 0.464408 0.262196
0.857908 0.496712 0.242145
0.945068 0.528099 0.232837
0.388663 0.488502 0.409888
0.414221 0.508858 0.429282
0.449699 0.518975 0.445014
0.497917 0.529397 0.440635
0.567926 0.545541 0.417472
0.66807 0.559075 0.398199
0.802213 0.569116 0.330739
0.911559 0.587304 0.287907
0.996429 0.609735 0.265522
0.517189 0.59263 0.491127
0.543145 0.615671 0.514549
0.571313 0.632975 0.528176
0.611215 0.647715 0.522484
0.669062 0.664439 0.50219
0.74963 0.679133 0.480781
0.851759 0.691096 0.452201
0.971344 0.70016 0.381842
1 0.713695 0.33959
0.627131 0.698802 0.569909
0.653239 0.724376 0.595087
0.681468 0.744427 0.609216
0.718441 0.760204 0.604059
0.769345 0.776425 0.583963
0.837354 0.789975 0.565072
0.922789 0.802915 0.537133
1 0.812543 0.502098
1 0.820005 0.44271
0.719722 0.79353 0.643626
0.745205 0.819577 0.669352
0.773999 0.840162 0.682765
0.809964 0.856168 0.677287
0.856703 0.871183 0.655268
0.91693 0.882612 0.636988
0.99234 0.893477 0.607843
1 0.902541 0.579278
1 0.908843 0.543725
0.125582 0.271183 0.42118
0.150362 0.273671 0.420035
0.206119 0.286854 0.428565
0.290288 0.316197 0.486976
0.446464 0.363485 0.508568
0.684382 0.406638 0.477592
0.948272 0.418585 0.371328
1 0.484535 0.294667
1 0.540185 0.234867
0.114717 0.266972 0.408637
0.145312 0.272312 0.409659
0.202106 0.283909 0.414023
0.288594 0.315068 0.468116
0.438224 0.363363 0.495277
0.65716 0.404685 0.467567
0.897734 0.416907 0.378073
1 0.473365 0.318349
1 0.52018 0.276844
0.086656 0.264424 0.389731
0.127993 0.272145 0.391165
0.186984 0.278645 0.385901
0.269871 0.300175 0.409995
0.401556 0.345403 0.449363
0.593729 0.381689 0.425422
0.796536 0.399527 0.361913
0.93254 0.446952 0.324102
1 0.486503 0.301869
0.0452125 0.326833 0.448295
0.112337 0.335195 0.445991
0.196826 0.331426 0.417746
0.291066 0.340948 0.401373
0.395377 0.369299 0.432822
0.562814 0.394385 0.408591
0.723461 0.420798 0.373999
0.846372 0.461219 0.355352
0.937606 0.497383 0.347845
0.0801404 0.413367 0.47509
0.160861 0.43032 0.487221
0.235447 0.439246 0.487831
0.323201 0.445777 0.480064
0.441733 0.45655 0.461387
0.573678 0.475212 0.447974
0.700725 0.50277 0.434256
0.814542 0.535561 0.426642
0.903578 0.566857 0.425956
0.311131 0.511177 0.49604
0.343679 0.532067 0.517464
0.383764 0.5458 0.529381
0.447379 0.554498 0.530922
0.533608 0.564843 0.525444
0.633127 0.583429 0.510521
0.767666 0.597513 0.472618
0.878157 0.618204 0.451591
0.964157 0.641413 0.442557
0.47866 0.610452 0.55288
0.504524 0.634897 0.579004
0.534096 0.653101 0.595926
0.574624 0.667384 0.599817
0.643854 0.678401 0.596582
0.724285 0.69749 0.573343
0.822278 0.712047 0.561563
0.94403 0.723262 0.512596
1 0.738598 0.488106
0.590036 0.717632 0.622232
0.616236 0.744106 0.650446
0.642496 0.765393 0.667704
0.691096 0.773693 0.68098
0.747906 0.787732 0.669947
0.816434 0.805325 0.645243
0.899992 0.819303 0.626566
0.993072 0.830793 0.607385
1 0.839597 0.563256
0.688167 0.809689 0.697749
0.711772 0.837064 0.724773
0.744762 0.855238 0.7458
0.786465 0.86714 0.752087
0.836469 0.880766 0.737148
0.897581 0.895994 0.70988
0.971054 0.907317 0.688701
1 0.917067 0.668315
1 0.9243 0.645731
0.18996 0.374304 0.571618
0.208057 0.37586 0.570291
0.249683 0.383871 0.574212
0.324926 0.411307 0.610254
0.437964 0.443351 0.674464
0.609476 0.498268 0.679484
0.825315 0.547066 0.656336
1 0.536355 0.564019
1 0.566476 0.503899
0.179095 0.364797 0.552651
0.2009 0.368109 0.552361
0.243503 0.374762 0.55288
0.319753 0.399847 0.581384
0.429145 0.433997 0.646769
0.589715 0.486885 0.653407
0.783383 0.531624 0.632074
1 0.524651 0.554513
1 0.545846 0.501915
0.149905 0.345357 0.513161
0.178424 0.350637 0.513436
0.222614 0.353643 0.506523
0.298177 0.369268 0.511147
0.392844 0.401785 0.573266
0.535744 0.451286 0.588785
0.702327 0.491493 0.572351
0.898146 0.491356 0.51545
1 0.510735 0.479332
0.128649 0.366751 0.518471
0.169039 0.373114 0.51548
0.222705 0.374594 0.500801
0.300725 0.385519 0.49366
0.389227 0.409262 0.521477
0.509972 0.450965 0.552621
0.65684 0.486183 0.541207
0.829572 0.493187 0.502739
0.929274 0.519432 0.486442
0.10341 0.448051 0.585412
0.168688 0.461997 0.591806
0.238788 0.465751 0.580163
0.337987 0.46685 0.551369
0.438865 0.482673 0.538705
0.536492 0.511528 0.57052
0.67512 0.537652 0.557763
0.816007 0.555444 0.536294
0.907851 0.583062 0.53077
0.20676 0.538933 0.608133
0.257221 0.559869 0.626535
0.311757 0.574212 0.635843
0.386145 0.584665 0.636164
0.483375 0.596567 0.630961
0.598108 0.612009 0.618112
0.719234 0.631495 0.610254
0.82948 0.655131 0.602152
0.916503 0.679759 0.600793
0.383871 0.640604 0.642145
0.413809 0.665461 0.668116
0.450004 0.684092 0.685466
0.504097 0.697185 0.692485
0.588067 0.707591 0.691447
0.686107 0.719463 0.684092
0.784833 0.738018 0.672801
0.90544 0.752056 0.643931
0.993027 0.769345 0.63238
0.539879 0.738186 0.702113
0.564889 0.765866 0.731243
0.596963 0.786068 0.750561
0.644877 0.798566 0.757748
0.708156 0.809689 0.756924
0.785473 0.821256 0.749294
0.869245 0.839841 0.725689
0.957626 0.85304 0.718853
1 0.863554 0.687175
0.651576 0.828199 0.76817
0.675258 0.855665 0.797177
0.706203 0.876097 0.816098
0.74699 0.889311 0.822629
0.793179 0.902663 0.817639
0.86894 0.909224 0.808713
0.94255 0.924743 0.780636
1 0.935225 0.766094
1 0.943435 0.75494
0.252857 0.475593 0.719387
0.266758 0.476249 0.717403
0.298863 0.480842 0.718135
0.369421 0.503166 0.736095
0.461143 0.537316 0.795666
0.592538 0.565423 0.855146
0.765469 0.626001 0.840162
0.939849 0.671763 0.826688
1 0.676509 0.774884
0.240803 0.461326 0.69424
0.25713 0.462715 0.692134
0.28983 0.465599 0.689143
0.359411 0.483955 0.700038
0.448188 0.516457 0.755184
0.572732 0.545251 0.813352
0.730571 0.601129 0.797711
0.883207 0.640864 0.784329
1 0.646265 0.739132
0.209186 0.429511 0.638941
0.229572 0.431571 0.63595
0.263325 0.431067 0.626062
0.326894 0.44033 0.623056
0.408209 0.466606 0.662669
0.520623 0.498482 0.722805
0.65948 0.549706 0.714961
0.78996 0.585992 0.707073
0.924453 0.595895 0.675395
0.184344 0.42153 0.605814
0.211597 0.426825 0.603647
0.252766 0.429236 0.594018
0.319524 0.437049 0.58584
0.402838 0.457115 0.59826
0.498177 0.488579 0.659236
0.621851 0.535348 0.667338
0.740001 0.571801 0.666819
0.864256 0.587213 0.648814
0.178347 0.47924 0.651499
0.217823 0.48864 0.651194
0.272725 0.489494 0.632898
0.352972 0.496162 0.61619
0.442222 0.514717 0.614145
0.529625 0.54136 0.647486
0.637263 0.580118 0.675532
0.749355 0.613794 0.675532
0.870115 0.628809 0.663722
0.194461 0.568093 0.710277
0.242573 0.587854 0.725643
0.298634 0.600397 0.729946
0.382544 0.607965 0.720867
0.49482 0.615839 0.696681
0.595865 0.635019 0.687221
0.686625 0.663417 0.719326
0.800427 0.689235 0.714183
0.916777 0.70135 0.702098
0.306188 0.666102 0.744533
0.344564 0.69102 0.768811
0.390585 0.709865 0.784665
0.456596 0.723095 0.790158
0.543053 0.735348 0.789136
0.642908 0.749294 0.78436
0.752209 0.765515 0.77322
0.858732 0.783658 0.768673
0.944167 0.803098 0.766003
0.451057 0.768063 0.790555
0.479591 0.795789 0.819623
0.515908 0.816373 0.838972
0.568276 0.829831 0.846784
0.638621 0.841367 0.848051
0.726238 0.852171 0.844099
0.827955 0.86363 0.833066
0.918944 0.878645 0.824628
1 0.890715 0.805753
0.559548 0.859129 0.851743
0.58439 0.886854 0.881056
0.61825 0.907546 0.900572
0.670008 0.919371 0.907393
0.739956 0.927138 0.906081
0.823407 0.933227 0.898466
0.907073 0.941756 0.88719
0.985321 0.956436 0.864378
1 0.965301 0.861128
0.307927 0.564477 0.849042
0.319142 0.564248 0.846204
0.345174 0.566461 0.844465
0.402213 0.582528 0.856565
0.492622 0.615915 0.899001
0.603616 0.647898 0.961105
0.745953 0.677623 0.999008
0.899992 0.733623 0.973144
1 0.756634 0.971725
0.294316 0.546029 0.818235
0.307042 0.545663 0.814176
0.33315 0.545617 0.808026
0.390265 0.55758 0.812665
0.475608 0.586313 0.848173
0.580514 0.616953 0.906767
0.711986 0.646052 0.938689
0.848371 0.694606 0.913298
0.961242 0.711955 0.910353
0.259617 0.504417 0.749889
0.274846 0.50367 0.743648
0.301518 0.500008 0.730465
0.355047 0.504265 0.722606
0.432074 0.52459 0.742611
0.525811 0.555001 0.799008
0.6439 0.586572 0.833158
0.7635 0.631281 0.816907
0.863218 0.648875 0.819745
0.228717 0.477852 0.692699
0.249424 0.481163 0.689021
0.282918 0.481498 0.678096
0.341268 0.486259 0.66775
0.422965 0.503349 0.669032
0.502892 0.531334 0.72192
0.610178 0.566247 0.768978
0.721294 0.611307 0.765942
0.815625 0.634058 0.776974
0.222431 0.508354 0.702464
0.251087 0.516701 0.7019
0.297337 0.52018 0.689387
0.367147 0.529702 0.681208
0.450629 0.547555 0.680781
0.535683 0.573404 0.70457
0.627039 0.604501 0.765332
0.731991 0.648203 0.770764
0.82034 0.674861 0.783673
0.232746 0.594568 0.775876
0.270695 0.611627 0.78703
0.324269 0.620111 0.782147
0.409247 0.625132 0.76321
0.505776 0.637125 0.747326
0.597345 0.659388 0.748684
0.680751 0.686381 0.785046
0.774899 0.721096 0.80943
0.8551 0.749065 0.81767
0.281895 0.690257 0.832105
0.320378 0.71487 0.855268
0.368505 0.733242 0.86949
0.439796 0.74583 0.872587
0.535836 0.756527 0.865476
0.65153 0.7664 0.842939
0.750683 0.785122 0.832242
0.830854 0.810483 0.861097
0.91281 0.833738 0.862013
0.391058 0.790707 0.878828
0.423636 0.818357 0.907103
0.466178 0.838972 0.925566
0.526833 0.852445 0.932403
0.605829 0.863935 0.93257
0.697398 0.875319 0.927993
0.794156 0.888457 0.921584
0.890578 0.902678 0.911116
0.971664 0.917311 0.909499
0.502373 0.882445 0.930709
0.529351 0.910048 0.959762
0.567468 0.930678 0.978805
0.61941 0.94342 0.985855
0.687053 0.952895 0.985473
0.767208 0.961181 0.979736
0.853651 0.969863 0.971222
0.948013 0.976928 0.959014
1 0.987625 0.950927
0.349264 0.631174 0.946334
0.358907 0.630411 0.942916
0.381323 0.631052 0.939406
0.430335 0.643412 0.947814
0.521111 0.674479 0.976959
0.619364 0.70724 1
0.743206 0.731258 1
0.883421 0.771771 1
0.996201 0.809552 1
0.334356 0.609628 0.911192
0.344854 0.607904 0.905486
0.366827 0.605707 0.896834
0.41622 0.613565 0.897108
0.500862 0.638743 0.918608
0.59292 0.668238 0.97409
0.707118 0.690349 1
0.832624 0.727398 1
0.930236 0.75877 0.99147
0.29688 0.560876 0.833082
0.30901 0.557992 0.824186
0.331167 0.551904 0.808209
0.378363 0.552789 0.79678
0.4542 0.5691 0.803983
0.535561 0.595743 0.853773
0.639109 0.62118 0.90222
0.751278 0.659022 0.900557
0.838544 0.68983 0.888991
0.261646 0.522972 0.761074
0.278569 0.524346 0.755322
0.307271 0.522377 0.741894
0.360265 0.525017 0.729717
0.437278 0.53933 0.72755
0.512489 0.564446 0.769329
0.608042 0.595819 0.826673
0.713359 0.6365 0.840574
0.798383 0.671077 0.841367
0.250599 0.535622 0.746944
0.274418 0.543511 0.746715
0.316487 0.548287 0.737545
0.381323 0.558663 0.732555
0.460548 0.575341 0.732128
0.54519 0.600549 0.749996
0.628275 0.6318 0.808774
0.725948 0.670161 0.840345
0.80914 0.705791 0.847349
0.263142 0.612711 0.813275
0.294636 0.628016 0.821958
0.347265 0.635615 0.814054
0.426139 0.643091 0.799039
0.513161 0.657984 0.791714
0.60177 0.680873 0.796063
0.683986 0.70811 0.82652
0.768643 0.738964 0.875257
0.848646 0.772717 0.883314
0.293431 0.710552 0.888243
0.328862 0.734493 0.910323
0.377722 0.751537 0.921386
0.453056 0.761868 0.918166
0.554452 0.769772 0.900618
0.661601 0.781323 0.879057
0.751812 0.802853 0.87837
0.82652 0.826856 0.912398
0.899611 0.854688 0.930724
0.365652 0.809415 0.946334
0.398703 0.837049 0.974334
0.442924 0.857481 0.992233
0.506493 0.870848 0.99855
0.589609 0.881987 0.997574
0.688289 0.892454 0.989487
0.799039 0.902205 0.969116
0.890028 0.917586 0.955627
0.950805 0.936721 0.978088
0.461524 0.90016 0.998108
0.49044 0.927749 1
0.532296 0.948318 1
0.589548 0.961212 1
0.662531 0.970184 1
0.747921 0.978119 1
0.837858 0.986343 1
0.92282 0.995666 1
0.995193 1 1
