luts/Bat-Slog3.cube
TITLE "Generated by Resolve"
LUT_3D_SIZE 5
0.0302129 0.0325017 0.0217594
0.125216 0.0353246 0
0.519219 0.158648 0
1 0.410864 0
1 0.538766 0
0.0639963 0.0786908 0.0267948
0.152621 0.0823224 0
0.480308 0.170397 0
0.961364 0.382315 0
1 0.490486 0
0.287037 0.314336 0.173358
0.322271 0.329488 0.17113
0.4663 0.33228 0.0269627
0.80029 0.382849 0
0.973022 0.453483 0
0.564981 0.60177 0.418143
0.597086 0.627237 0.434607
0.675898 0.654505 0.417716
0.904646 0.681224 0.281727
1 0.695155 0.0158846
0.732815 0.77702 0.560342
0.767163 0.807324 0.58053
0.843107 0.839063 0.566354
1 0.866789 0.47512
1 0.87866 0.374868
0.035996 0.0571756 0.083711
0.0851301 0.0679789 0.106493
0.507881 0.164675 0
1 0.421454 0
1 0.545998 0
0 0.105562 0.133913
0.0999008 0.112902 0.111589
0.457359 0.199344 0.0321508
0.938216 0.396536 0
1 0.497902 0
0.270024 0.321202 0.236255
0.311223 0.337423 0.23592
0.455299 0.34902 0.153582
0.795682 0.401541 0
0.96907 0.468986 0
0.56556 0.609949 0.447562
0.599207 0.636423 0.463722
0.681743 0.666499 0.444755
0.910216 0.695537 0.33019
1 0.710475 0.13814
0.737057 0.78674 0.583566
0.771557 0.817456 0.605142
0.849363 0.851102 0.590845
1 0.878676 0.507729
1 0.890684 0.420218
0.104967 0.232792 0.363622
0.152407 0.239841 0.364431
0.385916 0.313909 0.443427
0.996139 0.421439 0.25359
1 0.536751 0.114305
0.0852979 0.23003 0.347051
0.141909 0.239048 0.347234
0.366827 0.310048 0.416907
0.900206 0.409308 0.276143
1 0.501595 0.204135
0.0485389 0.367208 0.424964
0.1626 0.384436 0.433417
0.382757 0.398138 0.402609
0.729656 0.467308 0.361883
0.910658 0.530343 0.352743
0.518135 0.633417 0.541131
0.550607 0.66302 0.571237
0.653437 0.690166 0.582254
0.873793 0.730632 0.528908
1 0.750896 0.447135
0.709377 0.804776 0.68304
0.741939 0.836698 0.7149
0.82565 0.870863 0.712444
0.997696 0.903807 0.649927
1 0.917952 0.604791
0.267185 0.495583 0.747646
0.289845 0.496849 0.744732
0.43006 0.541283 0.79205
0.794553 0.649943 0.868544
1 0.70132 0.821942
0.243061 0.467308 0.699474
0.268696 0.467704 0.693278
0.402213 0.49836 0.715267
0.727016 0.600107 0.789273
0.964187 0.644511 0.750637
0.195071 0.458198 0.637751
0.238056 0.464714 0.630152
0.391135 0.485618 0.612009
0.647837 0.572824 0.688914
0.843976 0.622812 0.683864
0.331395 0.697536 0.778027
0.379812 0.72842 0.80795
0.521599 0.759564 0.822568
0.784039 0.797131 0.805081
0.950301 0.828916 0.799069
0.551064 0.868788 0.873533
0.585336 0.902022 0.908049
0.690089 0.931899 0.926375
0.915663 0.949142 0.903746
1 0.97026 0.882612
0.349966 0.629725 0.94342
0.36643 0.628611 0.937972
0.483833 0.658656 0.957046
0.769162 0.731685 1
0.989715 0.804623 1
0.321462 0.590265 0.879973
0.338674 0.586038 0.868345
0.44921 0.599878 0.860746
0.702602 0.664103 0.978561
0.888609 0.72694 0.945068
0.254124 0.523079 0.741604
0.284138 0.528588 0.735592
0.414588 0.546929 0.72137
0.636194 0.618265 0.822171
0.800412 0.687449 0.840253
0.310719 0.735729 0.905272
0.357885 0.765911 0.933211
0.517449 0.792767 0.934188
0.783246 0.828824 0.895903
0.911086 0.87303 0.941436
0.465919 0.904418 1
0.506065 0.93753 1
0.63241 0.966934 1
0.856962 0.98822 1
0.995193 1 1
