luts/Bat-CLog.cube
TITLE "Generated by Resolve"
LUT_3D_SIZE 33
0.024094 0.0297398 0.0202182
0.024094 0.0297398 0.0202182
0.0430152 0.0301518 0.0157168
0.0717327 0.0301976 0.00772107
0.105013 0.0302586 0
0.144198 0.0320439 0
0.184482 0.0356756 0
0.225071 0.0411231 0
0.266148 0.0491493 0
0.307256 0.0599527 0
0.348745 0.0735943 0
0.38996 0.0898146 0
0.431708 0.109361 0
0.473579 0.129992 0
0.51548 0.150637 0
0.558083 0.171664 0
0.601099 0.191959 0
0.644038 0.211398 0
0.686839 0.231968 0
0.729671 0.252598 0
0.773373 0.273579 0
0.817533 0.294804 0
0.862165 0.316197 0
0.907317 0.337804 0
0.952636 0.359472 0
0.999008 0.381689 0
1 0.404181 0
1 0.426795 0
1 0.44979 0
1 0.473213 0
1 0.496696 0
1 0.520058 0
1 0.54023 0
0.0240177 0.0301976 0.0207523
0.0239872 0.0298619 0.0203708
0.0436255 0.0301518 0.0155337
0.0725719 0.0301976 0.00747692
0.105882 0.0302739 0
0.144961 0.0320897 0
0.185199 0.0357366 0
0.225681 0.0412146 0
0.266697 0.0492714 0
0.307729 0.0601053 0
0.349172 0.0737469 0
0.390326 0.0899672 0
0.432029 0.109529 0
0.473793 0.130098 0
0.515724 0.150774 0
0.558297 0.171771 0
0.601297 0.192035 0
0.644205 0.21149 0
0.686976 0.232044 0
0.729809 0.252659 0
0.773495 0.27364 0
0.817639 0.29485 0
0.862257 0.316243 0
0.907393 0.337835 0
0.952712 0.359503 0
0.999069 0.38172 0
1 0.404196 0
1 0.42681 0
1 0.449805 0
1 0.473228 0
1 0.496712 0
1 0.520058 0
1 0.54023 0
0.0312047 0.0409705 0.021912
0.0310521 0.0406958 0.0218967
0.049012 0.0407568 0.0129702
0.0791638 0.0386969 0.00375372
0.110903 0.0393072 0
0.147402 0.0413519 0
0.186481 0.0456245 0
0.226383 0.0521706 0
0.266957 0.0610361 0
0.307698 0.0721752 0
0.348928 0.0859388 0
0.389975 0.102083 0
0.431586 0.120836 0
0.473365 0.139757 0
0.515343 0.15877 0
0.558251 0.177157 0
0.601404 0.194812 0
0.643824 0.214069 0
0.686595 0.233402 0
0.729793 0.252979 0
0.773587 0.273686 0
0.817731 0.294896 0
0.862333 0.316274 0
0.907469 0.337865 0
0.952773 0.359533 0
0.999115 0.38175 0
1 0.404227 0
1 0.426841 0
1 0.449821 0
1 0.473243 0
1 0.496727 0
1 0.520073 0
1 0.54023 0
0.043183 0.055314 0.0229038
0.0434119 0.0549935 0.0226444
0.0607614 0.0579232 0.0144503
0.0923171 0.0570535 0
0.128237 0.0525978 0
0.155962 0.0527352 0
0.188296 0.0561227 0
0.223865 0.0621805 0
0.261479 0.0708171 0
0.300359 0.0820783 0
0.340352 0.0960098 0
0.380362 0.112367 0
0.421332 0.130007 0
0.462394 0.14786 0
0.504524 0.164935 0
0.548074 0.180468 0
0.591699 0.197223 0
0.634409 0.216846 0
0.677684 0.236561 0
0.721675 0.256596 0
0.766827 0.277073 0
0.812467 0.297459 0
0.859068 0.318181 0
0.905882 0.338643 0
0.952834 0.359564 0
0.999176 0.381765 0
1 0.404242 0
1 0.426856 0
1 0.449836 0
1 0.473259 0
1 0.496742 0
1 0.520088 0
1 0.54023 0
0.0552987 0.0709392 0.0225834
0.0560464 0.0707561 0.0219272
0.0745251 0.0756695 0.0150759
0.101732 0.076936 0.00134279
0.138109 0.0746471 0
0.169635 0.0692302 0
0.195895 0.0693065 0
0.225727 0.0731975 0
0.258671 0.080415 0
0.293858 0.0906081 0
0.330892 0.103487 0
0.368826 0.118944 0
0.407797 0.135012 0
0.44712 0.151659 0
0.487816 0.168078 0
0.530114 0.18262 0
0.573175 0.197513 0
0.616251 0.213153 0
0.658213 0.232563 0
0.700862 0.252232 0
0.745052 0.272541 0
0.790417 0.293263 0
0.837446 0.314595 0
0.886519 0.336706 0
0.936934 0.359045 0
0.989029 0.381811 0
1 0.404578 0
1 0.426871 0
1 0.449851 0
1 0.473274 0
1 0.496757 0
1 0.520104 0
1 0.54023 0
0.0704814 0.0901503 0.0242466
0.0719005 0.0901656 0.0233463
0.0918288 0.0970779 0.0178988
0.117205 0.0992447 0.00657664
0.146044 0.0987564 0
0.17586 0.0946975 0
0.206088 0.0881666 0
0.231479 0.0880751 0
0.259785 0.0925002 0
0.290852 0.100587 0
0.324437 0.112169 0
0.359365 0.125292 0
0.395712 0.139681 0
0.432792 0.154833 0
0.471183 0.170977 0
0.511864 0.184451 0
0.553002 0.198276 0
0.59501 0.212512 0
0.637293 0.227054 0
0.677958 0.245792 0
0.720012 0.265217 0
0.763073 0.284993 0
0.807614 0.305409 0
0.853941 0.326574 0
0.902144 0.348486 0
0.953506 0.371679 0
1 0.395987 0
1 0.421653 0
1 0.4477 0
1 0.472938 0
1 0.496773 0
1 0.520119 0
1 0.54023 0
0.090425 0.114672 0.0292515
0.0926528 0.114992 0.0280613
0.114397 0.123369 0.0239109
0.136614 0.126299 0.0149691
0.159884 0.12665 0
0.184375 0.124743 0
0.210803 0.120287 0
0.241398 0.112947 0
0.265827 0.112459 0
0.2925 0.116442 0
0.321996 0.124147 0
0.353292 0.134096 0
0.38645 0.145846 0
0.420996 0.159258 0
0.456886 0.173617 0
0.49546 0.186496 0
0.534768 0.199313 0
0.574792 0.212512 0
0.615305 0.225986 0
0.656153 0.240116 0
0.695964 0.258412 0
0.736629 0.277058 0
0.7785 0.296254 0
0.82179 0.316075 0
0.866545 0.336492 0
0.914092 0.358129 0
0.964294 0.38085 0
1 0.404959 0
1 0.430976 0
1 0.459495 0
1 0.490135 0
1 0.51899 0
1 0.54023 0
0.115419 0.140826 0.038056
0.118471 0.141451 0.0367437
0.138811 0.150072 0.0343481
0.158175 0.15346 0.0268406
0.177249 0.153979 0.0129397
0.19733 0.15317 0
0.21825 0.150851 0
0.244923 0.1467 0
0.275624 0.139727 0
0.299214 0.138994 0
0.324666 0.142184 0
0.352422 0.148791 0
0.382132 0.157519 0
0.413352 0.168032 0
0.446662 0.17998 0
0.482506 0.190524 0
0.519707 0.201816 0
0.557458 0.213565 0
0.595941 0.225803 0
0.634958 0.238483 0
0.674022 0.253117 0
0.712352 0.270542 0
0.751812 0.288579 0
0.79237 0.307012 0
0.833982 0.325948 0
0.877714 0.345846 0
0.923705 0.366766 0
0.972107 0.388647 0
1 0.412055 0
1 0.437751 0
1 0.465843 0
1 0.497124 0
1 0.529412 0
0.141238 0.166949 0.0502785
0.1449 0.167971 0.0489662
0.163653 0.17673 0.0485084
0.180758 0.180438 0.0420386
0.197024 0.181262 0.0300603
0.213672 0.180926 0.0144808
0.230701 0.17966 0
0.251698 0.177493 0
0.278386 0.173449 0
0.309026 0.166751 0
0.331884 0.165911 0
0.356451 0.168795 0
0.382727 0.174243 0
0.410605 0.181903 0
0.442542 0.189715 0
0.475624 0.198306 0
0.510048 0.207843 0
0.545022 0.217914 0
0.581033 0.228611 0
0.617777 0.23978 0
0.655451 0.25153 0
0.691524 0.267079 0
0.72842 0.283375 0
0.766217 0.300252 0
0.804944 0.317693 0
0.845533 0.336034 0
0.887968 0.35523 0
0.931823 0.375067 0
0.978714 0.396201 0
1 0.418845 0
1 0.443275 0
1 0.469993 0
1 0.497566 0
0.166918 0.192966 0.0661173
0.170962 0.194232 0.0646525
0.188663 0.203281 0.0664683
0.203952 0.207034 0.0604868
0.218219 0.208347 0.0507973
0.232349 0.208438 0.0374456
0.246662 0.207568 0.0213016
0.262898 0.206088 0.00189212
0.284459 0.203952 0
0.311055 0.200259 0
0.341817 0.193988 0
0.364294 0.193225 0
0.389044 0.19472 0
0.416007 0.198383 0
0.444465 0.203479 0
0.474464 0.209918 0
0.50605 0.217533 0
0.538201 0.225818 0
0.571588 0.234897 0
0.605829 0.244511 0
0.641199 0.25481 0
0.675013 0.268009 0
0.70956 0.282643 0
0.745007 0.297887 0
0.780926 0.313375 0
0.818433 0.329809 0
0.857527 0.347112 0
0.89781 0.365011 0
0.940169 0.383902 0
0.985306 0.40412 0
1 0.425681 0
1 0.448676 0
1 0.471336 0
0.192187 0.218662 0.0851606
0.19675 0.220523 0.0846265
0.213855 0.229725 0.0881056
0.227527 0.233417 0.0824292
0.239994 0.234775 0.0742504
0.252216 0.235126 0.0627451
0.264439 0.234699 0.0487221
0.27747 0.233692 0.0321965
0.294865 0.232349 0.00991836
0.31696 0.230625 0
0.343053 0.227436 0
0.374151 0.221607 0
0.401724 0.218173 0
0.42623 0.218875 0
0.451835 0.221332 0
0.47924 0.225589 0
0.507485 0.230945 0
0.537209 0.237446 0
0.567834 0.244739 0
0.599527 0.25275 0
0.631907 0.262135 0
0.663279 0.273808 0
0.695537 0.286503 0
0.728695 0.299962 0
0.762203 0.313695 0
0.797253 0.328481 0
0.833295 0.343847 0
0.87042 0.359716 0
0.909255 0.376593 0
0.950072 0.394415 0
0.99266 0.413108 0
1 0.433112 0
1 0.452186 0
0.217014 0.243961 0.107393
0.222553 0.246784 0.108553
0.238544 0.255528 0.112306
0.25124 0.259495 0.10782
0.262242 0.260822 0.101305
0.272725 0.261112 0.0908064
0.283177 0.260838 0.0784772
0.294118 0.260395 0.0650339
0.308278 0.259648 0.0466621
0.326421 0.258595 0.0232242
0.348409 0.257038 0
0.374243 0.254704 0
0.404913 0.249836 0
0.433661 0.24622 0
0.461311 0.24477 0
0.488136 0.245106 0
0.514229 0.248066 0
0.541466 0.252644 0
0.569451 0.258122 0
0.597772 0.265827 0
0.626596 0.274449 0
0.656077 0.284306 0
0.686275 0.294896 0
0.717433 0.306538 0
0.748821 0.318532 0
0.781659 0.331609 0
0.815351 0.345312 0
0.849958 0.359518 0
0.885771 0.374533 0
0.923308 0.390433 0
0.962081 0.406989 0
1 0.424369 0
1 0.44062 0
0.241672 0.269108 0.129778
0.247807 0.272526 0.131868
0.263188 0.281163 0.136065
0.274525 0.284825 0.13167
0.284352 0.286168 0.126787
0.293721 0.286702 0.1196
0.302876 0.286656 0.110399
0.312093 0.286213 0.0991684
0.323873 0.285786 0.0835279
0.339208 0.28542 0.0636912
0.357992 0.284947 0.040116
0.380056 0.283742 0.0126497
0.404807 0.281773 0
0.43566 0.277821 0
0.464347 0.274662 0
0.491753 0.273228 0
0.518441 0.273564 0
0.544533 0.275502 0
0.571069 0.279362 0
0.597696 0.284413 0
0.625147 0.291127 0
0.652995 0.298741 0
0.681666 0.307683 0
0.710811 0.31725 0
0.740597 0.32781 0
0.771389 0.339025 0
0.803067 0.351095 0
0.835538 0.363714 0
0.869078 0.377157 0
0.904204 0.391516 0
0.940032 0.406256 0
0.97705 0.421851 0
1 0.435966 0
0.266041 0.293965 0.152148
0.273045 0.298222 0.155474
0.28716 0.306065 0.158587
0.297368 0.309422 0.153979
0.306233 0.310842 0.150668
0.314702 0.311543 0.145541
0.322957 0.311742 0.138949
0.331243 0.311772 0.131472
0.341344 0.311574 0.120546
0.35436 0.311406 0.105043
0.370398 0.311284 0.084062
0.389776 0.311223 0.059968
0.411551 0.310521 0.0333867
0.435889 0.30901 0.00622568
0.466499 0.305684 0
0.494972 0.302953 0
0.522087 0.301595 0
0.548486 0.301976 0
0.574456 0.303548 0
0.600626 0.306874 0
0.626795 0.311238 0
0.653452 0.316976 0
0.680552 0.323873 0
0.7084 0.331838 0
0.73669 0.340642 0
0.765942 0.350317 0
0.795926 0.36083 0
0.826749 0.372045 0
0.858396 0.383963 0
0.891554 0.396872 0
0.9252 0.410163 0
0.959945 0.424353 0
0.991012 0.437049 0
0.289799 0.318242 0.173816
0.29749 0.323186 0.177768
0.310536 0.330327 0.179934
0.320256 0.333928 0.175998
0.328511 0.335531 0.173968
0.336187 0.336355 0.170306
0.343587 0.336675 0.165423
0.350851 0.336721 0.159701
0.359762 0.336767 0.151858
0.371359 0.337148 0.141344
0.385382 0.337285 0.126513
0.402075 0.337407 0.10721
0.421607 0.337636 0.0831922
0.443412 0.337209 0.0567178
0.467567 0.33608 0.0296483
0.497795 0.333349 0
0.525841 0.331136 0
0.552682 0.329946 0
0.57908 0.330266 0
0.604852 0.331594 0
0.630793 0.334524 0
0.656611 0.338369 0
0.682872 0.343511 0
0.709606 0.349752 0
0.736461 0.356771 0
0.764584 0.365057 0
0.793225 0.373968 0
0.822721 0.383917 0
0.852888 0.3944 0
0.88452 0.406012 0
0.916533 0.418021 0
0.949706 0.431067 0
0.97879 0.442512 0
0.31284 0.341878 0.194491
0.321416 0.347631 0.199115
0.334051 0.354635 0.201358
0.343008 0.358099 0.198108
0.350668 0.359915 0.196506
0.357809 0.360891 0.193973
0.364599 0.361425 0.190478
0.371176 0.361639 0.186206
0.379202 0.361852 0.180209
0.38938 0.362203 0.171969
0.402136 0.362875 0.161364
0.416922 0.363363 0.147509
0.434119 0.363745 0.12987
0.453712 0.364019 0.108309
0.475471 0.364019 0.0828107
0.499336 0.363226 0.0556344
0.529107 0.361059 0.00918593
0.557198 0.359182 0
0.58407 0.358175 0
0.610437 0.358511 0
0.635996 0.359701 0
0.661768 0.362325 0
0.687404 0.365774 0
0.713497 0.37052 0
0.739757 0.376165 0
0.76669 0.382696 0
0.794339 0.390387 0
0.822599 0.398733 0
0.851911 0.408209 0
0.882048 0.418296 0
0.913115 0.429435 0
0.944808 0.441154 0
0.972793 0.45182 0
0.335378 0.365057 0.214557
0.345174 0.371801 0.220111
0.357198 0.378485 0.222187
0.365637 0.381994 0.219944
0.372793 0.383917 0.218296
0.379339 0.385031 0.216556
0.385611 0.385733 0.214069
0.391791 0.386267 0.211078
0.399374 0.386801 0.206561
0.408652 0.38732 0.200092
0.419944 0.3879 0.19144
0.433524 0.388876 0.181079
0.449042 0.389593 0.167666
0.466651 0.390234 0.151476
0.486503 0.390875 0.132677
0.50782 0.391058 0.111177
0.531655 0.390463 0.0834821
0.561212 0.388678 0.0347753
0.58912 0.387152 0
0.616083 0.386465 0
0.64239 0.386786 0
0.668086 0.387869 0
0.693797 0.390295 0
0.719295 0.393454 0
0.745281 0.39794 0
0.771603 0.403098 0
0.798413 0.409232 0
0.826139 0.416571 0
0.8542 0.424506 0
0.883711 0.433692 0
0.91368 0.443488 0
0.944472 0.454246 0
0.971572 0.464057 0
0.357443 0.387762 0.234211
0.369085 0.396063 0.241291
0.380529 0.402487 0.24329
0.388373 0.405905 0.241627
0.395148 0.408057 0.239979
0.401312 0.409308 0.238926
0.407111 0.410147 0.23714
0.412802 0.410742 0.234775
0.419821 0.411383 0.231128
0.428748 0.412329 0.2262
0.439124 0.413153 0.219409
0.451331 0.414008 0.210636
0.465583 0.415045 0.200046
0.481727 0.416098 0.187335
0.499641 0.416922 0.172229
0.519524 0.417899 0.155657
0.540841 0.418235 0.136706
0.564721 0.417853 0.111925
0.593988 0.416434 0.0617685
0.62179 0.415167 0.0161593
0.648951 0.414878 0
0.675151 0.415076 0
0.700969 0.416144 0
0.726833 0.418479 0
0.752438 0.421439 0
0.77847 0.425498 0
0.804898 0.430533 0
0.831891 0.436377 0
0.85977 0.443473 0
0.888334 0.45127 0
0.917601 0.460075 0
0.947982 0.470024 0
0.974075 0.478813 0
0.379705 0.410651 0.254139
0.392966 0.420279 0.262272
0.403754 0.426383 0.264103
0.411093 0.429679 0.262867
0.417441 0.431922 0.261036
0.42327 0.433387 0.260594
0.428885 0.434577 0.259632
0.434379 0.435355 0.257877
0.441093 0.436164 0.254902
0.449271 0.436988 0.250553
0.45922 0.438224 0.245258
0.470573 0.439277 0.238041
0.483619 0.440391 0.229191
0.498634 0.44181 0.218921
0.514992 0.442954 0.206683
0.533135 0.443946 0.192462
0.553201 0.445045 0.177005
0.574411 0.445609 0.160174
0.598428 0.445457 0.137209
0.627527 0.444343 0.0897383
0.655299 0.443336 0.0415198
0.682536 0.443198 0
0.708888 0.443473 0
0.734768 0.444587 0
0.760906 0.44686 0
0.786908 0.449699 0
0.813306 0.453758 0
0.839963 0.458503 0
0.867185 0.464195 0
0.895598 0.471199 0
0.924437 0.47895 0
0.954086 0.487755 0
0.980102 0.496117 0
0.40322 0.434363 0.27454
0.417258 0.4448 0.283314
0.427329 0.450584 0.285054
0.434195 0.453819 0.284153
0.440284 0.45626 0.282322
0.445701 0.45774 0.282155
0.450828 0.458885 0.281437
0.456275 0.459998 0.280247
0.462959 0.461097 0.277928
0.470771 0.462181 0.274434
0.479942 0.463264 0.269627
0.490822 0.464683 0.263813
0.502922 0.465934 0.256367
0.516518 0.467292 0.247578
0.532067 0.46891 0.237476
0.548913 0.470192 0.225467
0.567315 0.471336 0.211902
0.587488 0.472572 0.197482
0.608667 0.473259 0.182116
0.633265 0.473487 0.160128
0.661921 0.472404 0.11696
0.689708 0.471672 0.0673075
0.717113 0.471733 0.0221103
0.743511 0.47216 0
0.769818 0.473259 0
0.796368 0.475502 0
0.822599 0.478325 0
0.849668 0.482353 0
0.876768 0.487037 0
0.904524 0.492729 0
0.933272 0.499641 0
0.96289 0.507683 0
0.98819 0.515038 0
0.427863 0.459113 0.295949
0.441886 0.469657 0.304524
0.451026 0.474907 0.305882
0.457389 0.478019 0.305196
0.46334 0.480735 0.303914
0.468544 0.482444 0.303639
0.473396 0.483726 0.303304
0.478737 0.484871 0.302205
0.485145 0.486015 0.300221
0.492943 0.487449 0.297444
0.501701 0.488716 0.29337
0.511711 0.490059 0.288258
0.523354 0.491737 0.2822
0.536095 0.493172 0.27454
0.550286 0.494636 0.265583
0.566278 0.496391 0.255528
0.583459 0.49781 0.243793
0.602152 0.499168 0.230854
0.6224 0.500496 0.217182
0.643595 0.50135 0.202914
0.668528 0.50161 0.18088
0.697292 0.500755 0.140475
0.72517 0.500221 0.0931868
0.752575 0.500526 0.0454108
0.779477 0.501045 0.0010071
0.806256 0.502266 0
0.833066 0.504524 0
0.859998 0.507347 0
0.88751 0.511421 0
0.915343 0.516182 0
0.943771 0.522042 0
0.973114 0.529061 0
0.998581 0.535988 0
0.453101 0.484749 0.318364
0.466697 0.494728 0.325673
0.475303 0.499825 0.327062
0.48127 0.502892 0.326696
0.486671 0.505379 0.32549
0.491615 0.50721 0.324773
0.496437 0.508766 0.324865
0.501945 0.510231 0.324147
0.508278 0.511528 0.322393
0.515602 0.51284 0.319799
0.524239 0.514488 0.316564
0.533745 0.515938 0.312123
0.544503 0.517433 0.306584
0.556832 0.519295 0.300221
0.570153 0.520912 0.292424
0.584833 0.52253 0.283375
0.601236 0.524407 0.273335
0.618708 0.525933 0.261799
0.637858 0.527611 0.2495
0.658 0.528862 0.236194
0.679301 0.529839 0.222705
0.704753 0.530251 0.200397
0.73341 0.52958 0.162081
0.761471 0.529213 0.118441
0.789456 0.529564 0.0678721
0.81677 0.530221 0.0198672
0.843885 0.531716 0
0.871397 0.533959 0
0.898863 0.536904 0
0.926818 0.540795 0
0.955779 0.546075 0
0.985183 0.552254 0
1 0.558206 0
0.479286 0.511238 0.341207
0.492103 0.520439 0.347143
0.499855 0.525032 0.348196
0.505425 0.528008 0.347997
0.51075 0.530709 0.347326
0.515541 0.532769 0.346349
0.520165 0.534325 0.34638
0.525582 0.53576 0.345617
0.532097 0.537438 0.344396
0.539239 0.538933 0.342214
0.547341 0.540444 0.339162
0.556741 0.54226 0.335485
0.566949 0.543847 0.330617
0.578317 0.545495 0.324758
0.591196 0.547494 0.318135
0.60502 0.549233 0.310155
0.620157 0.550988 0.301015
0.636957 0.552987 0.29099
0.654719 0.554604 0.279606
0.673945 0.556252 0.26743
0.694408 0.557717 0.254643
0.71577 0.558846 0.241779
0.741588 0.559365 0.219196
0.770596 0.558846 0.18172
0.799054 0.558602 0.139788
0.827482 0.559106 0.0902419
0.855177 0.559915 0.0387579
0.883162 0.56144 0
0.911269 0.563897 0
0.939437 0.567071 0
0.968307 0.571237 0
0.997894 0.576608 0
1 0.582162 0
0.506218 0.538399 0.364157
0.518029 0.546731 0.368856
0.525261 0.551125 0.369924
0.530419 0.553979 0.369818
0.535195 0.556359 0.369085
0.539742 0.558541 0.368017
0.544793 0.56051 0.368048
0.550271 0.562127 0.367483
0.556451 0.563668 0.366186
0.56347 0.565255 0.364233
0.571557 0.567086 0.36173
0.580331 0.568719 0.358267
0.590402 0.570703 0.354208
0.601236 0.572442 0.348989
0.613138 0.574228 0.342855
0.62652 0.576349 0.335973
0.640803 0.578195 0.32781
0.656443 0.580102 0.318578
0.673487 0.582132 0.308476
0.691539 0.583856 0.297185
0.71104 0.585748 0.285435
0.731533 0.587228 0.272877
0.753155 0.588434 0.260273
0.77969 0.588952 0.236637
0.808988 0.588586 0.19971
0.837873 0.588495 0.158785
0.866651 0.589212 0.112108
0.895171 0.590112 0.0563973
0.923629 0.59176 0.00488289
0.952743 0.594522 0
0.981979 0.597955 0
1 0.602594 0
1 0.607217 0
0.534264 0.566567 0.387381
0.544625 0.57377 0.39089
0.551247 0.577844 0.391806
0.556023 0.580575 0.391806
0.560525 0.58294 0.391333
0.565225 0.585367 0.390478
0.570169 0.587259 0.389731
0.575631 0.588952 0.389212
0.58201 0.590921 0.388388
0.588846 0.592584 0.386633
0.596445 0.594247 0.384222
0.605188 0.596231 0.381369
0.614527 0.597986 0.377523
0.625071 0.600031 0.373053
0.636454 0.601938 0.36759
0.648859 0.603845 0.361196
0.662699 0.606058 0.35407
0.677378 0.60798 0.345678
0.693294 0.609888 0.336263
0.710781 0.612039 0.326085
0.729107 0.613825 0.314824
0.74902 0.615747 0.302968
0.769863 0.617288 0.290486
0.791745 0.618585 0.278126
0.819089 0.619135 0.253101
0.848753 0.618906 0.216327
0.877867 0.619058 0.176379
0.907439 0.619867 0.130312
0.936507 0.621012 0.0739147
0.965789 0.622889 0.0182345
0.995392 0.625681 0
1 0.629892 0
1 0.633906 0
0.563073 0.595529 0.410834
0.572152 0.601816 0.413504
0.578134 0.605524 0.414252
0.582635 0.608225 0.414389
0.587015 0.610681 0.414191
0.591608 0.612924 0.41294
0.596628 0.614939 0.41181
0.602319 0.616953 0.411566
0.608331 0.618692 0.410559
0.615259 0.620645 0.409186
0.62269 0.622446 0.40705
0.630823 0.624216 0.404257
0.640101 0.626322 0.401038
0.649958 0.628168 0.396826
0.660716 0.63006 0.391821
0.672816 0.632288 0.386267
0.685649 0.634256 0.379568
0.699901 0.636561 0.372183
0.714992 0.638544 0.363592
0.731243 0.640528 0.354025
0.74905 0.642741 0.343725
0.767742 0.644572 0.332311
0.787793 0.646403 0.320287
0.809125 0.648157 0.307988
0.831357 0.649531 0.295705
0.859159 0.649927 0.269352
0.889433 0.650034 0.232959
0.919387 0.650233 0.19266
0.949187 0.651057 0.147509
0.979294 0.652659 0.0923629
1 0.654902 0.032929
1 0.658213 0
1 0.661646 0
0.592569 0.625284 0.434577
0.600641 0.6309 0.436698
0.606058 0.634302 0.437354
0.610315 0.636973 0.437644
0.614557 0.639246 0.437064
0.619196 0.64152 0.435721
0.624521 0.643885 0.434592
0.629892 0.645685 0.434119
0.635904 0.647578 0.43328
0.642603 0.649531 0.432013
0.64976 0.651316 0.430045
0.657923 0.653407 0.427726
0.66656 0.655222 0.424491
0.676051 0.65716 0.420706
0.686625 0.659327 0.416358
0.697826 0.661295 0.411048
0.710353 0.6636 0.405158
0.723583 0.665614 0.398169
0.737911 0.667674 0.39028
0.753689 0.669993 0.381659
0.770291 0.672007 0.371878
0.788388 0.674159 0.361364
0.807523 0.676112 0.349905
0.827756 0.677867 0.337774
0.849515 0.679789 0.325628
0.871916 0.6813 0.313664
0.900481 0.68159 0.285832
0.931502 0.68191 0.249241
0.961898 0.682338 0.209445
0.992355 0.683314 0.164782
1 0.685023 0.111635
1 0.687938 0.0494392
1 0.690929 0.00349432
0.62327 0.656413 0.459083
0.630411 0.661357 0.460761
0.635264 0.664485 0.461341
0.639475 0.667063 0.461402
0.643732 0.669261 0.460502
0.648478 0.671656 0.459174
0.653605 0.673899 0.457832
0.658885 0.675715 0.457359
0.664958 0.677806 0.456718
