luts/Bat-CLog3.cube
TITLE "Generated by Resolve"
LUT_3D_SIZE 9
0.024094 0.0297398 0.0202182
0.0533455 0.0302129 0.0128939
0.217762 0.0399786 0
0.41976 0.103304 0
0.634928 0.207019 0
0.84889 0.309834 0
1 0.405737 0
1 0.48603 0
1 0.54023 0
0.0383917 0.0494545 0.0230259
0.0682841 0.0494545 0.00639353
0.219135 0.0564431 0
0.416098 0.121614 0
0.632059 0.212528 0
0.849241 0.310002 0
1 0.405829 0
1 0.486076 0
1 0.54023 0
0.11339 0.138781 0.0372473
0.145418 0.149355 0.0303807
0.240162 0.144106 0
0.374182 0.153506 0
0.551446 0.210788 0
0.744945 0.284459 0
0.946395 0.374884 0
1 0.483375 0
1 0.54023 0
0.235721 0.263035 0.124437
0.262837 0.276936 0.127932
0.306004 0.27982 0.0920577
0.396582 0.275044 0
0.538354 0.268589 0
0.673808 0.300664 0
0.809842 0.349096 0
0.940627 0.399084 0
1 0.449485 0
0.353033 0.383215 0.230304
0.379889 0.39939 0.238224
0.407691 0.405615 0.230335
0.458 0.409461 0.196689
0.558175 0.412284 0.10631
0.691554 0.410086 0
0.804654 0.425116 0
0.901823 0.448142 0
0.971679 0.466224 0
0.461646 0.495109 0.327077
0.495583 0.518654 0.340932
0.517449 0.527138 0.338476
0.557046 0.534722 0.323934
0.62742 0.543862 0.28394
0.729931 0.54992 0.212848
0.85304 0.550515 0.0142977
0.949752 0.558892 0
1 0.568643 0
0.568322 0.60502 0.419638
0.611368 0.637339 0.437125
0.631662 0.646128 0.433753
0.665904 0.654948 0.424552
0.721752 0.665339 0.39913
0.801892 0.675731 0.353521
0.902144 0.682063 0.284871
1 0.684276 0.139208
1 0.689403 0
0.702266 0.737179 0.52195
0.72575 0.750469 0.518639
0.742931 0.756741 0.51606
0.771878 0.764401 0.508171
0.818204 0.773724 0.48867
0.884947 0.784146 0.453544
0.967132 0.793271 0.40589
1 0.798352 0.340337
1 0.801129 0.251942
0.796384 0.823621 0.575265
0.813199 0.829877 0.572274
0.827131 0.833997 0.569314
0.85156 0.839887 0.561318
0.891569 0.847761 0.543908
0.949981 0.856962 0.513298
1 0.865736 0.470542
1 0.873091 0.428565
1 0.877119 0.372366
0.0306249 0.0466621 0.0610666
0.0411383 0.0475624 0.0597543
0.207156 0.0498207 0.0391089
0.411765 0.111131 0
0.622293 0.215274 0
0.833494 0.320363 0
1 0.416175 0
1 0.4934 0
1 0.545815 0
0.0125734 0.051606 0.0548257
0.0441291 0.0509194 0.0442054
0.208194 0.0642863 0.00965896
0.411048 0.130236 0
0.625055 0.221714 0
0.841199 0.316793 0
1 0.410529 0
1 0.489433 0
1 0.542824 0
0.108461 0.133974 0.0360723
0.136309 0.143328 0.0299077
0.235676 0.138659 0
0.372488 0.150195 0
0.553491 0.209949 0
0.749401 0.285832 0
0.954543 0.377997 0
1 0.485405 0
1 0.540398 0
0.233463 0.260731 0.122362
0.257832 0.273579 0.127047
0.302861 0.277287 0.0902724
0.394675 0.27216 0
0.537118 0.26598 0
0.673686 0.299168 0
0.810742 0.348302 0
0.942977 0.39913 0
1 0.45127 0
0.35198 0.382132 0.229374
0.376944 0.397421 0.237598
0.405905 0.404379 0.229587
0.45623 0.408179 0.195972
0.556985 0.411002 0.104326
0.690852 0.408789 0
0.804318 0.424186 0
0.901518 0.447272 0
0.971679 0.465553 0
0.461158 0.494621 0.32665
0.49398 0.517601 0.340703
0.516197 0.52636 0.338064
0.555871 0.534051 0.323751
0.62652 0.543221 0.283619
0.729442 0.549264 0.212024
0.852628 0.549889 0.0132143
0.949401 0.558312 0
1 0.568124 0
0.565255 0.602335 0.417456
0.610437 0.636774 0.43714
0.630701 0.645609 0.433631
0.66508 0.654551 0.424536
0.721141 0.664973 0.399039
0.801434 0.675425 0.353399
0.901854 0.681743 0.284596
1 0.68397 0.138659
1 0.689113 0
0.700938 0.736187 0.521569
0.724834 0.74995 0.518837
0.742351 0.756542 0.516152
0.771267 0.764141 0.508232
0.817823 0.773587 0.488777
0.884611 0.783978 0.453544
0.966918 0.793118 0.405814
1 0.798199 0.3402
1 0.800977 0.251682
0.795773 0.823407 0.575708
0.812604 0.829694 0.572381
0.826612 0.833844 0.569451
0.851148 0.839796 0.561471
0.89131 0.847745 0.544076
0.949783 0.856931 0.513405
1 0.865721 0.470619
1 0.873075 0.428595
1 0.877119 0.372366
0.0474708 0.110628 0.186603
0.0569924 0.11194 0.185199
0.140307 0.131975 0.228107
0.357656 0.173877 0.207233
0.605905 0.217227 0.0830091
0.818036 0.314412 0
1 0.41001 0
1 0.490501 0
1 0.544671 0
0.0417639 0.102052 0.169436
0.0551003 0.105058 0.169207
0.147509 0.129274 0.213031
0.381949 0.157855 0.169833
0.608896 0.216876 0.0465553
0.820508 0.314778 0
1 0.411032 0
1 0.491753 0
1 0.545998 0
0 0.169223 0.207141
0.00962844 0.175204 0.208591
0.162509 0.177829 0.179187
0.333715 0.196643 0.143114
0.520073 0.25069 0.0989853
0.714488 0.322103 0.0382849
0.924712 0.401846 0
1 0.493141 0
1 0.547448 0
0.194965 0.274739 0.203616
0.22649 0.28069 0.214893
0.282536 0.289494 0.189792
0.371939 0.291844 0.141238
0.523201 0.293355 0.00975052
0.661112 0.324712 0
0.79704 0.36968 0
0.926757 0.416541 0
1 0.464973 0
0.350927 0.381048 0.228443
0.374075 0.395529 0.236988
0.40415 0.403113 0.228748
0.454536 0.407034 0.195407
0.555871 0.409674 0.102159
0.690135 0.407477 0
0.803815 0.423117 0
0.901091 0.446342 0
0.971618 0.46482 0
0.46067 0.494118 0.326223
0.492103 0.516335 0.340246
0.514961 0.525612 0.337713
0.554711 0.533364 0.323568
0.625681 0.54255 0.283192
0.728954 0.548592 0.21117
0.852171 0.549279 0.012192
0.949035 0.557733 0
1 0.567575 0
0.564508 0.601694 0.417014
0.609277 0.635996 0.436973
0.629725 0.64506 0.433433
0.664256 0.654139 0.424506
0.720531 0.664607 0.398932
0.800961 0.67512 0.353277
0.901564 0.681453 0.284321
1 0.683665 0.13814
1 0.688823 0
0.699809 0.735393 0.52134
0.723918 0.749432 0.51902
0.741588 0.756207 0.516136
0.770657 0.763882 0.508278
0.817441 0.773449 0.488869
0.88426 0.783795 0.453544
0.966705 0.79295 0.405722
1 0.798047 0.340078
1 0.800839 0.251423
0.794995 0.823011 0.575952
0.812009 0.829496 0.572473
0.826123 0.833677 0.569512
0.850752 0.839704 0.561624
0.891051 0.847715 0.544244
0.949584 0.856901 0.513512
1 0.865705 0.47068
1 0.873075 0.428626
1 0.877119 0.372366
0.088014 0.209232 0.33077
0.0930648 0.209689 0.330388
0.167163 0.224948 0.344182
0.292805 0.259541 0.408698
0.513802 0.318807 0.387488
0.795438 0.333181 0.278141
0.995392 0.411749 0.184009
1 0.486091 0.0784772
1 0.538003 0.000366217
0.0846418 0.203311 0.321462
0.090898 0.203906 0.321233
0.165591 0.219654 0.337255
0.295338 0.256107 0.396536
0.524773 0.310033 0.371191
0.797665 0.330495 0.260639
0.996765 0.410941 0.163729
1 0.485985 0.0522164
1 0.53814 0
0.0499275 0.210773 0.30782
0.063798 0.213336 0.307942
0.161242 0.224567 0.299733
0.277623 0.256519 0.348409
0.48632 0.298283 0.325093
0.713405 0.333333 0.259602
0.929229 0.405631 0.193881
1 0.485954 0.0260929
1 0.538338 0
0 0.302617 0.353857
0.0331731 0.310079 0.359106
0.178439 0.319997 0.353704
0.307179 0.323232 0.327199
0.459571 0.338521 0.301885
0.610483 0.369375 0.275074
0.756283 0.407111 0.246281
0.894743 0.443671 0.207095
1 0.481254 0.143404
0.299809 0.397833 0.339773
0.322255 0.411444 0.352178
0.365438 0.423377 0.3608
0.427512 0.433585 0.339651
0.523964 0.444526 0.319295
0.665583 0.45098 0.246601
0.782391 0.469108 0.202029
0.880293 0.491508 0.172946
0.949447 0.508598 0.158572
0.460349 0.497337 0.341085
0.489632 0.518532 0.354925
0.515297 0.530297 0.350637
0.556298 0.538689 0.337606
0.628443 0.548653 0.299901
0.732341 0.555413 0.23447
0.85626 0.556817 0.0561227
0.95378 0.565667 0
1 0.575814 0
0.563989 0.60116 0.416556
0.606775 0.634195 0.436362
0.627604 0.643931 0.433036
0.662501 0.653254 0.42446
0.719158 0.663859 0.398856
0.799924 0.674464 0.353063
0.900923 0.680797 0.283711
1 0.683024 0.136995
1 0.688228 0
0.696818 0.733059 0.520256
0.722194 0.748547 0.519539
0.739971 0.755459 0.516091
0.769345 0.763333 0.508385
0.816526 0.773083 0.489021
0.883543 0.783429 0.453544
0.966201 0.79263 0.4056
1 0.797726 0.339803
1 0.800519 0.250889
0.793317 0.822202 0.576593
0.810727 0.829038 0.572641
0.824994 0.833371 0.569787
0.849867 0.839506 0.561959
0.890501 0.847684 0.54461
0.949157 0.85684 0.513756
1 0.86569 0.470848
1 0.87306 0.428702
1 0.877119 0.372366
0.152178 0.313695 0.483192
0.152178 0.313695 0.483207
0.205554 0.321401 0.48426
0.301961 0.355932 0.53785
0.457527 0.397803 0.586557
0.668833 0.461387 0.570352
0.962127 0.454124 0.46981
1 0.504097 0.399145
1 0.546944 0.353048
0.150393 0.310826 0.479011
0.150393 0.310826 0.479011
0.205402 0.318959 0.480385
0.301915 0.353582 0.534997
0.458762 0.396323 0.581018
0.672663 0.458671 0.563516
0.965591 0.449943 0.460441
1 0.50312 0.391775
1 0.546319 0.345602
0.119707 0.293217 0.44036
0.120378 0.293523 0.441032
0.189364 0.30312 0.439399
0.286046 0.331899 0.474281
0.434318 0.381353 0.533684
0.638056 0.442771 0.529839
0.950713 0.449836 0.45716
1 0.502068 0.383688
1 0.545678 0.337407
0.0715496 0.338842 0.469764
0.0720989 0.338384 0.469322
0.189548 0.342321 0.444511
0.295369 0.352743 0.427558
0.40531 0.381643 0.468772
0.564431 0.416281 0.453315
0.754635 0.42501 0.407568
0.898268 0.456275 0.376852
1 0.497185 0.351125
0.105043 0.433433 0.493889
0.12668 0.438468 0.498177
0.241779 0.459648 0.509499
0.338918 0.467079 0.501808
0.463584 0.478264 0.483253
0.597116 0.494591 0.468452
0.721675 0.515801 0.450935
0.829465 0.536904 0.435584
0.908629 0.549294 0.420844
0.383185 0.524895 0.484398
0.406546 0.543587 0.504219
0.446525 0.561761 0.520943
0.500725 0.573693 0.521614
0.582696 0.588815 0.504082
0.678477 0.60322 0.495064
0.809705 0.612619 0.445151
0.909697 0.625834 0.416556
0.97763 0.638651 0.404288
0.557626 0.613519 0.476814
0.597314 0.64625 0.503059
0.622461 0.65977 0.504005
0.661433 0.674067 0.489403
0.718776 0.686366 0.473533
0.799435 0.698787 0.442939
0.899001 0.70779 0.402152
1 0.711849 0.315358
1 0.718257 0.259632
0.689235 0.727031 0.517189
0.717754 0.745922 0.520073
0.736446 0.753765 0.515923
0.766796 0.76231 0.508705
0.814374 0.772137 0.489174
0.882063 0.78262 0.453437
0.965072 0.791928 0.405386
1 0.797024 0.339208
1 0.799847 0.249729
0.789532 0.820264 0.577707
0.807874 0.828061 0.572946
0.822583 0.83267 0.570306
0.847974 0.839048 0.562554
0.889128 0.84744 0.545296
0.948241 0.856703 0.514275
1 0.865629 0.471168
1 0.87303 0.428855
1 0.877119 0.372366
0.21767 0.41886 0.636606
0.21767 0.41886 0.636622
0.241947 0.420676 0.63444
0.334066 0.447272 0.655573
0.452018 0.486885 0.73138
0.622538 0.534371 0.758206
0.814664 0.590311 0.749294
1 0.603754 0.684489
1 0.59205 0.613443
0.216754 0.417411 0.634485
0.21677 0.417411 0.634501
0.242176 0.419364 0.632303
0.333974 0.44622 0.654292
0.452232 0.485649 0.729885
0.623148 0.533639 0.755474
0.814801 0.590082 0.746303
1 0.601617 0.680537
1 0.589761 0.608728
0.211276 0.410864 0.622202
0.211994 0.411582 0.623514
0.241215 0.415488 0.623224
0.335012 0.443214 0.646357
0.453696 0.484581 0.72668
0.623774 0.532891 0.752712
0.815229 0.589731 0.743114
1 0.599451 0.676493
1 0.587915 0.604395
0.154421 0.377829 0.544793
0.154543 0.3776 0.544717
0.202762 0.384451 0.539849
0.293675 0.393835 0.528191
0.393668 0.421317 0.565621
0.525261 0.465537 0.608423
0.671336 0.510582 0.611734
0.871717 0.532479 0.58999
1 0.567163 0.585946
0.129427 0.464363 0.613504
0.129534 0.464164 0.613397
0.219303 0.479454 0.612818
0.338338 0.480201 0.577157
0.449409 0.497856 0.565209
0.548302 0.525734 0.603891
0.671168 0.555489 0.596185
0.817563 0.559258 0.569482
0.906889 0.564904 0.551644
0.227787 0.561074 0.629602
0.227573 0.560967 0.629618
0.313634 0.594873 0.658412
0.399924 0.608606 0.661219
0.505608 0.621759 0.656428
0.622721 0.636561 0.643
0.741878 0.653071 0.633753
0.8448 0.669856 0.62269
0.918807 0.683284 0.61622
0.440482 0.656077 0.63592
0.465614 0.680827 0.66212
0.505653 0.701976 0.682048
0.566339 0.714092 0.687556
0.645747 0.724727 0.684703
0.734508 0.741573 0.666178
0.825315 0.756039 0.662135
0.938293 0.765606 0.626169
1 0.775952 0.610864
0.628031 0.738827 0.633967
0.674846 0.775982 0.673442
0.701274 0.784527 0.680171
0.739055 0.795361 0.676555
0.790997 0.811399 0.652384
0.857084 0.824537 0.635737
0.937758 0.836423 0.614572
1 0.845106 0.592721
1 0.850233 0.551217
0.781125 0.815732 0.579553
0.801953 0.826017 0.573648
0.817395 0.831067 0.571344
0.843915 0.838056 0.563928
0.886244 0.846876 0.546578
0.946365 0.856397 0.515236
1 0.865507 0.471855
1 0.872984 0.429175
1 0.877119 0.372366
0.278218 0.516503 0.779065
0.278218 0.516503 0.779065
0.278218 0.516503 0.779065
0.344976 0.526925 0.781323
0.466194 0.570794 0.837842
0.605341 0.605615 0.908019
0.774899 0.657801 0.909483
0.939116 0.696498 0.903105
1 0.727565 0.870756
0.277852 0.515908 0.778195
0.277852 0.515908 0.778195
0.277852 0.515908 0.778195
0.345495 0.526604 0.780682
0.466392 0.570413 0.837415
0.605478 0.605097 0.907378
0.775189 0.657511 0.9084
0.939666 0.695842 0.902388
1 0.72694 0.86949
0.277424 0.515236 0.777203
0.277424 0.515236 0.777203
0.277424 0.515236 0.777203
0.345983 0.526207 0.779919
0.46656 0.56997 0.836912
0.6056 0.604501 0.906645
0.775494 0.657176 0.907179
0.940291 0.695079 0.901564
1 0.726223 0.867994
0.228061 0.458839 0.681498
0.228595 0.459327 0.682368
0.229023 0.459739 0.683146
0.306386 0.461585 0.664775
0.413382 0.491264 0.696895
0.540185 0.53489 0.778622
0.707179 0.602441 0.813901
0.935286 0.690257 0.894331
1 0.724636 0.86479
0.197223 0.478492 0.660624
0.197223 0.478233 0.66038
0.197879 0.47808 0.66009
0.319554 0.491432 0.635721
0.432334 0.512657 0.631769
0.527367 0.5411 0.673854
0.63772 0.578698 0.705867
0.745724 0.602975 0.713191
0.830518 0.621866 0.700893
0.208896 0.584878 0.737774
0.208835 0.584741 0.737697
0.236271 0.597848 0.748455
0.36408 0.621729 0.750347
0.501244 0.630793 0.720806
0.609186 0.651408 0.712245
0.698665 0.677745 0.749035
0.793622 0.703563 0.747539
0.88957 0.710872 0.736461
0.323369 0.687556 0.765667
0.323278 0.68748 0.765637
0.37702 0.721843 0.799023
0.461097 0.744091 0.81297
0.56025 0.758221 0.812268
0.665629 0.772366 0.806912
0.774105 0.787305 0.795163
0.874067 0.801923 0.789578
0.947295 0.814817 0.784833
0.484688 0.781323 0.786618
0.510826 0.80824 0.815
0.550713 0.831342 0.836728
0.604944 0.844907 0.84416
0.681407 0.855024 0.843671
0.777264 0.862577 0.835966
0.868116 0.876783 0.818204
0.946517 0.889403 0.815229
1 0.897139 0.79382
0.665293 0.864179 0.816007
0.700267 0.883925 0.833707
0.72488 0.891096 0.837705
0.762448 0.898985 0.838697
0.807874 0.909926 0.832029
0.881392 0.916503 0.821042
0.953094 0.930983 0.795743
1 0.940581 0.784283
1 0.947585 0.776364
0.327062 0.595346 0.894072
0.327062 0.595346 0.894072
0.327062 0.595346 0.894072
0.346868 0.594675 0.888747
0.476005 0.63122 0.914931
0.605051 0.674266 0.994461
0.750607 0.699596 1
0.900984 0.755367 1
1 0.783246 1
0.326894 0.595087 0.89369
0.326894 0.595087 0.89369
0.326909 0.595087 0.89369
0.347402 0.59443 0.888273
0.476509 0.631205 0.914748
0.605219 0.674098 0.994278
0.750744 0.699382 1
0.901122 0.755245 1
1 0.783032 1
0.326726 0.594797 0.893263
0.326726 0.594797 0.893263
0.326726 0.594797 0.893263
0.347875 0.594171 0.88777
0.477012 0.631174 0.914519
0.605386 0.673899 0.994064
0.750866 0.699123 1
0.901259 0.755108 1
1 0.782788 1
0.326329 0.594156 0.892348
0.326329 0.594171 0.892348
0.326329 0.594171 0.892348
0.348913 0.593637 0.886702
0.478065 0.631067 0.914015
0.605737 0.673457 0.993576
0.751156 0.698573 1
0.901564 0.754788 1
1 0.782269 1
0.236454 0.496712 0.711345
0.236576 0.496681 0.711452
0.236652 0.49662 0.711543
0.278569 0.501503 0.701473
0.405524 0.517708 0.687205
0.507469 0.54844 0.730083
0.615228 0.581247 0.795682
0.725933 0.624811 0.799161
0.819699 0.652415 0.817243
0.243183 0.593011 0.783871
0.243153 0.592844 0.783734
0.243137 0.592691 0.783597
0.322072 0.613916 0.785214
0.479026 0.629511 0.756207
0.591043 0.655772 0.758007
0.678309 0.68304 0.801465
0.768902 0.714229 0.825727
0.841459 0.732891 0.832029
0.290211 0.705119 0.854231
0.29015 0.705043 0.854185
0.290089 0.704967 0.854139
0.38732 0.75111 0.893507
0.52369 0.76875 0.888655
0.660594 0.779675 0.861524
0.763073 0.798779 0.851209
0.838346 0.820783 0.882094
0.905791 0.839551 0.886305
0.402655 0.806027 0.893751
0.402609 0.805982 0.893721
0.40943 0.812192 0.90016
0.512474 0.863035 0.94583
0.611429 0.878264 0.947509
0.713115 0.890486 0.942138
0.811994 0.90309 0.934813
0.903548 0.915358 0.923781
0.973587 0.926345 0.921691
0.510613 0.879057 0.918776
0.522881 0.892775 0.933379
0.572473 0.926543 0.966415
0.631037 0.941207 0.974609
0.703563 0.95108 0.973602
0.78584 0.959319 0.967071
0.877958 0.966506 0.957092
0.965225 0.975021 0.943099
1 0.984253 0.938857
0.349264 0.631174 0.946334
0.349264 0.631174 0.946334
0.349264 0.631174 0.946334
0.349264 0.631174 0.946334
0.438056 0.645777 0.94966
0.594736 0.700343 1
0.740764 0.730892 1
0.886839 0.773053 1
0.992493 0.808606 1
0.349264 0.631174 0.946334
0.349264 0.631174 0.946334
0.349264 0.631174 0.946334
0.349264 0.631174 0.946334
0.438651 0.645945 0.949767
0.59498 0.70042 1
0.740887 0.730922 1
0.8869 0.773083 1
0.992508 0.808606 1
0.349264 0.631174 0.946334
0.349264 0.631174 0.946334
0.349264 0.631174 0.946334
0.349264 0.631174 0.946334
0.439246 0.646097 0.949874
0.595224 0.700481 1
0.741009 0.730938 1
0.886976 0.773098 1
0.992538 0.808621 1
0.349264 0.631174 0.946334
0.349264 0.631174 0.946334
0.349264 0.631174 0.946334
0.349264 0.631174 0.946334
0.440513 0.646448 0.950103
0.595743 0.700648 1
0.741299 0.730983 1
0.887129 0.773159 1
0.992584 0.808621 1
0.304616 0.570718 0.84921
0.305364 0.571633 0.85066
0.306035 0.572549 0.85211
0.3075 0.574472 0.855222
0.402914 0.575555 0.832029
0.54667 0.629435 0.90927
0.710246 0.694667 1
0.887449 0.773281 1
0.992691 0.808652 1
0.256474 0.575326 0.779309
0.256443 0.575143 0.779156
0.256413 0.57496 0.778988
0.256336 0.574578 0.778653
0.425605 0.604791 0.761013
0.560021 0.636545 0.765103
0.653254 0.667231 0.814603
0.74551 0.698756 0.853223
0.817426 0.723873 0.85658
0.291615 0.706645 0.885756
0.291569 0.706554 0.88571
0.291524 0.706477 0.885649
0.291417 0.70631 0.885527
0.486076 0.758877 0.907637
0.644709 0.772824 0.875029
0.749111 0.79649 0.873167
0.823606 0.818738 0.911788
0.890242 0.842054 0.923506
0.371511 0.815625 0.949889
0.371481 0.815579 0.949874
0.371435 0.815549 0.949844
0.399161 0.83949 0.974304
0.55491 0.883101 1
0.682582 0.896925 0.994293
0.804929 0.907561 0.973068
0.895918 0.921355 0.957763
0.950378 0.937301 0.978546
0.46154 0.90016 0.998077
0.46154 0.90016 0.998077
0.46154 0.90016 0.998077
0.539193 0.9505 1
0.647303 0.968658 1
0.749752 0.978332 1
0.846189 0.987213 1
0.92961 0.996521 1
0.995193 1 1
