luts/Bat-DLog.cube
TITLE "Generated by Resolve"
LUT_3D_SIZE 9
0.029221 0.0315709 0.0206455
0.0565957 0.0328069 0.0148165
0.124956 0.0354314 0
0.282261 0.0628061 0
0.508934 0.16669 0
0.724605 0.270191 0
0.84741 0.346105 0
0.915465 0.40676 0
0.959823 0.449424 0
0.0432136 0.0484932 0.0212863
0.0748302 0.0506752 0.00459297
0.138827 0.049012 0
0.27686 0.0765545 0
0.489448 0.170642 0
0.704417 0.264759 0
0.835859 0.345083 0
0.912367 0.408957 0
0.95964 0.452384 0
0.0729534 0.0830854 0.0191348
0.105516 0.0892042 0.00643931
0.165743 0.0874189 0
0.275273 0.0960861 0
0.465492 0.175753 0
0.679347 0.259983 0
0.82179 0.345846 0
0.908812 0.41323 0
0.959518 0.457023 0
0.177722 0.189975 0.0554513
0.199069 0.194385 0.04654
0.226841 0.196399 0.024155
0.303914 0.193164 0
0.454322 0.209354 0
0.646235 0.273823 0
0.800961 0.358709 0
0.904738 0.428 0
0.961852 0.471412 0
0.333059 0.341161 0.179477
0.341344 0.342519 0.176425
0.352407 0.343801 0.170657
0.384695 0.346365 0.146059
0.487922 0.352193 0.0426642
0.655558 0.366552 0
0.804868 0.418402 0
0.916243 0.474876 0
0.977813 0.512505 0
0.495857 0.501427 0.315496
0.500526 0.502571 0.314443
0.507942 0.504067 0.312016
0.530083 0.508171 0.302846
0.589471 0.5178 0.272007
0.706676 0.530831 0.199374
0.857527 0.547051 0
0.965743 0.576822 0
1 0.600961 0
0.671794 0.66009 0.427893
0.67483 0.660609 0.426551
0.680171 0.661875 0.424674
0.694972 0.665034 0.418662
0.733013 0.672374 0.401129
0.810712 0.684779 0.360449
0.924208 0.698146 0.292027
1 0.71014 0.173114
1 0.722515 0.101457
0.818494 0.782269 0.501091
0.8206 0.782727 0.500237
0.824048 0.783413 0.498695
0.83357 0.785153 0.494194
0.859449 0.789837 0.481621
0.915099 0.798749 0.452384
0.999344 0.8103 0.40766
1 0.819486 0.349004
1 0.825895 0.296345
0.904631 0.84889 0.535821
0.906249 0.849165 0.535012
0.908797 0.849638 0.533837
0.915999 0.85069 0.5299
0.935973 0.853895 0.519417
0.981048 0.8607 0.495048
1 0.86862 0.454475
1 0.875135 0.41973
1 0.877119 0.372366
0.0315709 0.041474 0.0460517
0.0445258 0.0434882 0.0513619
0.106722 0.0485084 0.0461128
0.278935 0.0708324 0
0.501778 0.178088 0
0.721126 0.276402 0
0.847883 0.346166 0
0.915587 0.406668 0
0.959838 0.449317 0
0.0197452 0.0577554 0.0651255
0.0526894 0.0610361 0.0556344
0.11545 0.0652323 0.0427405
0.268055 0.0938277 0.00302129
0.488685 0.175051 0
0.701854 0.270191 0
0.836255 0.345159 0
0.912459 0.408865 0
0.95964 0.452277 0
0.0549325 0.0946365 0.0641031
0.0876173 0.0978256 0.0560464
0.14461 0.101137 0.0277714
0.275059 0.104753 0
0.471687 0.172747 0
0.677989 0.264225 0
0.821973 0.345754 0
0.908858 0.413123 0
0.959518 0.456916 0
0.174701 0.193729 0.0850385
0.196139 0.19884 0.0718853
0.223178 0.200824 0.049897
0.300664 0.198657 0
0.45861 0.210269 0
0.646265 0.274281 0
0.801022 0.358557 0
0.904768 0.427924 0
0.961822 0.471305 0
0.332677 0.340902 0.179309
0.340993 0.34226 0.176257
0.352087 0.343542 0.170474
0.384405 0.34609 0.145785
0.487724 0.351934 0.0422217
0.655451 0.366323 0
0.804807 0.41825 0
0.916228 0.474784 0
0.977752 0.512398 0
0.495674 0.501305 0.315435
0.500359 0.502464 0.314382
0.507774 0.50396 0.311971
0.529931 0.50808 0.302815
0.589364 0.517723 0.271962
0.706615 0.530739 0.199268
0.857481 0.54696 0
0.965698 0.576745 0
1 0.600885 0
0.671702 0.660044 0.427893
0.674723 0.660563 0.426551
0.680064 0.661814 0.424659
0.694896 0.664988 0.418662
0.732937 0.672328 0.401114
0.810651 0.684733 0.360418
0.924193 0.698116 0.291997
1 0.710109 0.173037
1 0.722484 0.101366
0.818433 0.782238 0.501091
0.820539 0.782696 0.500252
0.823987 0.783383 0.498695
0.833524 0.785138 0.494194
0.859403 0.789807 0.481621
0.915053 0.798718 0.452384
0.999313 0.810285 0.40766
1 0.819471 0.348974
1 0.825879 0.29633
0.904585 0.848875 0.535836
0.906203 0.849149 0.535027
0.908751 0.849622 0.533837
0.915953 0.850675 0.5299
0.935943 0.85388 0.519417
0.981018 0.860685 0.495048
1 0.86862 0.454475
1 0.875135 0.419745
1 0.877119 0.372366
0.0360266 0.0619974 0.0979171
0.0500343 0.0641642 0.0966201
0.0813001 0.0708476 0.123507
0.264668 0.085832 0.0851759
0.494591 0.182376 0.00807202
0.703441 0.295018 0
0.837583 0.358389 0
0.91574 0.40798 0
0.959854 0.449149 0
0.0333257 0.0709544 0.104448
0.0535134 0.0768444 0.104295
0.0902876 0.0859998 0.121645
0.258778 0.106874 0.0843214
0.47071 0.195895 0.0288396
0.684993 0.289128 0
0.827436 0.356985 0
0.912749 0.409674 0
0.95964 0.452094 0
0.00192264 0.111635 0.142794
0.0425116 0.117311 0.137392
0.106844 0.120363 0.119387
0.239277 0.139803 0.0907607
0.450156 0.200336 0.0201572
0.662806 0.283528 0
0.815457 0.357183 0
0.90898 0.413016 0
0.959503 0.456733 0
0.140368 0.203738 0.156176
0.169665 0.206088 0.155123
0.200992 0.210224 0.13756
0.275029 0.215 0.094377
0.450019 0.229068 0
0.637842 0.293538 0
0.799496 0.36733 0
0.904799 0.427787 0
0.961761 0.471122 0
0.329427 0.346456 0.211643
0.338247 0.348653 0.206592
0.349477 0.350271 0.20235
0.383017 0.353658 0.182147
0.486686 0.360998 0.101106
0.657038 0.373053 0
0.8047 0.41799 0
0.916197 0.474647 0
0.977691 0.512245 0
0.495399 0.501122 0.315328
0.500069 0.502281 0.31429
0.5075 0.503777 0.311879
0.529717 0.507942 0.302785
0.589151 0.517555 0.271885
0.706523 0.530602 0.199084
0.857389 0.546807 0
0.965621 0.576623 0
1 0.600778 0
0.671534 0.659953 0.427878
0.674571 0.660471 0.426535
0.679911 0.661738 0.424643
0.694743 0.664912 0.418647
0.732815 0.672251 0.401099
0.810575 0.684657 0.360372
0.924147 0.69807 0.291936
1 0.710048 0.17293
1 0.722423 0.101228
0.818341 0.782193 0.501091
0.820447 0.78265 0.500252
0.823896 0.783337 0.498695
0.833432 0.785092 0.494194
0.859327 0.789776 0.481621
0.915007 0.798688 0.452369
0.999283 0.810239 0.407645
1 0.81944 0.348959
1 0.825849 0.296284
0.904524 0.848844 0.535836
0.906142 0.849119 0.535042
0.90869 0.849607 0.533852
0.915892 0.850645 0.529915
0.935882 0.853849 0.519432
0.980972 0.86067 0.495048
1 0.86862 0.45449
1 0.875135 0.419745
1 0.877119 0.372366
0.0552224 0.134234 0.221103
0.0705577 0.136263 0.219455
0.101335 0.142168 0.225849
0.19678 0.169879 0.275425
0.472984 0.211612 0.220676
0.690135 0.303822 0.121401
0.804776 0.385199 0.0896925
0.894514 0.436057 0
0.95172 0.473487 0
0.054139 0.137118 0.219272
0.0722667 0.142031 0.219867
0.110079 0.150546 0.222339
0.200809 0.178927 0.271092
0.460166 0.21442 0.210788
0.666087 0.304692 0.130846
0.796017 0.384131 0.0857252
0.893111 0.438254 0
0.9523 0.476081 0
0.0447852 0.149096 0.221027
0.0693523 0.155352 0.221622
0.11017 0.161883 0.218952
0.19765 0.185794 0.254871
0.434577 0.22327 0.201968
0.635782 0.307973 0.144778
0.785931 0.384619 0.0794995
0.891966 0.442313 0
0.953704 0.480461 0
0.0099794 0.229389 0.277363
0.0576333 0.234302 0.275334
0.11754 0.236698 0.268238
0.224048 0.240192 0.243153
0.397024 0.269123 0.212985
0.604028 0.326665 0.151415
0.775738 0.396033 0.0656291
0.893935 0.456321 0
0.959777 0.493767 0
0.289067 0.35935 0.296147
0.304234 0.359319 0.298955
0.320668 0.359945 0.29836
0.359518 0.368307 0.27866
0.460075 0.381857 0.252171
0.639429 0.40238 0.1505
0.797238 0.449805 0.052903
0.916121 0.498878 0
0.982147 0.529992 0
0.49485 0.513771 0.360311
0.500252 0.515694 0.357122
0.508232 0.517525 0.355444
0.531685 0.522499 0.348608
0.592264 0.533364 0.323934
0.70959 0.547463 0.267018
0.863432 0.561425 0.0889754
0.96907 0.581262 0
1 0.600443 0
0.671046 0.659678 0.427832
0.674098 0.660227 0.426505
0.679438 0.661479 0.424598
0.694301 0.664652 0.418601
0.732433 0.672023 0.401038
0.810315 0.684443 0.360235
0.92401 0.697887 0.291752
1 0.70985 0.172595
1 0.72224 0.100801
0.818051 0.782055 0.501106
0.820188 0.782513 0.500221
0.823621 0.783215 0.498711
0.833158 0.784955 0.494209
0.859083 0.789654 0.481621
0.914839 0.798566 0.452323
0.999146 0.810147 0.407584
1 0.819348 0.348852
1 0.825757 0.296178
0.904311 0.848753 0.535866
0.905928 0.849042 0.535058
0.908492 0.849515 0.533852
0.915694 0.850553 0.529931
0.935699 0.853773 0.519448
0.980835 0.860594 0.495048
1 0.868605 0.454505
1 0.87512 0.41976
1 0.877119 0.372366
0.11516 0.254536 0.396887
0.124971 0.255589 0.396506
0.154589 0.258961 0.395712
0.218738 0.279286 0.423865
0.379431 0.327352 0.484535
0.645792 0.373251 0.41532
0.796994 0.399924 0.313191
0.85919 0.471824 0.323064
0.8981 0.525826 0.352224
0.114824 0.254505 0.395712
0.12723 0.256336 0.395621
0.157641 0.260639 0.395331
0.223407 0.281895 0.421286
0.375051 0.327108 0.472526
0.626215 0.366171 0.401801
0.784207 0.401953 0.315648
0.855146 0.476814 0.329122
0.899763 0.528496 0.351827
0.0990005 0.248966 0.379538
0.119219 0.253086 0.380728
0.151476 0.257145 0.378912
0.218616 0.273655 0.389593
0.358953 0.318746 0.445701
0.602869 0.358465 0.38555
0.768231 0.407858 0.321645
0.849409 0.484779 0.338231
0.902525 0.532631 0.350851
0.0827497 0.270329 0.382788
0.115511 0.273732 0.379263
0.151537 0.275532 0.371817
0.221424 0.285435 0.365194
0.344778 0.322362 0.408896
0.576837 0.363912 0.367559
0.741085 0.432853 0.342809
0.838148 0.508797 0.363775
0.912001 0.54519 0.348196
0.150591 0.393744 0.451728
0.176898 0.396262 0.451072
0.206043 0.398428 0.448966
0.270451 0.402853 0.441825
0.401038 0.416205 0.420768
0.567971 0.45066 0.405829
0.741711 0.499092 0.380194
0.87071 0.548058 0.358297
0.942 0.580606 0.343603
0.441489 0.536736 0.490517
0.448203 0.53843 0.490974
0.458122 0.540749 0.490898
0.482902 0.547738 0.488548
0.553735 0.560861 0.472831
0.664363 0.581811 0.462303
0.826963 0.604532 0.40058
0.942733 0.633783 0.361654
1 0.65536 0.33846
0.663432 0.687877 0.534569
0.667033 0.689174 0.532677
0.672511 0.691051 0.529427
0.687694 0.69514 0.52604
0.725597 0.703563 0.517128
0.802945 0.717739 0.493263
0.914504 0.732754 0.45452
1 0.744167 0.372457
1 0.754009 0.322698
0.817182 0.781659 0.501152
0.819364 0.782086 0.500191
0.822782 0.782818 0.498756
0.83241 0.784558 0.494163
0.858381 0.789288 0.481621
0.914336 0.79823 0.452186
0.998764 0.809857 0.407431
1 0.819059 0.348562
1 0.825483 0.295842
0.903731 0.848478 0.535882
0.905318 0.848783 0.535149
0.907942 0.849226 0.533837
0.915114 0.850309 0.530007
0.93518 0.853544 0.519493
0.980407 0.86038 0.495048
1 0.868589 0.454566
1 0.87512 0.419791
1 0.877119 0.372366
0.200641 0.39147 0.596658
0.200626 0.391455 0.596628
0.217334 0.392782 0.595209
0.27039 0.403906 0.601434
0.385595 0.445579 0.666499
0.585184 0.500481 0.703151
0.717937 0.504509 0.588098
0.846113 0.504509 0.516777
0.897826 0.546151 0.518227
0.200534 0.391302 0.596414
0.201236 0.391302 0.596277
0.218662 0.392721 0.594842
0.271626 0.404181 0.601556
0.386313 0.445655 0.666758
0.56614 0.486641 0.675761
0.705455 0.499016 0.5785
0.843839 0.507317 0.517357
0.896834 0.550149 0.520592
0.199542 0.38999 0.593225
0.201984 0.38999 0.592538
0.220905 0.391928 0.590936
0.273381 0.401953 0.593545
0.380072 0.4336 0.637278
0.538231 0.466209 0.637369
0.6916 0.494789 0.567941
0.841535 0.512398 0.518868
0.895705 0.556756 0.524605
0.156481 0.357183 0.529335
0.170108 0.36054 0.530251
0.196216 0.363058 0.526665
0.247288 0.366888 0.517632
0.346899 0.392355 0.540505
0.501701 0.445045 0.581918
0.676173 0.499428 0.555917
0.836439 0.531456 0.527489
0.89456 0.57586 0.536355
0.173846 0.42565 0.568338
0.195987 0.425895 0.561791
0.221714 0.424964 0.551614
0.286076 0.427573 0.533745
0.391028 0.448478 0.52781
0.519066 0.493446 0.575723
0.696071 0.544274 0.566873
0.838239 0.586404 0.558068
0.898894 0.624887 0.567636
0.318502 0.577066 0.643549
0.32932 0.578912 0.643977
0.34551 0.581262 0.644038
0.387701 0.586892 0.643107
0.474342 0.59884 0.639139
0.606546 0.620432 0.626688
0.74905 0.653712 0.622583
0.868315 0.686931 0.613916
0.935042 0.710033 0.609888
0.57847 0.725673 0.700984
0.583597 0.726421 0.701045
0.591608 0.727459 0.700923
0.613397 0.730297 0.70042
0.662058 0.737316 0.697658
0.746395 0.754925 0.680568
0.84918 0.775418 0.676631
0.965408 0.792432 0.642405
1 0.805722 0.629038
0.772305 0.830976 0.743236
0.774624 0.831418 0.742672
0.778256 0.832059 0.741558
0.789136 0.834714 0.738231
0.816129 0.842344 0.725643
0.869856 0.85452 0.708675
0.950835 0.868391 0.692744
1 0.880278 0.678294
1 0.887205 0.652598
0.873777 0.893202 0.726665
0.875349 0.893706 0.725673
0.877852 0.894224 0.725017
0.884672 0.895354 0.723415
0.903761 0.898741 0.718822
0.946944 0.905913 0.706661
1 0.915221 0.685985
1 0.921752 0.669062
1 0.924239 0.645396
0.277943 0.51606 0.778424
0.277943 0.51606 0.778424
0.277928 0.516045 0.778408
0.314977 0.51873 0.774975
0.424033 0.553948 0.807233
0.577585 0.599756 0.895903
0.741878 0.628382 0.852995
0.765957 0.586282 0.728298
0.811185 0.618708 0.70518
0.277913 0.515999 0.778332
0.277897 0.515999 0.778332
0.277897 0.515984 0.778317
0.315724 0.518837 0.77499
0.424582 0.554147 0.807614
0.577844 0.599741 0.895933
0.714244 0.606668 0.818021
0.761349 0.585962 0.724056
0.811215 0.620996 0.705303
0.277852 0.515908 0.778195
0.277836 0.515892 0.77818
0.278172 0.515862 0.778073
0.317052 0.51902 0.775006
0.425361 0.554391 0.808103
0.578347 0.599756 0.896025
0.682109 0.581903 0.777188
0.756176 0.587213 0.719341
0.811994 0.625132 0.706127
0.260578 0.494423 0.741756
0.259983 0.493751 0.740658
0.264118 0.493217 0.738247
0.303059 0.490608 0.723583
0.397269 0.504768 0.720546
0.509667 0.52221 0.753933
0.641611 0.555962 0.722179
0.75079 0.597803 0.714595
0.816831 0.638086 0.710109
0.2 0.453391 0.643488
0.211902 0.457145 0.6439
0.236637 0.46009 0.638224
0.287892 0.464576 0.627466
0.385779 0.482689 0.621927
0.50309 0.523705 0.66743
0.645212 0.586496 0.710506
0.762112 0.640787 0.725383
0.839246 0.674449 0.726314
0.293919 0.598108 0.747616
0.307042 0.599374 0.745876
0.327504 0.601068 0.742718
0.380789 0.604486 0.732219
0.480873 0.614267 0.711925
0.596429 0.642893 0.710719
0.708385 0.685649 0.757748
0.816068 0.728023 0.764446
0.8972 0.746273 0.762646
0.485801 0.760113 0.834241
0.491737 0.761151 0.834455
0.501137 0.762646 0.834592
0.526055 0.766354 0.834455
0.582956 0.774563 0.832929
0.67895 0.789395 0.82858
0.797681 0.810697 0.818723
0.895064 0.833341 0.818189
0.947982 0.849958 0.81912
0.668681 0.876204 0.883268
0.671534 0.876661 0.883253
0.676143 0.877348 0.883177
0.689097 0.879118 0.882689
0.721599 0.883513 0.881209
0.795895 0.89012 0.875425
0.890959 0.903136 0.862745
0.965499 0.9187 0.857786
1 0.927108 0.845441
0.785351 0.931334 0.907347
0.787549 0.931517 0.907179
0.791119 0.931777 0.906859
0.801328 0.93254 0.905913
0.827253 0.934401 0.903059
0.875593 0.94107 0.895186
0.95024 0.952605 0.875059
1 0.962066 0.868208
1 0.966384 0.865873
0.329183 0.598764 0.899046
0.329183 0.598764 0.899046
0.329183 0.598749 0.899046
0.339681 0.598138 0.895705
0.436027 0.619989 0.908309
0.587625 0.672557 0.989013
0.75938 0.70428 1
0.810666 0.680247 0.901091
0.795239 0.649134 0.810987
0.329168 0.598733 0.899016
0.329168 0.598733 0.899016
0.329168 0.598733 0.899001
0.340551 0.598062 0.89543
0.436805 0.620233 0.908476
0.587854 0.672602 0.989105
0.759564 0.704326 1
0.788785 0.66331 0.874601
0.79263 0.649241 0.80795
0.329137 0.598703 0.898955
0.329137 0.598688 0.898955
0.329137 0.598688 0.898939
0.34197 0.597971 0.894972
0.438025 0.620615 0.908766
0.588235 0.672663 0.989258
0.759869 0.704417 1
0.764446 0.645014 0.844816
0.790021 0.65066 0.80473
0.329061 0.598566 0.898772
0.329061 0.598566 0.898772
0.329061 0.598566 0.898772
0.34609 0.597772 0.893828
0.441718 0.621759 0.909606
0.589746 0.672969 0.989944
0.679469 0.627939 0.913771
0.735882 0.629831 0.807065
0.789395 0.66006 0.802625
0.249393 0.50309 0.734707
0.249241 0.502983 0.734432
0.249012 0.5028 0.733974
0.287968 0.502571 0.717556
0.380591 0.509865 0.698085
0.495995 0.544671 0.731624
0.62623 0.595087 0.796109
0.741222 0.65893 0.802579
0.805875 0.696284 0.816114
0.274983 0.595453 0.783169
0.290501 0.598871 0.78175
0.313863 0.601312 0.776837
0.372641 0.606287 0.764385
0.470497 0.621515 0.75317
0.58616 0.653941 0.760266
0.69395 0.6972 0.814801
0.794598 0.745174 0.84683
0.853437 0.774121 0.858106
0.448783 0.77438 0.911406
0.455802 0.775204 0.911086
0.467262 0.776852 0.910887
0.497826 0.780591 0.909255
0.566613 0.787976 0.902235
0.682261 0.799771 0.880446
0.791089 0.824765 0.873869
0.867216 0.853422 0.906874
0.917952 0.873106 0.913344
0.621683 0.896681 0.972717
0.625162 0.897124 0.97261
0.630579 0.897856 0.972457
0.645563 0.899672 0.971771
0.683116 0.904463 0.970001
0.754116 0.913497 0.965286
0.847578 0.927611 0.958968
0.930877 0.942229 0.950561
0.976532 0.952773 0.951812
0.722957 0.958602 0.999374
0.725093 0.958877 0.999268
0.728695 0.959243 0.998993
0.738842 0.960388 0.998306
0.764858 0.963104 0.996109
0.81854 0.968978 0.991196
0.894621 0.978195 0.983734
0.96997 0.98674 0.975052
1 0.993301 0.970642
0.349264 0.631174 0.946334
0.349264 0.631174 0.946334
0.349264 0.631174 0.946334
0.349264 0.631174 0.946334
0.430961 0.643595 0.947951
0.589929 0.698894 1
0.75581 0.733028 1
0.902525 0.778851 1
0.833051 0.692149 0.900999
0.349264 0.631174 0.946334
0.349264 0.631174 0.946334
0.349264 0.631174 0.946334
0.349264 0.631174 0.946334
0.431586 0.643778 0.948104
0.590234 0.698985 1
0.755917 0.733043 1
0.902602 0.778881 1
0.818235 0.681239 0.88365
0.349264 0.631174 0.946334
0.349264 0.631174 0.946334
0.349264 0.631174 0.946334
0.349264 0.631174 0.946334
0.432822 0.64416 0.948394
0.5906 0.699092 1
0.75613 0.733074 1
0.90193 0.77821 1
0.802319 0.670756 0.864591
0.349264 0.631174 0.946334
0.349264 0.631174 0.946334
0.349264 0.631174 0.946334
0.349264 0.631174 0.946334
0.436393 0.645258 0.949264
0.59202 0.699519 1
0.756863 0.733181 1
0.765301 0.66392 0.896391
0.784375 0.665263 0.841123
0.294759 0.558282 0.828779
0.294469 0.5579 0.828138
0.293904 0.557198 0.826947
0.302663 0.553033 0.816144
0.385443 0.54313 0.774197
0.498329 0.56463 0.790188
0.620111 0.599298 0.831998
0.73051 0.656413 0.834852
0.793469 0.696635 0.8439
0.25716 0.5785 0.782208
0.257176 0.578622 0.7823
0.27953 0.589319 0.787305
0.346426 0.599084 0.77586
0.45391 0.617136 0.766354
0.575677 0.651698 0.775235
0.68513 0.697078 0.831373
0.784451 0.745007 0.876432
0.84271 0.777661 0.887251
0.428931 0.774472 0.933974
0.437507 0.775464 0.933455
0.450919 0.777295 0.932876
0.486427 0.781247 0.929808
0.563958 0.787945 0.917556
0.680903 0.801099 0.894728
0.786465 0.828992 0.895445
0.860777 0.857572 0.932708
0.908995 0.879698 0.946426
0.596872 0.903929 1
0.600732 0.904402 1
0.60676 0.905211 1
0.623316 0.907118 1
0.664195 0.911971 1
0.741772 0.920958 1
0.847364 0.933227 0.987015
0.928161 0.948638 0.975998
0.963485 0.960998 0.990646
0.699702 0.967987 1
0.702052 0.968277 1
0.705989 0.968658 1
0.717037 0.969818 1
0.745144 0.972473 1
0.802579 0.978424 1
0.882155 0.987823 1
0.95288 0.997848 1
0.995193 1 1
