luts/Bat-SLog2.cube
TITLE "Generated by Resolve"
LUT_3D_SIZE 33
0.024094 0.0297398 0.0202182
0.0273747 0.0296788 0.018616
0.0368963 0.0302281 0.017319
0.0541085 0.0302129 0.0126802
0.076585 0.0301976 0.00636301
0.103471 0.0302281 0
0.137407 0.0316014 0
0.174762 0.0347601 0
0.214801 0.0395361 0
0.257465 0.0472267 0
0.302144 0.0584421 0
0.348562 0.0735332 0
0.396475 0.0926375 0
0.445777 0.116228 0
0.496376 0.141268 0
0.547936 0.166674 0
0.600443 0.191714 0
0.653071 0.215763 0
0.705547 0.24097 0
0.758221 0.2663 0
0.811307 0.291814 0
0.8636 0.316884 0
0.915297 0.341634 0
0.966262 0.366003 0
1 0.389914 0
1 0.41294 0
1 0.435233 0
1 0.456245 0
1 0.476204 0
1 0.494759 0
1 0.511757 0
1 0.52697 0
1 0.54023 0
0.0234379 0.0309606 0.0214694
0.0263828 0.0306554 0.0200504
0.0366064 0.0306554 0.0171359
0.0536202 0.0310369 0.0129397
0.0762188 0.0312657 0.00688182
0.103288 0.0315557 0
0.13756 0.0326696 0
0.175174 0.0352789 0
0.215152 0.0402686 0
0.25771 0.0483711 0
0.302342 0.0598459 0
0.348684 0.0749523 0
0.396612 0.0942245 0
0.44593 0.117937 0
0.496452 0.142748 0
0.547936 0.168002 0
0.600549 0.192081 0
0.652827 0.21651 0
0.705272 0.241749 0
0.757839 0.266987 0
0.810758 0.292348 0
0.862913 0.317296 0
0.914458 0.341939 0
0.96527 0.366293 0
1 0.390082 0
1 0.412985 0
1 0.435172 0
1 0.456092 0
1 0.475959 0
1 0.494408 0
1 0.511315 0
1 0.526436 0
1 0.539605 0
0.0268254 0.0362707 0.0215763
0.0297704 0.035996 0.0206607
0.0390784 0.0361181 0.0164492
0.056199 0.0351263 0.0108186
0.0780499 0.0356603 0.0056611
0.105104 0.0363775 0
0.138705 0.0380865 0
0.175799 0.0415503 0
0.215457 0.0473487 0
0.257847 0.0561227 0
0.302296 0.0682383 0
0.34847 0.0840314 0
0.396124 0.103822 0
0.445075 0.127031 0
0.495171 0.150851 0
0.546563 0.173846 0
0.598596 0.195911 0
0.649943 0.22031 0
0.701671 0.244999 0
0.753429 0.269657 0
0.805463 0.294423 0
0.856641 0.318776 0
0.907164 0.342809 0
0.956878 0.366537 0
1 0.38967 0
1 0.411948 0
1 0.433478 0
1 0.453758 0
1 0.472969 0
1 0.490806 0
1 0.507118 0
1 0.52166 0
1 0.534325 0
0.0334325 0.0449073 0.0219425
0.0367285 0.0442817 0.0217746
0.045716 0.0453956 0.0170748
0.063035 0.045182 0.00753796
0.0879225 0.042649 0
0.112902 0.0428473 0
0.141726 0.0444038 0
0.175967 0.0480049 0
0.213825 0.0540475 0
0.254978 0.0630503 0
0.298558 0.0754101 0
0.344015 0.0914015 0
0.390951 0.111345 0
0.439231 0.133272 0
0.488624 0.156069 0
0.540032 0.176013 0
0.591638 0.196826 0
0.642069 0.220706 0
0.69276 0.24477 0
0.74345 0.268818 0
0.794308 0.292958 0
0.844282 0.31667 0
0.893507 0.340047 0
0.941878 0.363073 0
0.989059 0.385519 0
1 0.40708 0
1 0.427909 0
1 0.447501 0
1 0.466026 0
1 0.483177 0
1 0.498848 0
1 0.512795 0
1 0.524926 0
0.0426642 0.0546578 0.0229191
0.0449226 0.0546426 0.0215457
0.0545663 0.057084 0.0169833
0.0695354 0.0583047 0.0099031
0.0958114 0.0568093 0
0.125994 0.0532082 0
0.149844 0.0530251 0
0.17908 0.0555428 0
0.213138 0.0609598 0
0.25156 0.0695964 0
0.293065 0.0815595 0
0.33695 0.0970932 0
0.382635 0.116411 0
0.429801 0.137179 0
0.478141 0.158938 0
0.528786 0.177737 0
0.580224 0.196674 0
0.63032 0.218448 0
0.679744 0.24181 0
0.729137 0.265217 0
0.778653 0.288701 0
0.827237 0.311833 0
0.875029 0.334508 0
0.921889 0.356771 0
0.967544 0.3785 0
1 0.399359 0
1 0.419486 0
1 0.438331 0
1 0.456153 0
1 0.472648 0
1 0.487678 0
1 0.50103 0
1 0.512627 0
0.0521553 0.0668498 0.0226902
0.0543526 0.0669871 0.0211643
0.0646372 0.0702525 0.0172732
0.0791028 0.0724193 0.0114748
0.101854 0.0729076 0
0.132784 0.0705425 0
0.160998 0.0661173 0
0.185962 0.0661784 0
0.215457 0.0697795 0
0.249851 0.0769665 0
0.288228 0.0878767 0
0.329732 0.102556 0
0.373541 0.12079 0
0.419181 0.140429 0
0.466072 0.160998 0
0.515343 0.179278 0
0.565576 0.197269 0
0.616098 0.215549 0
0.6645 0.237629 0
0.712505 0.260441 0
0.76054 0.283192 0
0.807614 0.305562 0
0.853864 0.32752 0
0.899168 0.34905 0
0.943221 0.370092 0
0.985367 0.390204 0
1 0.409583 0
1 0.427756 0
1 0.444907 0
1 0.460731 0
1 0.475151 0
1 0.487968 0
1 0.499062 0
0.0635233 0.0814221 0.0231174
0.065919 0.0818494 0.0217746
0.0769665 0.0859846 0.0188144
0.0915084 0.0890516 0.0137484
0.112444 0.0904555 0.00370794
0.137957 0.0897993 0
0.166278 0.0864576 0
0.194675 0.0812848 0
0.220508 0.0818952 0
0.250797 0.0867781 0
0.285496 0.096025 0
0.323857 0.109499 0
0.365133 0.12575 0
0.408545 0.143694 0
0.45359 0.162921 0
0.501167 0.180911 0
0.550042 0.197894 0
0.599268 0.215228 0
0.648188 0.233341 0
0.694606 0.255238 0
0.741085 0.277272 0
0.786587 0.298894 0
0.83125 0.320119 0
0.874937 0.340887 0
0.917388 0.361105 0
0.9579 0.380545 0
0.996872 0.399191 0
1 0.416663 0
1 0.433127 0
1 0.448371 0
1 0.462211 0
1 0.47451 0
1 0.485191 0
0.0797436 0.101534 0.0263523
0.0822766 0.102159 0.0251621
0.094255 0.107362 0.0233005
0.109361 0.111528 0.0186313
0.127565 0.113436 0.0102846
0.148623 0.113863 0
0.172259 0.112245 0
0.198718 0.107637 0
0.228717 0.101518 0
0.255314 0.102373 0
0.285756 0.108446 0
0.32018 0.118563 0
0.358144 0.132036 0
0.398871 0.147936 0
0.441611 0.16553 0
0.48687 0.182773 0
0.534295 0.198734 0
0.58201 0.215045 0
0.629816 0.231632 0
0.676112 0.25037 0
0.720913 0.271427 0
0.764797 0.292241 0
0.807843 0.312718 0
0.849912 0.332723 0
0.890745 0.352178 0
0.929747 0.370809 0
0.967147 0.3888 0
1 0.405615 0
1 0.421469 0
1 0.436118 0
1 0.449439 0
1 0.46128 0
1 0.471595 0
0.101244 0.126589 0.03299
0.103929 0.127306 0.0319982
0.116945 0.13283 0.0313115
0.130907 0.137072 0.0269627
0.146532 0.1393 0.0203403
0.16408 0.140276 0.00894179
0.183597 0.139849 0
0.205035 0.137697 0
0.232425 0.13344 0
0.263844 0.12723 0
0.290776 0.128191 0
0.321157 0.13402 0
0.355093 0.143648 0
0.392264 0.15642 0
0.431998 0.171496 0
0.474922 0.186297 0
0.519997 0.200656 0
0.565942 0.215686 0
0.611978 0.231067 0
0.657954 0.246693 0
0.701106 0.266636 0
0.743297 0.286427 0
0.784756 0.306142 0
0.825223 0.325338 0
0.8645 0.34403 0
0.901991 0.361929 0
0.938003 0.379156 0
0.971542 0.395392 0
1 0.410651 0
1 0.42475 0
1 0.437644 0
1 0.449104 0
1 0.459083 0
0.127611 0.15314 0.0434272
0.130083 0.153887 0.0426337
0.141939 0.159594 0.0432593
0.154803 0.164294 0.0393378
0.168307 0.166644 0.0341955
0.183093 0.167865 0.0245975
0.199359 0.168063 0.0110018
0.217151 0.167056 0
0.238239 0.164904 0
0.267201 0.160708 0
0.299596 0.154757 0
0.326772 0.155932 0
0.356771 0.161349 0
0.389944 0.170397 0
0.426322 0.182071 0
0.467155 0.193423 0
0.509453 0.205875 0
0.552712 0.21912 0
0.596719 0.233051 0
0.640665 0.247272 0
0.682857 0.264393 0
0.723217 0.282902 0
0.762875 0.301274 0
0.801709 0.319554 0
0.839414 0.337316 0
0.875441 0.354406 0
0.910079 0.370886 0
0.942412 0.386481 0
0.972854 0.401144 0
1 0.41474 0
1 0.427253 0
1 0.438361 0
1 0.448096 0
0.155062 0.180941 0.0583658
0.157275 0.181704 0.0577707
0.168276 0.187488 0.0597238
0.180163 0.192401 0.0567636
0.192218 0.195087 0.0525216
0.204852 0.196429 0.0445563
0.218524 0.196933 0.032929
0.233371 0.196597 0.0178531
0.249836 0.195453 0
0.272694 0.193393 0
0.302876 0.189456 0
0.336126 0.184039 0
0.363149 0.185092 0
0.393362 0.189715 0
0.427955 0.196292 0
0.46508 0.204929 0
0.504128 0.215091 0
0.544549 0.226383 0
0.585855 0.238514 0
0.62739 0.251133 0
0.667674 0.266331 0
0.706142 0.283268 0
0.74403 0.300298 0
0.781216 0.317342 0
0.817349 0.333989 0
0.851987 0.350118 0
0.885313 0.365789 0
0.916533 0.380682 0
0.945968 0.39472 0
0.973281 0.407843 0
0.998032 0.419959 0
1 0.430793 0
1 0.440345 0
0.183261 0.209567 0.0780652
0.18526 0.210361 0.0777142
0.195468 0.216114 0.0808881
0.2065 0.221088 0.079469
0.217548 0.224231 0.0755169
0.228641 0.225772 0.0692912
0.240284 0.226429 0.0594339
0.25275 0.226429 0.0464332
0.266072 0.225864 0.0309606
0.283894 0.224826 0.00932326
0.308186 0.222995 0
0.339193 0.219608 0
0.375372 0.21355 0
0.40502 0.213092 0
0.436088 0.216037 0
0.469459 0.2215 0
0.504936 0.228946 0
0.542321 0.238025 0
0.580545 0.248066 0
0.619394 0.258869 0
0.656443 0.273182 0
0.692943 0.288228 0
0.729122 0.303792 0
0.764614 0.319326 0
0.799252 0.334722 0
0.832624 0.349783 0
0.86482 0.36463 0
0.895048 0.378698 0
0.923659 0.392096 0
0.950164 0.404654 0
0.974411 0.416373 0
0.996048 0.426886 0
1 0.436332 0
0.21178 0.238621 0.102693
0.213657 0.23946 0.102617
0.223636 0.245548 0.1075
0.233661 0.250324 0.107179
0.243824 0.253727 0.10341
0.253758 0.255512 0.0991226
0.26392 0.256397 0.0909133
0.274418 0.256443 0.0794995
0.285527 0.256123 0.0661479
0.299413 0.255619 0.0488594
0.318853 0.25507 0.0250858
0.343969 0.253758 0
0.374899 0.250935 0
0.411643 0.245914 0
0.446097 0.24329 0
0.479469 0.243763 0
0.512078 0.247852 0
0.546227 0.254322 0
0.580484 0.262913 0
0.614893 0.273487 0
0.649729 0.28542 0
0.684352 0.298283 0
0.718807 0.312016 0
0.752712 0.325902 0
0.785946 0.339925 0
0.81799 0.353796 0
0.849104 0.36759 0
0.878431 0.380804 0
0.906249 0.393484 0
0.932174 0.405509 0
0.955978 0.41677 0
0.977295 0.426932 0
0.996063 0.436149 0
0.240574 0.267994 0.128771
0.242313 0.268818 0.128908
0.251865 0.274983 0.134356
0.261524 0.280003 0.135653
0.270665 0.283345 0.131731
0.279301 0.284962 0.128603
0.288197 0.285893 0.123079
0.297398 0.286229 0.115068
0.30695 0.286183 0.104921
0.318288 0.286152 0.0913405
0.333974 0.286015 0.0715953
0.35465 0.285771 0.0457771
0.380392 0.284993 0.0147402
0.411383 0.282902 0
0.448325 0.278828 0
0.482948 0.276753 0
0.516411 0.277531 0
0.549126 0.280613 0
0.581735 0.286137 0
0.614496 0.293751 0
0.647608 0.303029 0
0.680583 0.313695 0
0.713329 0.325216 0
0.745724 0.337255 0
0.777584 0.349706 0
0.808454 0.36228 0
0.838605 0.375006 0
0.867018 0.387182 0
0.894118 0.399023 0
0.91957 0.410529 0
0.942916 0.421134 0
0.963989 0.43093 0
0.982681 0.439948 0
0.26949 0.297505 0.1552
0.271122 0.298344 0.155489
0.280201 0.304433 0.161181
0.288853 0.309087 0.162387
0.297353 0.31249 0.159518
0.305272 0.314336 0.156542
0.31342 0.315572 0.153201
0.32166 0.316197 0.147967
0.330083 0.316457 0.141268
0.339437 0.316426 0.132342
0.352453 0.316564 0.118715
0.369726 0.316854 0.0986191
0.391546 0.317067 0.0711681
0.417731 0.316808 0.0399329
0.448707 0.315373 0.00468452
0.485832 0.312459 0
0.520439 0.310903 0
0.553506 0.311452 0
0.585718 0.314168 0
0.617533 0.318944 0
0.649546 0.325734 0
0.681163 0.333974 0
0.712505 0.343236 0
0.743557 0.353353 0
0.774182 0.36408 0
0.804135 0.375387 0
0.833188 0.386648 0
0.860807 0.397772 0
0.887236 0.408713 0
0.912184 0.419471 0
0.935149 0.42945 0
0.956039 0.43888 0
0.974594 0.447501 0
0.298222 0.326863 0.181506
0.299657 0.327611 0.18172
0.307637 0.333043 0.186282
0.315847 0.337697 0.188067
0.323964 0.341268 0.186526
0.33164 0.343709 0.183764
0.33901 0.345006 0.181674
0.346441 0.345815 0.178164
0.354025 0.346334 0.173663
0.362203 0.346593 0.167666
0.373358 0.346975 0.158389
0.388113 0.347555 0.144945
0.406806 0.348257 0.126314
0.429541 0.348898 0.100984
0.456275 0.349401 0.0701915
0.48719 0.348531 0.0344091
0.523842 0.346075 0
0.558282 0.344976 0
0.591119 0.345647 0
0.622919 0.348104 0
0.654505 0.352605 0
0.685222 0.358404 0
0.715618 0.36553 0
0.745678 0.373739 0
0.775433 0.382864 0
0.804364 0.392493 0
0.832532 0.402365 0
0.859434 0.412329 0
0.885451 0.422538 0
0.909773 0.432242 0
0.932342 0.44155 0
0.953094 0.450553 0
0.97145 0.45864 0
0.325826 0.35523 0.206073
0.327031 0.355825 0.20618
0.334905 0.361425 0.211124
0.34287 0.366232 0.213581
0.350591 0.369894 0.212985
0.358007 0.372717 0.210117
0.364935 0.374304 0.209155
0.371801 0.375326 0.206943
0.378698 0.376074 0.203861
0.386053 0.376577 0.199695
0.395956 0.377234 0.193103
0.408927 0.378073 0.183459
0.425238 0.37908 0.170184
0.445411 0.380438 0.153124
0.468864 0.381476 0.130907
0.495506 0.382132 0.103777
0.526421 0.381704 0.0666514
0.562707 0.379904 0.00988785
0.59704 0.379416 0
0.629709 0.380331 0
0.661326 0.382589 0
0.691859 0.386389 0
0.721782 0.391531 0
0.751446 0.398077 0
0.780438 0.405386 0
0.808576 0.413367 0
0.836072 0.421836 0
0.862394 0.430625 0
0.887861 0.439719 0
0.911727 0.448524 0
0.934066 0.457176 0
0.954559 0.465507 0
0.972763 0.473121 0
0.353094 0.383261 0.230365
0.354437 0.384054 0.230793
0.362051 0.38967 0.235889
0.369787 0.394537 0.238773
0.377249 0.398383 0.239017
0.384329 0.401358 0.237156
0.391028 0.403403 0.235721
0.397513 0.40473 0.234562
0.403922 0.405722 0.232593
0.410697 0.406439 0.229648
0.419821 0.407431 0.224903
0.431678 0.408652 0.217838
0.446311 0.409949 0.207889
0.464027 0.411353 0.194766
0.484932 0.412818 0.17821
0.508934 0.41416 0.15816
0.535637 0.415183 0.135271
0.56672 0.41529 0.101717
0.602731 0.414191 0.0421302
0.636576 0.413886 0
0.669047 0.41474 0
0.700053 0.416968 0
0.730159 0.420523 0
0.759625 0.425345 0
0.78822 0.430961 0
0.815946 0.43743 0
0.843061 0.444602 0
0.869108 0.452354 0
0.89395 0.460121 0
0.917449 0.467964 0
0.939666 0.476005 0
0.959792 0.483513 0
0.977996 0.490715 0
0.380102 0.411063 0.25449
0.38143 0.411887 0.255024
0.389044 0.417716 0.26041
0.396735 0.422843 0.263859
0.403876 0.426719 0.264591
0.410742 0.429892 0.263584
0.417273 0.432349 0.261631
0.423484 0.433982 0.261265
0.429664 0.43534 0.260273
0.43621 0.436454 0.258396
0.444648 0.437552 0.254688
0.455421 0.438834 0.249042
0.468772 0.440345 0.24123
0.484871 0.442039 0.230961
0.503777 0.443809 0.217929
0.525505 0.445579 0.20209
0.550225 0.447486 0.184039
0.576913 0.448814 0.164065
0.60795 0.449073 0.133532
0.643351 0.44828 0.075349
0.677058 0.448234 0.0209201
0.709224 0.449577 0
0.739834 0.451728 0
0.769406 0.454917 0
0.798047 0.459113 0
0.825635 0.464179 0
0.85275 0.470253 0
0.87837 0.476585 0
0.902953 0.483299 0
0.926513 0.490486 0
0.948241 0.497414 0
0.9682 0.504219 0
0.986481 0.51104 0
0.406836 0.43859 0.27834
0.408148 0.43946 0.27895
0.415778 0.445487 0.284596
0.423377 0.450782 0.28838
0.430564 0.455055 0.289876
0.437339 0.458473 0.289647
0.443763 0.461295 0.28806
0.449775 0.463249 0.287358
0.455619 0.464759 0.2869
0.461921 0.466072 0.285603
0.470024 0.46746 0.282795
0.480156 0.468956 0.278309
0.492515 0.470634 0.271992
0.507317 0.472511 0.26363
0.524926 0.474769 0.253285
0.5449 0.476921 0.240406
0.567315 0.47895 0.225132
0.592035 0.480781 0.207935
0.618677 0.482353 0.189929
0.649805 0.482841 0.160922
0.685252 0.482673 0.109239
0.718334 0.482963 0.0524453
0.749813 0.484108 0.00332647
0.780011 0.486168 0
0.809186 0.489265 0
0.837201 0.493324 0
0.864073 0.497902 0
0.889632 0.503105 0
0.914443 0.509071 0
0.937591 0.515038 0
0.959213 0.521157 0
0.9794 0.527565 0
0.99733 0.533516 0
0.433646 0.466224 0.302235
0.43473 0.466911 0.302663
0.442359 0.473106 0.308446
0.449973 0.478676 0.312612
0.457115 0.483177 0.31458
0.463783 0.486793 0.3149
0.47013 0.489845 0.314
0.476158 0.492317 0.312657
0.481834 0.494102 0.312703
0.488014 0.495659 0.311864
0.495888 0.497276 0.309712
0.505577 0.499031 0.306142
0.517372 0.50106 0.301106
0.531304 0.503212 0.29427
0.547372 0.505409 0.285405
0.565789 0.507729 0.274525
0.586557 0.510063 0.261601
0.609506 0.512291 0.246738
0.634501 0.514382 0.230533
0.66128 0.516381 0.214282
0.692699 0.51696 0.18555
0.727108 0.516869 0.138674
0.759731 0.517372 0.0842756
0.790936 0.5187 0.031754
0.820874 0.520897 0
0.849165 0.523735 0
0.876371 0.52726 0
0.902358 0.531701 0
0.927016 0.536461 0
0.950179 0.541527 0
0.972107 0.547112 0
0.991974 0.55256 0
1 0.557931 0
0.459998 0.493416 0.325628
0.461295 0.494347 0.326329
0.468956 0.50074 0.33225
0.476448 0.506401 0.336507
0.483558 0.511101 0.338857
0.490211 0.514992 0.339696
0.496452 0.518257 0.33933
0.502449 0.521065 0.338033
0.508095 0.523262 0.337804
0.514427 0.52517 0.337407
0.522347 0.527169 0.335927
0.531731 0.529168 0.333028
0.542885 0.531243 0.32871
0.555932 0.533471 0.322835
0.570993 0.535805 0.315267
0.58819 0.538262 0.305913
0.607721 0.540963 0.294896
0.629297 0.543587 0.282032
0.652689 0.545998 0.267506
0.677775 0.54818 0.251972
0.704311 0.550042 0.236316
0.735759 0.550805 0.207706
0.769863 0.551217 0.164385
0.802029 0.551873 0.115648
0.832639 0.553155 0.0605936
0.861601 0.555154 0.0121614
0.889662 0.558114 0
0.91577 0.56144 0
0.940612 0.565255 0
0.964034 0.569589 0
0.986023 0.57438 0
1 0.579126 0
1 0.584222 0
0.486122 0.520424 0.348669
0.487434 0.521401 0.349432
0.495232 0.528099 0.35555
0.502922 0.534142 0.360204
0.510124 0.539147 0.362951
0.516808 0.543328 0.364248
0.523064 0.546853 0.364416
0.52903 0.549874 0.363622
0.534768 0.552529 0.362554
0.541192 0.554665 0.362417
0.548882 0.556786 0.361166
0.558007 0.558923 0.35877
0.568704 0.561151 0.355077
0.58114 0.563516 0.350011
0.595605 0.566171 0.343618
0.611948 0.568887 0.335576
0.630106 0.571557 0.325734
0.650217 0.574243 0.314244
0.672236 0.576883 0.301183
0.695964 0.579385 0.28687
0.721569 0.581903 0.271977
0.747845 0.583947 0.257389
0.779324 0.58471 0.228168
0.812589 0.585046 0.186694
0.844221 0.58584 0.14168
0.874342 0.587503 0.0907301
0.902739 0.589441 0.0390021
0.929381 0.592004 0
0.954971 0.595376 0
0.978592 0.598886 0
1 0.602762 0
1 0.607126 0
1 0.61146 0
0.512322 0.547555 0.371695
0.513466 0.548394 0.37229
0.521355 0.555291 0.378485
0.529183 0.561639 0.383398
0.536461 0.566918 0.386481
0.54313 0.571313 0.388113
0.549416 0.575097 0.388693
0.555398 0.578363 0.388388
0.561227 0.581338 0.387304
0.567819 0.583856 0.386557
0.575494 0.586175 0.385657
0.584497 0.588571 0.383719
0.595148 0.591196 0.380789
0.60708 0.593683 0.376379
0.620691 0.596277 0.370611
0.636057 0.598978 0.363394
0.653239 0.60177 0.354665
0.672251 0.604578 0.344366
0.693233 0.607553 0.332723
0.715831 0.610376 0.319661
0.739925 0.612909 0.305318
0.765087 0.615259 0.290776
0.791089 0.61735 0.276829
0.822965 0.618357 0.246921
0.855634 0.618875 0.207233
0.886351 0.619791 0.165423
0.915496 0.621164 0.119097
0.943084 0.623423 0.0682689
0.968765 0.625849 0.0217594
0.992706 0.628717 0
1 0.632288 0
1 0.635843 0
1 0.639597 0
0.538155 0.574334 0.394171
0.539498 0.575418 0.39501
0.547555 0.582605 0.401358
0.555474 0.589197 0.406455
0.562737 0.594629 0.409705
0.569375 0.599191 0.411566
0.575708 0.603174 0.412482
0.581796 0.606821 0.412695
0.5879 0.610101 0.411978
0.594751 0.613092 0.410437
0.602411 0.615625 0.409781
0.611246 0.618128 0.408118
0.621378 0.620676 0.405417
0.632929 0.623301 0.401541
0.645975 0.625986 0.396414
0.660655 0.628748 0.38996
0.677302 0.631891 0.382315
0.695338 0.634806 0.373007
0.715068 0.63772 0.362249
0.7364 0.640574 0.350134
0.759335 0.64329 0.33669
0.78378 0.646174 0.322896
0.80885 0.648539 0.308721
0.834592 0.65066 0.295293
0.866148 0.651362 0.264134
0.897719 0.651972 0.226505
0.927977 0.653239 0.187472
0.955825 0.654688 0.14638
0.98201 0.65658 0.100664
1 0.659205 0.0539406
1 0.661936 0.0138094
1 0.664988 0
1 0.668574 0
0.563882 0.601038 0.416464
0.565026 0.601953 0.417105
0.573251 0.60943 0.423621
0.581308 0.616281 0.428885
0.588785 0.62208 0.432502
0.595605 0.626993 0.43476
0.601984 0.63122 0.436011
0.607935 0.634897 0.436408
0.614176 0.638315 0.435721
0.621225 0.641688 0.433417
0.628931 0.644419 0.433005
0.637659 0.647089 0.431632
0.647578 0.64976 0.429252
0.659083 0.65275 0.426032
0.671687 0.655528 0.421408
0.685771 0.658366 0.415564
0.701366 0.66128 0.408392
0.718578 0.66424 0.399878
0.737499 0.667338 0.390082
0.758038 0.670451 0.379004
0.779934 0.673274 0.366445
0.803006 0.676005 0.353094
0.8271 0.678553 0.339269
0.852186 0.681071 0.325673
0.877607 0.683284 0.313008
0.908873 0.683955 0.28101
0.939544 0.684627 0.244968
0.968048 0.68574 0.20882
0.995132 0.687495 0.171725
1 0.689342 0.132662
1 0.691646 0.0902876
1 0.694499 0.0514382
1 0.697383 0.0191196
0.589136 0.627314 0.438148
0.590524 0.628519 0.439063
0.598901 0.63621 0.44567
0.607126 0.643351 0.451133
0.614466 0.649165 0.454734
0.621363 0.654276 0.457221
0.627787 0.658732 0.458732
0.63386 0.662623 0.459434
0.64036 0.666362 0.45893
0.647654 0.670039 0.456947
0.655451 0.673091 0.455802
0.664134 0.675898 0.454673
0.673869 0.678676 0.452598
0.684779 0.681468 0.449485
0.696971 0.684306 0.445289
0.710628 0.687282 0.440009
0.725841 0.690425 0.43357
0.742306 0.693401 0.425727
0.760266 0.696376 0.416571
0.779675 0.699336 0.406149
0.80061 0.702205 0.394385
0.823026 0.705318 0.382025
0.846189 0.707988 0.368719
0.870192 0.710475 0.355123
0.894728 0.712764 0.341848
0.919493 0.715038 0.330007
0.950698 0.715724 0.296956
0.979858 0.716548 0.263325
1 0.717678 0.229511
1 0.719478 0.19617
1 0.721325 0.162478
1 0.723522 0.128832
1 0.726299 0.0952163
0.61416 0.653391 0.459571
0.615427 0.654459 0.460365
0.623896 0.662333 0.467002
0.632212 0.669688 0.472587
0.639902 0.67599 0.476616
0.646906 0.681315 0.479347
0.653346 0.685924 0.481056
0.65951 0.689967 0.48188
0.666117 0.693828 0.481392
