luts/Bat-Log3G10.cube
TITLE "Generated by Resolve"
LUT_3D_SIZE 9
0.0326696 0.0361334 0.0265354
0.063859 0.0370794 0.0193484
0.196063 0.0446632 0
0.445548 0.124224 0
0.756664 0.268894 0
1 0.405692 0
1 0.495598 0
1 0.533165 0
1 0.54023 0
0.0467842 0.0522469 0.0228275
0.0782483 0.0530098 0.00460822
0.194369 0.0547646 0
0.433341 0.13518 0
0.738231 0.267552 0
1 0.400671 0
1 0.491035 0
1 0.531044 0
1 0.539147 0
0.0985885 0.117861 0.0273899
0.125185 0.126268 0.0214542
0.211719 0.12282 0
0.392096 0.15053 0
0.667079 0.248142 0
0.910201 0.362539 0
1 0.438071 0
1 0.471672 0
1 0.479362 0
0.241779 0.269215 0.129885
0.255482 0.277546 0.13611
0.297658 0.287388 0.117006
0.404166 0.284627 0
0.61265 0.293309 0
0.798505 0.357351 0
0.922332 0.409644 0
0.975753 0.433524 0
0.986526 0.4383 0
0.408469 0.440269 0.279805
0.408453 0.440269 0.279789
0.439841 0.460502 0.290791
0.497856 0.472969 0.271687
0.642252 0.484672 0.174716
0.826429 0.492332 0
0.937484 0.514717 0
0.986221 0.528771 0
0.99649 0.532097 0
0.557183 0.594095 0.410651
0.557183 0.594095 0.410651
0.557168 0.594079 0.410651
0.627176 0.63859 0.426322
0.738537 0.660716 0.379248
0.888106 0.67509 0.286976
1 0.68069 0.115465
1 0.686702 0.0176852
1 0.688746 0
0.664912 0.70634 0.502663
0.664912 0.70634 0.502663
0.664912 0.706325 0.502663
0.700938 0.737804 0.524468
0.822202 0.77911 0.493675
0.954314 0.797879 0.421668
1 0.806195 0.348745
1 0.809323 0.285145
1 0.810498 0.267887
0.717693 0.761456 0.54725
0.717693 0.761456 0.54725
0.717693 0.761456 0.54725
0.717678 0.761456 0.547234
0.861265 0.833585 0.545342
0.991379 0.853071 0.475715
1 0.862882 0.420447
1 0.865919 0.374655
1 0.866758 0.356863
0.727443 0.771664 0.555444
0.727443 0.771664 0.555444
0.727443 0.771664 0.555444
0.727443 0.771664 0.555444
0.865171 0.842756 0.555856
0.996963 0.862867 0.486122
1 0.872938 0.430213
1 0.876219 0.390631
1 0.877119 0.372366
0.0352178 0.0469673 0.055375
0.0506752 0.049134 0.0616922
0.19266 0.0509194 0.0263371
0.442084 0.13373 0
0.756985 0.268467 0
1 0.405661 0
1 0.495598 0
1 0.533165 0
1 0.54023 0
0.0210269 0.0623178 0.0710918
0.0550546 0.0637064 0.0585946
0.179278 0.0715801 0.0248875
0.434607 0.136782 0
0.739574 0.267918 0
1 0.401312 0
1 0.49163 0
1 0.531487 0
1 0.539574 0
0.0958267 0.1196 0.0396582
0.122972 0.127733 0.0301976
0.21091 0.122499 0
0.39237 0.150225 0
0.667918 0.248325 0
0.911528 0.362982 0
1 0.43859 0
1 0.472435 0
1 0.480079 0
0.241306 0.268742 0.129458
0.254902 0.276997 0.135622
0.29723 0.2869 0.116533
0.404028 0.284092 0
0.612604 0.292943 0
0.798611 0.357183 0
0.922423 0.409491 0
0.975952 0.433448 0
0.98674 0.438224 0
0.408331 0.440131 0.279683
0.408331 0.440131 0.279667
0.439643 0.460334 0.290669
0.497704 0.472801 0.271534
0.642237 0.48452 0.174426
0.826368 0.49218 0
0.937423 0.51458 0
0.986175 0.528679 0
0.996429 0.531975 0
0.557137 0.594034 0.410605
0.557137 0.594034 0.410605
0.557122 0.594034 0.410605
0.6271 0.638514 0.426261
0.738476 0.660655 0.379202
0.88809 0.675029 0.286885
1 0.680629 0.115328
1 0.686656 0.0175631
1 0.688701 0
0.664897 0.70631 0.502647
0.664897 0.70631 0.502647
0.664881 0.70631 0.502647
0.700862 0.737728 0.524422
0.822171 0.77908 0.49366
0.954284 0.797848 0.421637
1 0.806165 0.348699
1 0.809293 0.2851
1 0.810468 0.267842
0.717678 0.76144 0.547234
0.717678 0.76144 0.547234
0.717662 0.76144 0.547234
0.717662 0.761425 0.547219
0.861234 0.83357 0.545342
0.991363 0.853056 0.4757
1 0.862867 0.420447
1 0.865904 0.374624
1 0.866743 0.356832
0.727443 0.771664 0.555444
0.727443 0.771664 0.555444
0.727443 0.771664 0.555444
0.727443 0.771664 0.555444
0.865156 0.842756 0.555871
0.996963 0.862867 0.486137
1 0.872938 0.430213
1 0.876204 0.390631
1 0.877119 0.372366
0.0488746 0.0978714 0.164523
0.0663005 0.100557 0.161975
0.132174 0.114885 0.201038
0.426093 0.13933 0.0949111
0.741588 0.275868 0
1 0.4056 0
1 0.495598 0
1 0.533165 0
1 0.54023 0
0.0441444 0.101518 0.162005
0.0636301 0.106111 0.16083
0.135439 0.123232 0.193896
0.418067 0.156909 0.0983444
0.725567 0.285237 0
1 0.403403 0
1 0.493675 0
1 0.532845 0
1 0.54023 0
0 0.152682 0.193668
0.0233463 0.158846 0.192035
0.144854 0.159716 0.160525
0.365881 0.188647 0.0855726
0.660273 0.263966 0
0.916213 0.364462 0
1 0.440909 0
1 0.47509 0
1 0.482856 0
0.235798 0.273167 0.167819
0.249119 0.280095 0.169726
0.293721 0.290379 0.142519
0.403586 0.283833 0
0.612421 0.291585 0
0.798993 0.356542 0
0.923049 0.409094 0
0.976715 0.433158 0
0.987518 0.437964 0
0.407828 0.439612 0.279225
0.407828 0.439612 0.279225
0.438956 0.459724 0.290257
0.497154 0.472221 0.271031
0.642176 0.484001 0.173373
0.826123 0.491615 0
0.937133 0.514092 0
0.986053 0.528344 0
0.996201 0.531533 0
0.556954 0.593851 0.410452
0.556954 0.593851 0.410452
0.556939 0.593851 0.410452
0.62681 0.63827 0.426093
0.738277 0.660456 0.379034
0.887984 0.674815 0.286564
1 0.680415 0.114809
1 0.686458 0.0171206
1 0.688502 0
0.664805 0.706218 0.502571
0.664805 0.706218 0.502571
0.664805 0.706218 0.502571
0.700557 0.737469 0.524254
0.822034 0.778973 0.493599
0.954192 0.797742 0.421561
1 0.806073 0.348562
1 0.809186 0.284947
1 0.810391 0.267704
0.717617 0.761379 0.547189
0.717617 0.761379 0.547189
0.717601 0.761379 0.547189
0.717601 0.761364 0.547173
0.861158 0.833524 0.545327
0.991287 0.852995 0.475654
1 0.862806 0.420386
1 0.865843 0.374563
1 0.866682 0.356756
0.727443 0.771664 0.555444
0.727443 0.771664 0.555444
0.727443 0.771664 0.555444
0.727443 0.771664 0.555444
0.86511 0.842741 0.555886
0.996933 0.862867 0.486137
1 0.872938 0.430213
1 0.876219 0.390631
1 0.877119 0.372366
0.103471 0.228382 0.357763
0.119814 0.229801 0.356664
0.174746 0.241108 0.365286
0.320378 0.279774 0.430869
0.703273 0.306767 0.314275
1 0.408423 0.0059968
1 0.500999 0
1 0.53315 0
1 0.54023 0
0.102129 0.22768 0.355077
0.119203 0.229923 0.354803
0.17644 0.241901 0.362539
0.323491 0.282887 0.429801
0.703258 0.309071 0.313405
1 0.408896 0.00283818
1 0.499809 0
1 0.533135 0
1 0.54023 0
0.0713664 0.221424 0.32932
0.0931868 0.226749 0.33138
0.160006 0.234455 0.326452
0.300404 0.274022 0.382025
0.628504 0.310079 0.28925
0.883955 0.394659 0.099855
1 0.450126 0
1 0.485481 0
1 0.493843 0
0 0.314214 0.376196
0.0259403 0.320684 0.380026
0.157504 0.332403 0.377401
0.320653 0.336538 0.340581
0.546227 0.362982 0.279118
0.773342 0.393317 0.0692454
0.925505 0.40798 0
0.979507 0.432319 0
0.990402 0.437156 0
0.392615 0.447105 0.343755
0.392813 0.447044 0.343267
0.42855 0.467918 0.352483
0.495659 0.485695 0.322667
0.644648 0.492561 0.211292
0.825132 0.489616 0
0.936202 0.512383 0
0.985397 0.526879 0
0.995407 0.529961 0
0.556329 0.593194 0.409918
0.556329 0.593194 0.409918
0.556313 0.593194 0.409903
0.625864 0.637507 0.42562
0.737545 0.659693 0.378454
0.887602 0.674037 0.28542
1 0.679683 0.113176
1 0.685771 0.01561
1 0.687816 0
0.6645 0.705898 0.502312
0.6645 0.705898 0.502312
0.6645 0.705898 0.502312
0.699519 0.736584 0.523735
0.821576 0.778607 0.4934
0.953887 0.797406 0.421286
1 0.805783 0.34815
1 0.80885 0.284413
1 0.810132 0.267185
0.717403 0.761166 0.547005
0.717403 0.761166 0.547005
0.717403 0.761166 0.547005
0.717388 0.761151 0.547005
0.860822 0.83331 0.545266
0.991028 0.852781 0.475517
1 0.862593 0.420218
1 0.865629 0.374304
1 0.866468 0.356466
0.727443 0.771664 0.555444
0.727443 0.771664 0.555444
0.727443 0.771664 0.555444
0.727443 0.771664 0.555444
0.864927 0.842695 0.555962
0.996872 0.862852 0.486183
1 0.872938 0.430243
1 0.876204 0.390646
1 0.877119 0.372366
0.197742 0.385657 0.588037
0.206409 0.386389 0.587304
0.244388 0.391379 0.587427
0.348592 0.427436 0.635706
0.560204 0.483223 0.694636
0.883879 0.537041 0.624979
1 0.522393 0.461387
1 0.542077 0.369131
1 0.545174 0.330648
0.196948 0.385092 0.587304
0.205554 0.385794 0.586542
0.243717 0.390738 0.586557
0.348104 0.426825 0.634852
0.560189 0.482826 0.693568
0.884779 0.536141 0.623407
1 0.522042 0.459525
1 0.541848 0.366842
1 0.545022 0.328557
0.184649 0.373297 0.565164
0.194156 0.375051 0.565423
0.234867 0.379767 0.563333
0.340719 0.41323 0.603387
0.546731 0.473136 0.66627
0.853223 0.525139 0.605478
1 0.516808 0.459632
1 0.538308 0.369207
1 0.542611 0.329076
0.129488 0.368292 0.52047
0.13785 0.369833 0.520287
0.20209 0.374777 0.507088
0.316136 0.388769 0.493156
0.474296 0.435477 0.548409
0.706035 0.471763 0.504524
0.87187 0.481224 0.428779
0.930724 0.494148 0.384329
0.943053 0.49572 0.364477
0.165072 0.501625 0.575814
0.165148 0.501595 0.575647
0.234241 0.523964 0.593225
0.366033 0.543008 0.593698
0.548837 0.562982 0.568673
0.729976 0.588434 0.5355
0.868772 0.602457 0.471962
0.93669 0.603693 0.40914
0.954849 0.599802 0.374411
0.507378 0.623484 0.540169
0.507408 0.623453 0.53994
0.5075 0.623377 0.539208
0.589487 0.671077 0.58735
0.716167 0.699443 0.547372
0.870588 0.712398 0.473869
1 0.698253 0.23238
1 0.68365 0.0103914
1 0.68542 0
0.663478 0.704829 0.501442
0.663478 0.704829 0.501442
0.663478 0.704829 0.501442
0.695918 0.733486 0.521843
0.82005 0.777386 0.492729
0.952865 0.796262 0.420386
1 0.804837 0.346716
1 0.807706 0.282643
1 0.80911 0.2654
0.716731 0.760464 0.546426
0.716731 0.760464 0.546426
0.716731 0.760464 0.546426
0.716716 0.760449 0.546426
0.859541 0.832471 0.544945
0.990173 0.852049 0.475059
1 0.861906 0.419684
1 0.864927 0.373419
1 0.865766 0.355474
0.727443 0.771664 0.555444
0.727443 0.771664 0.555444
0.727443 0.771664 0.555444
0.727443 0.771664 0.555444
0.864332 0.842588 0.556207
0.996658 0.862821 0.486275
1 0.872938 0.430304
1 0.876204 0.390723
1 0.877119 0.372366
0.285344 0.527993 0.795834
0.287098 0.527932 0.795346
0.313802 0.528969 0.791424
0.403265 0.554559 0.810575
0.560754 0.605264 0.89984
0.781247 0.663783 0.917998
0.96022 0.703197 0.898604
1 0.718364 0.85922
1 0.715496 0.846922
0.285222 0.52781 0.795575
0.286809 0.527733 0.795102
0.313405 0.528756 0.791165
0.402884 0.554284 0.810254
0.560586 0.605066 0.899565
0.781247 0.663645 0.917662
0.960174 0.703151 0.898207
1 0.718135 0.858747
1 0.715236 0.846433
0.284825 0.527169 0.794614
0.285496 0.527077 0.794354
0.312016 0.527993 0.790234
0.401556 0.553323 0.809049
0.560006 0.604364 0.898573
0.781247 0.663188 0.916457
0.960006 0.703029 0.896788
1 0.717311 0.857053
1 0.71429 0.844648
0.225559 0.46006 0.679484
0.225544 0.460044 0.679454
0.257511 0.460761 0.669947
0.342168 0.465888 0.653819
0.476661 0.506554 0.71667
0.654582 0.564263 0.747189
0.791104 0.598276 0.74136
0.861891 0.613794 0.718837
0.881788 0.613611 0.712352
0.202319 0.538354 0.714595
0.202304 0.538338 0.714565
0.235554 0.550362 0.720363
0.380514 0.560327 0.686809
0.536324 0.590921 0.678325
0.67071 0.634653 0.730571
0.785016 0.668101 0.724743
0.859007 0.673716 0.710353
0.876585 0.673136 0.70454
0.310994 0.68127 0.767086
0.311009 0.681254 0.767025
0.311101 0.681193 0.766842
0.426017 0.732601 0.811002
0.601511 0.757855 0.807813
0.767208 0.780438 0.788266
0.882567 0.798611 0.774563
0.93724 0.807004 0.762142
0.952316 0.808515 0.756436
0.503655 0.781552 0.773342
0.503746 0.781537 0.773281
0.504082 0.781445 0.773053
0.528435 0.806912 0.799405
0.723339 0.852872 0.823941
0.873152 0.873625 0.789761
0.974334 0.884962 0.769146
1 0.887236 0.732967
1 0.887633 0.720745
0.641321 0.813672 0.752956
0.641382 0.813642 0.75288
0.641566 0.81355 0.752605
0.64239 0.813184 0.751461
0.800244 0.885039 0.801465
0.938415 0.907317 0.746654
1 0.914702 0.70251
1 0.91429 0.660273
1 0.912993 0.635096
0.673243 0.817884 0.725475
0.673274 0.817853 0.725338
0.673381 0.817792 0.724849
0.673762 0.817578 0.723156
0.828275 0.885481 0.769207
0.963195 0.908843 0.70193
1 0.913252 0.636194
1 0.909438 0.56788
1 0.905882 0.522896
0.33817 0.61326 0.920195
0.33817 0.613245 0.920165
0.353658 0.612207 0.915129
0.427604 0.628229 0.92398
0.579797 0.68127 0.99826
0.762631 0.715557 1
0.92134 0.771023 1
0.991531 0.789502 1
1 0.791684 1
0.338125 0.613184 0.920089
0.338125 0.613184 0.920073
0.353353 0.612131 0.915084
0.427329 0.628107 0.923842
0.57966 0.681178 0.998108
0.762585 0.715496 1
0.92134 0.770977 1
0.991547 0.789456 1
1 0.791638 1
0.337987 0.612955 0.919738
0.337972 0.61294 0.919722
0.352209 0.611917 0.914992
0.426322 0.627634 0.923339
0.579202 0.680842 0.997604
0.762402 0.715282 1
0.921324 0.770794 1
0.991577 0.789303 1
1 0.791424 1
0.337453 0.612085 0.918486
0.337438 0.61207 0.918456
0.34818 0.611246 0.914748
0.422782 0.625864 0.921416
0.57763 0.679728 0.995911
0.761776 0.714397 1
0.921248 0.770184 1
0.99173 0.788632 1
1 0.790707 1
0.243137 0.539849 0.742306
0.243122 0.539834 0.74229
0.245151 0.540413 0.742214
0.375753 0.562509 0.725628
0.524392 0.596933 0.728679
0.648478 0.639765 0.802441
0.756848 0.682734 0.818814
0.807553 0.700343 0.822065
0.819318 0.70341 0.823346
0.286763 0.702144 0.86453
0.286748 0.702129 0.86453
0.286748 0.702113 0.864485
0.395056 0.748837 0.901396
0.604547 0.768902 0.873732
0.758953 0.79649 0.856565
0.845762 0.823987 0.891752
0.893462 0.838636 0.893217
0.906279 0.840391 0.894423
0.401694 0.814511 0.909499
0.401709 0.814496 0.909483
0.40174 0.814481 0.909407
0.407111 0.819059 0.913939
0.641093 0.890517 0.961517
0.80354 0.909865 0.948318
0.912871 0.924498 0.932906
0.961776 0.932403 0.929793
0.975998 0.934707 0.927657
0.480644 0.867536 0.924697
0.480659 0.867536 0.924681
0.48072 0.867506 0.92459
0.480888 0.867414 0.9243
0.678492 0.939254 0.978134
0.838941 0.955886 0.963104
0.951644 0.964721 0.946456
0.996323 0.971679 0.936873
1 0.97319 0.933364
0.504814 0.881422 0.927108
0.504829 0.881407 0.927077
0.504891 0.881392 0.927001
0.505104 0.8813 0.92668
0.68777 0.95137 0.980667
0.850034 0.967117 0.964523
0.966308 0.975143 0.941741
1 0.980911 0.932464
1 0.982376 0.931991
0.349264 0.631174 0.946334
0.349264 0.631174 0.946334
0.357321 0.630533 0.943435
0.429053 0.643015 0.947509
0.583307 0.696849 1
0.761776 0.733837 1
0.915175 0.783459 1
0.982284 0.805753 1
0.996201 0.809552 1
0.349264 0.631174 0.946334
0.349264 0.631174 0.946334
0.357031 0.630549 0.943542
0.428794 0.642939 0.947448
0.5832 0.696803 1
0.76173 0.733837 1
0.91516 0.783444 1
0.982269 0.805753 1
0.996201 0.809552 1
0.349264 0.631174 0.946334
0.349264 0.631174 0.946334
0.356039 0.63064 0.943893
0.427893 0.642664 0.947234
0.582834 0.696696 1
0.761563 0.733806 1
0.915068 0.783413 1
0.982223 0.805737 1
0.996201 0.809552 1
0.349264 0.631174 0.946334
0.349264 0.631174 0.946334
0.352789 0.630945 0.945098
0.424826 0.641749 0.946517
0.581506 0.696269 1
0.760952 0.73373 1
0.914763 0.783307 1
0.98204 0.805676 1
0.996201 0.809552 1
0.25034 0.531273 0.744442
0.25034 0.531273 0.744442
0.250324 0.531258 0.744442
0.360739 0.549737 0.730083
0.511055 0.583993 0.733104
0.635172 0.629068 0.815641
0.744076 0.67303 0.838941
0.79379 0.693553 0.842481
0.805158 0.697932 0.843992
0.289906 0.703182 0.883452
0.289906 0.703182 0.883452
0.289906 0.703166 0.883452
0.387747 0.745312 0.914672
0.606424 0.765438 0.879255
0.75407 0.797299 0.873045
0.8374 0.824231 0.920302
0.88333 0.842695 0.925155
0.895003 0.847257 0.926436
0.379171 0.823484 0.954223
0.379171 0.823484 0.954208
0.379171 0.823468 0.954223
0.379156 0.823453 0.954208
0.623468 0.899001 1
0.802045 0.916701 0.984009
0.909895 0.932036 0.963745
0.945937 0.942123 0.978378
0.958175 0.946426 0.97966
0.444633 0.879469 0.979171
0.444648 0.879469 0.979156
0.444663 0.879454 0.97911
0.444755 0.879408 0.978943
0.653208 0.950835 1
0.823438 0.967681 1
0.927413 0.979583 1
0.975586 0.985565 0.993347
0.987335 0.988113 0.993027
0.469306 0.896956 0.985031
0.469306 0.896956 0.985016
0.469352 0.896941 0.98497
0.469703 0.896849 0.984497
0.664652 0.966369 1
0.836851 0.98172 1
0.938186 0.992859 1
0.981445 0.99884 1
0.997436 1 0.998383
0.349264 0.631174 0.946334
0.349264 0.631174 0.946334
0.354116 0.630838 0.944595
0.42623 0.642176 0.946853
0.582101 0.696468 1
0.761227 0.733761 1
0.9149 0.783352 1
0.982116 0.805707 1
0.996201 0.809552 1
0.349264 0.631174 0.946334
0.349264 0.631174 0.946334
0.353857 0.630854 0.944701
0.425986 0.642084 0.946792
0.581994 0.696422 1
0.761181 0.733761 1
0.91487 0.783337 1
0.982101 0.805692 1
0.996201 0.809552 1
0.349264 0.631174 0.946334
0.349264 0.631174 0.946334
0.353002 0.63093 0.945006
0.425086 0.641825 0.946578
0.581613 0.696315 1
0.760998 0.73373 1
0.914794 0.783307 1
0.982055 0.805676 1
0.996201 0.809552 1
0.349264 0.631174 0.946334
0.349264 0.631174 0.946334
0.350729 0.631052 0.945785
0.422034 0.640909 0.945876
0.58027 0.695888 1
0.760388 0.733654 1
0.914488 0.7832 1
0.981872 0.805631 1
0.996201 0.809552 1
0.250523 0.525185 0.742123
0.250523 0.525185 0.742123
0.250523 0.52517 0.742123
0.3523 0.540566 0.726619
0.502922 0.57409 0.730236
0.629129 0.619776 0.816037
0.739666 0.664546 0.836271
0.789654 0.685054 0.839368
0.801205 0.689448 0.840818
0.287984 0.699199 0.880751
0.287984 0.699199 0.880751
0.287984 0.699199 0.880751
0.380911 0.739788 0.910765
0.603433 0.760601 0.874708
0.751156 0.79324 0.869917
0.834775 0.820539 0.918196
0.88101 0.839231 0.923095
0.892744 0.843763 0.9243
0.377356 0.821622 0.953094
0.377356 0.821622 0.953094
0.377356 0.821622 0.953079
0.37734 0.821607 0.953079
0.620722 0.896971 1
0.801053 0.914733 0.982177
0.908598 0.930846 0.963775
0.944488 0.941466 0.980056
0.956512 0.9458 0.98323
0.43917 0.880201 0.986267
0.43917 0.880201 0.986252
0.43917 0.880201 0.986252
0.439155 0.880186 0.986252
0.647105 0.951675 1
0.819226 0.96907 1
0.926711 0.980957 1
0.974746 0.987213 1
0.986236 0.990265 1
0.461524 0.90016 0.998108
0.461524 0.90016 0.998108
0.461524 0.90016 0.998108
0.461524 0.90016 0.998108
0.656123 0.969482 1
0.83032 0.98555 1
0.933104 0.996994 1
0.979324 1 1
0.995193 1 1
