luts/Bat-CLog.cube
TITLE "Generated by Resolve"
LUT_3D_SIZE 9
0.024094 0.0297398 0.0202182
0.105013 0.0302586 0
0.266148 0.0491493 0
0.431708 0.109361 0
0.601099 0.191959 0
0.773373 0.273579 0
0.952636 0.359472 0
1 0.44979 0
1 0.54023 0
0.0552987 0.0709392 0.0225834
0.138109 0.0746471 0
0.258671 0.080415 0
0.407797 0.135012 0
0.573175 0.197513 0
0.745052 0.272541 0
0.936934 0.359045 0
1 0.449851 0
1 0.54023 0
0.141238 0.166949 0.0502785
0.197024 0.181262 0.0300603
0.278386 0.173449 0
0.382727 0.174243 0
0.510048 0.207843 0
0.655451 0.25153 0
0.804944 0.317693 0
0.978714 0.396201 0
1 0.497566 0
0.241672 0.269108 0.129778
0.284352 0.286168 0.126787
0.323873 0.285786 0.0835279
0.404807 0.281773 0
0.518441 0.273564 0
0.625147 0.291127 0
0.740597 0.32781 0
0.869078 0.377157 0
1 0.435966 0
0.335378 0.365057 0.214557
0.372793 0.383917 0.218296
0.399374 0.386801 0.206561
0.449042 0.389593 0.167666
0.531655 0.390463 0.0834821
0.64239 0.386786 0
0.745281 0.39794 0
0.8542 0.424506 0
0.971572 0.464057 0
0.427863 0.459113 0.295949
0.46334 0.480735 0.303914
0.485145 0.486015 0.300221
0.523354 0.491737 0.2822
0.583459 0.49781 0.243793
0.668528 0.50161 0.18088
0.779477 0.501045 0.0010071
0.88751 0.511421 0
0.998581 0.535988 0
0.534264 0.566567 0.387381
0.560525 0.58294 0.391333
0.58201 0.590921 0.388388
0.614527 0.597986 0.377523
0.662699 0.606058 0.35407
0.729107 0.613825 0.314824
0.819089 0.619135 0.253101
0.936507 0.621012 0.0739147
1 0.633906 0
0.655344 0.689052 0.484535
0.674601 0.700862 0.484718
0.695384 0.709239 0.480766
0.724056 0.717006 0.47335
0.763577 0.72491 0.456764
0.818158 0.733547 0.428397
0.890181 0.741726 0.386236
0.98793 0.74786 0.318746
1 0.752956 0.160479
0.783261 0.816983 0.579263
0.799161 0.824887 0.574044
0.816861 0.8309 0.57145
0.841688 0.837552 0.564752
0.875669 0.844755 0.551186
0.921813 0.85275 0.528557
0.98323 0.861204 0.494102
1 0.869917 0.447669
1 0.877119 0.372366
0.033341 0.0581826 0.0896468
0.0678721 0.0632181 0.108995
0.245457 0.0738384 0.0773022
0.419989 0.118517 0.00601205
0.585901 0.197818 0
0.755505 0.281666 0
0.931594 0.369009 0
1 0.460563 0
1 0.548577 0
0 0.0910506 0.115831
0.0844129 0.0960555 0.0937362
0.232364 0.11191 0.0617227
0.391379 0.160067 0.0255741
0.555474 0.222599 0
0.729229 0.293599 0
0.922637 0.373419 0
1 0.460029 0
1 0.546685 0
0.127275 0.175738 0.107378
0.182788 0.187015 0.0841077
0.262776 0.183337 0.0154421
0.388434 0.177447 0
0.51339 0.211093 0
0.649973 0.263981 0
0.799771 0.327764 0
0.973816 0.404089 0
1 0.504631 0
0.239826 0.267231 0.128099
0.281285 0.284108 0.125765
0.321691 0.283925 0.0821393
0.403662 0.279789 0
0.517357 0.271458 0
0.624689 0.289601 0
0.74078 0.326879 0
0.869947 0.37673 0
1 0.436103 0
0.334386 0.36405 0.213672
0.37084 0.38262 0.217426
0.397787 0.385672 0.20589
0.447547 0.388403 0.166812
0.530709 0.389227 0.0813611
0.641688 0.385565 0
0.744747 0.396887 0
0.85388 0.423682 0
0.971496 0.463432 0
0.425299 0.456977 0.294026
0.461952 0.479744 0.303563
0.484001 0.485237 0.299763
0.522271 0.490974 0.281819
0.582528 0.497093 0.243336
0.667948 0.500923 0.180056
0.778988 0.500313 0
0.887083 0.51075 0
0.998306 0.535439 0
0.531991 0.564706 0.386053
0.559716 0.582406 0.391257
0.581094 0.590311 0.388113
0.613672 0.597482 0.377356
0.661967 0.605585 0.353902
0.728511 0.613382 0.31458
0.818647 0.618692 0.252674
0.936156 0.620569 0.073106
1 0.633494 0
0.654063 0.688014 0.484001
0.673686 0.700236 0.484642
0.694621 0.708782 0.480598
0.723384 0.716625 0.473274
0.763058 0.724559 0.456611
0.817685 0.733242 0.42829
0.889799 0.741436 0.386084
0.98764 0.74757 0.318486
1 0.752682 0.159884
0.782544 0.816571 0.579385
0.798596 0.824598 0.574228
0.816419 0.830762 0.571527
0.841382 0.837537 0.564904
0.87538 0.844709 0.551308
0.921584 0.85272 0.528679
0.983078 0.861189 0.494209
1 0.869902 0.447745
1 0.877119 0.372366
0.053315 0.129351 0.214023
0.0903334 0.135317 0.213397
0.177996 0.157382 0.266987
0.345006 0.202762 0.253544
0.566567 0.21088 0.163058
0.740047 0.280507 0.0654002
0.916274 0.363134 0
1 0.452735 0
1 0.542901 0
0.0390478 0.132692 0.203922
0.0885939 0.143587 0.204028
0.182834 0.167956 0.246754
0.353933 0.203677 0.228641
0.54931 0.227939 0.159823
0.724422 0.290822 0.0781567
0.913527 0.365957 0
1 0.453376 0
1 0.543679 0
0 0.202182 0.244739
0.0696117 0.213901 0.24361
0.197559 0.213458 0.215778
0.331624 0.224842 0.189624
0.469032 0.255741 0.160281
0.612604 0.300771 0.126528
0.766629 0.356756 0.0769665
0.943832 0.425727 0.00474556
1 0.518288 0
0.189395 0.282811 0.235477
0.237705 0.298985 0.240238
0.291997 0.301289 0.221378
0.370138 0.305547 0.190921
0.492836 0.306691 0.107546
0.603708 0.325567 0.0498817
0.720317 0.359091 0.00874342
0.848753 0.4038 0
0.989349 0.457557 0
0.324941 0.368444 0.257847
0.363561 0.388098 0.261952
0.393179 0.394263 0.247349
0.444434 0.398917 0.219211
0.52726 0.40206 0.167773
0.640375 0.400809 0.0240177
0.744442 0.412421 0
0.853956 0.438727 0
0.971405 0.477195 0
0.422827 0.45507 0.292638
0.459892 0.478309 0.303075
0.482567 0.484413 0.299504
0.520684 0.489891 0.2813
0.581186 0.49604 0.242695
0.666896 0.499901 0.178973
0.778271 0.499245 0
0.886442 0.509789 0
0.997894 0.534646 0
0.528511 0.561822 0.383886
0.558221 0.581323 0.39086
0.579767 0.589517 0.387778
0.612497 0.596719 0.37705
0.66099 0.604868 0.353521
0.727703 0.612711 0.314153
0.817945 0.618067 0.252186
0.935653 0.619913 0.0719463
1 0.632914 0
0.65214 0.686488 0.483223
0.672343 0.699336 0.484504
0.693523 0.708156 0.4804
0.722438 0.716091 0.473167
0.762249 0.724056 0.456474
0.816999 0.732784 0.428138
0.88925 0.741009 0.38587
0.987228 0.747143 0.31812
1 0.752285 0.15903
0.781491 0.815946 0.579507
0.797772 0.824216 0.574594
0.8159 0.830655 0.571679
0.840955 0.837507 0.565133
0.874983 0.844633 0.551492
0.921263 0.852659 0.528847
0.982849 0.861189 0.494362
1 0.869886 0.447822
1 0.877119 0.372366
0.0898909 0.212696 0.335836
0.121294 0.216037 0.334478
0.191684 0.236851 0.366018
0.303395 0.266178 0.414191
0.463767 0.31696 0.406836
0.714183 0.313146 0.321096
0.899138 0.372564 0.24123
1 0.452171 0.144732
1 0.537942 0.0134737
0.0784009 0.207828 0.321492
0.117769 0.214939 0.32314
0.194095 0.236149 0.348837
0.306828 0.270359 0.401389
0.466743 0.319585 0.395209
0.712932 0.31577 0.314687
0.900435 0.371328 0.227543
1 0.451881 0.12723
1 0.538018 0
0.0382849 0.233265 0.332647
0.101457 0.238682 0.323812
0.19144 0.244968 0.308888
0.283223 0.267597 0.346471
0.426078 0.301778 0.333303
0.60972 0.315084 0.284215
0.766644 0.363241 0.244388
0.94612 0.428305 0.193408
1 0.521309 0.069688
0.0015259 0.310094 0.362295
0.104067 0.325658 0.36968
0.207919 0.328603 0.359136
0.316106 0.332067 0.336095
0.434745 0.343053 0.317952
0.554879 0.364019 0.296468
0.679988 0.39472 0.275441
0.815625 0.43389 0.250309
0.963424 0.480415 0.217304
0.259449 0.384314 0.346838
0.306706 0.403723 0.364309
0.346975 0.410849 0.364172
0.407874 0.418128 0.34847
0.486778 0.427466 0.332921
0.604334 0.433249 0.28304
0.711666 0.448432 0.248432
0.82385 0.475151 0.222354
0.943099 0.512489 0.204929
0.403616 0.464408 0.367605
0.444251 0.489006 0.384207
0.472282 0.499443 0.378775
0.513527 0.509453 0.362142
0.574517 0.518776 0.34139
0.657649 0.526116 0.312993
0.772808 0.529458 0.226917
0.882673 0.541695 0.146944
0.99559 0.567163 0.073991
0.522637 0.556725 0.379705
0.55552 0.579385 0.390143
0.577447 0.588083 0.387121
0.610376 0.595468 0.376669
0.659175 0.603677 0.353094
0.726299 0.611566 0.313436
0.816815 0.616953 0.251164
0.934798 0.618784 0.0699168
1 0.631937 0
0.648829 0.683848 0.481865
0.670298 0.698009 0.484489
0.691615 0.707012 0.480003
0.720775 0.715175 0.472969
0.760967 0.723339 0.456382
0.815824 0.732021 0.427878
0.88835 0.740322 0.385519
0.986435 0.746456 0.317617
1 0.75172 0.157687
0.779599 0.814847 0.579675
0.796429 0.823636 0.575219
0.814954 0.830472 0.572015
0.840116 0.837324 0.565438
0.874281 0.844495 0.551812
0.920714 0.852583 0.529137
0.982467 0.861173 0.494636
1 0.869871 0.447944
1 0.877119 0.372366
0.141665 0.29688 0.458671
0.156939 0.298405 0.457908
0.224964 0.313634 0.466804
0.306264 0.34313 0.523415
0.431998 0.376089 0.558312
0.599023 0.424277 0.553323
0.847028 0.437156 0.480735
1 0.470893 0.387259
1 0.543648 0.308232
0.138552 0.293507 0.451667
0.157015 0.296422 0.452308
0.226642 0.312673 0.462181
0.308858 0.342657 0.520409
0.433845 0.375387 0.552941
0.599039 0.424063 0.547219
0.851759 0.432349 0.471611
1 0.46981 0.379767
1 0.543175 0.300404
0.0957504 0.279423 0.411246
0.129763 0.286046 0.413062
0.202533 0.293858 0.406607
0.282475 0.315312 0.433066
0.392309 0.351492 0.479576
0.532326 0.396857 0.478264
0.752285 0.40708 0.428519
0.958511 0.450401 0.375799
1 0.539605 0.303624
0.0490883 0.340459 0.464576
0.11371 0.34876 0.463325
0.216449 0.344381 0.429252
0.305806 0.353857 0.414771
0.38999 0.374517 0.447501
0.509789 0.40322 0.436667
0.677317 0.410117 0.398489
0.8168 0.442649 0.369574
0.966293 0.485878 0.340673
0.083238 0.413275 0.472358
0.17026 0.431235 0.485222
0.252338 0.439628 0.484077
0.337774 0.44535 0.475547
0.438666 0.453498 0.45832
0.547723 0.466209 0.446571
0.660639 0.484825 0.430381
0.780285 0.510994 0.41503
0.908003 0.545373 0.402487
0.322026 0.488334 0.461952
0.363897 0.512993 0.486976
0.405631 0.523751 0.494835
0.462425 0.531029 0.493019
0.531319 0.542168 0.479683
0.610895 0.554711 0.470771
0.72842 0.563333 0.431296
0.840848 0.580041 0.404059
0.956649 0.607828 0.388144
0.482643 0.568566 0.477394
0.524941 0.600076 0.51075
0.55465 0.611704 0.517082
0.593774 0.623819 0.506676
0.643473 0.636759 0.489128
0.709682 0.648142 0.472602
0.79559 0.657603 0.452537
0.918196 0.664103 0.382284
1 0.680629 0.33019
0.641932 0.678264 0.478599
0.666209 0.695155 0.483894
0.688487 0.705257 0.479484
0.717937 0.713512 0.472541
0.758724 0.722087 0.456199
0.813764 0.730694 0.427436
0.886992 0.7393 0.385061
0.985122 0.74522 0.316625
1 0.750683 0.155291
0.77644 0.813016 0.57998
0.794064 0.822568 0.576318
0.813016 0.829831 0.572305
0.838575 0.836912 0.565881
0.873075 0.844236 0.552331
0.919768 0.85243 0.529641
0.981826 0.861143 0.495109
1 0.86981 0.448203
1 0.877119 0.372366
0.195682 0.38349 0.585016
0.198093 0.383627 0.584741
0.250416 0.391638 0.586465
0.329076 0.419791 0.621485
0.426627 0.4495 0.679942
0.563729 0.48748 0.701885
0.740108 0.532586 0.697643
0.987549 0.556939 0.628153
1 0.570687 0.526619
0.194598 0.381765 0.582498
0.197528 0.381964 0.582208
0.250324 0.390173 0.584176
0.328878 0.418418 0.619791
0.426764 0.447959 0.67805
0.564462 0.48658 0.698604
0.739834 0.532677 0.694026
0.990463 0.554314 0.623255
1 0.569879 0.522408
0.159792 0.353063 0.528038
0.166491 0.354696 0.529
0.227741 0.360891 0.523323
0.305547 0.380392 0.537392
0.395468 0.413733 0.6
0.523339 0.456474 0.631846
0.687221 0.505913 0.642435
0.952407 0.543114 0.607202
1 0.568826 0.516823
0.129534 0.365637 0.517739
0.14435 0.368856 0.518212
0.222843 0.373251 0.500603
0.302464 0.383825 0.493172
0.380194 0.404318 0.519142
0.479545 0.436362 0.556588
0.600397 0.472435 0.556451
0.785809 0.486168 0.520546
0.970367 0.506432 0.478126
0.0972457 0.440085 0.576745
0.136873 0.449149 0.581979
0.240513 0.456184 0.567788
0.341161 0.456916 0.537331
0.42768 0.470588 0.527504
0.506859 0.491569 0.559274
0.616251 0.518608 0.552026
0.777081 0.525948 0.521798
0.910384 0.555688 0.50457
0.188968 0.515892 0.581247
0.237201 0.534295 0.597299
0.308629 0.550729 0.606928
0.383841 0.55938 0.604807
0.469398 0.569146 0.599222
0.566262 0.580285 0.586069
0.673182 0.594491 0.577356
0.788449 0.614496 0.564874
0.911254 0.643214 0.55668
0.384771 0.599237 0.583429
0.4224 0.629068 0.614466
0.463737 0.644114 0.627314
0.520638 0.652949 0.629679
0.588586 0.660945 0.626551
0.662501 0.673716 0.613382
0.744945 0.687739 0.606836
0.869001 0.698848 0.570352
0.987701 0.7196 0.549981
0.578012 0.702907 0.613611
0.611246 0.732586 0.642374
0.640085 0.744183 0.651957
0.683482 0.750362 0.657832
0.729412 0.762325 0.643839
0.784298 0.775982 0.624216
0.854673 0.78764 0.608728
0.946227 0.798245 0.591318
1 0.808576 0.531182
0.774792 0.815274 0.589944
0.794415 0.826658 0.587869
0.814969 0.835462 0.582025
0.84152 0.843061 0.576242
0.877058 0.851057 0.563455
0.924056 0.859159 0.54107
0.986343 0.867979 0.50753
1 0.876692 0.462333
1 0.884153 0.390036
0.251896 0.474037 0.717128
0.251896 0.474037 0.717128
0.282307 0.476097 0.714076
0.354314 0.496681 0.729824
0.441962 0.529946 0.782422
0.55172 0.557198 0.837797
0.699321 0.601022 0.846326
0.883589 0.64564 0.840177
1 0.674495 0.771206
0.25124 0.472999 0.715587
0.25124 0.472999 0.715587
0.282383 0.475181 0.712596
0.35462 0.495979 0.728603
0.441901 0.529107 0.781369
0.551888 0.556268 0.836652
0.699763 0.600488 0.844373
0.884657 0.644358 0.838911
1 0.673045 0.768505
0.238956 0.458076 0.689632
0.239658 0.458824 0.690867
0.275181 0.462394 0.688243
0.349645 0.482353 0.701961
0.438025 0.518456 0.760128
0.550958 0.551949 0.826825
0.70042 0.59971 0.841535
0.884611 0.644236 0.835935
1 0.670909 0.764599
0.185779 0.413611 0.601938
0.185779 0.413535 0.601984
0.23534 0.419501 0.594995
0.306554 0.425589 0.584161
0.384131 0.444389 0.600046
0.469627 0.472953 0.657588
0.585824 0.513726 0.679072
0.729061 0.55259 0.688869
0.936751 0.591516 0.666087
0.173007 0.45977 0.630747
0.173022 0.45951 0.630518
0.247532 0.46743 0.615228
0.334752 0.474022 0.596765
0.417731 0.490105 0.594202
0.492668 0.51136 0.622095
0.586908 0.542687 0.65684
0.700862 0.576501 0.659586
0.870115 0.595209 0.63563
0.174212 0.53962 0.68397
0.174136 0.539483 0.683909
0.273854 0.566766 0.697841
0.368429 0.572808 0.682673
0.470817 0.579202 0.657664
0.555169 0.595636 0.651621
0.633677 0.617761 0.684382
0.744549 0.646021 0.680156
0.90901 0.658549 0.658549
0.278752 0.62536 0.69836
0.298497 0.637675 0.710384
0.3691 0.666835 0.73518
0.438758 0.679072 0.738857
0.517067 0.689433 0.736934
0.602533 0.700984 0.732677
0.700221 0.713787 0.721035
0.811902 0.730053 0.713848
0.932921 0.754223 0.706401
0.458473 0.724666 0.71873
0.494133 0.758206 0.75378
0.53257 0.776577 0.770016
0.585199 0.786755 0.774685
0.650721 0.794049 0.773404
0.724743 0.801434 0.768154
0.803616 0.814862 0.753262
0.890501 0.82916 0.747478
1 0.843412 0.713802
0.689601 0.851392 0.779782
0.716258 0.869917 0.796521
0.741253 0.88043 0.801953
0.769177 0.890745 0.800992
0.817792 0.893812 0.803861
0.869444 0.904219 0.785885
0.929152 0.917037 0.762692
1 0.927718 0.745983
1 0.93875 0.728954
0.310674 0.568887 0.855497
0.310674 0.568887 0.855497
0.313954 0.568902 0.854704
0.371801 0.576715 0.854871
0.467338 0.609064 0.884611
0.561074 0.641474 0.945129
0.680781 0.66569 0.996521
0.839567 0.716121 0.989364
1 0.756893 0.980026
0.310277 0.568246 0.854566
0.310277 0.568261 0.854566
0.314015 0.568261 0.853666
0.372045 0.576272 0.854109
0.467353 0.608637 0.884092
0.561151 0.64097 0.944518
0.680919 0.665141 0.995834
0.839796 0.715801 0.988235
1 0.756161 0.979278
0.309697 0.56733 0.853223
0.309697 0.56733 0.853223
0.314122 0.567315 0.85214
0.372381 0.575631 0.852979
0.467414 0.608011 0.88336
0.561273 0.640253 0.943648
0.681117 0.664317 0.994827
0.840146 0.715343 0.986587
1 0.755688 0.977829
0.25742 0.502327 0.745937
0.257816 0.502754 0.746685
0.267079 0.503426 0.744717
0.327947 0.500572 0.723781
0.412299 0.519356 0.732158
0.494453 0.551034 0.791074
0.60647 0.58613 0.857023
0.763912 0.652415 0.882826
1 0.74461 0.95964
0.221195 0.485298 0.686015
0.221271 0.485206 0.686
0.241199 0.490471 0.684947
0.323354 0.498054 0.66836
0.407431 0.512322 0.663966
0.484413 0.533806 0.685512
0.567452 0.561471 0.742519
0.678798 0.602609 0.76022
0.812192 0.637964 0.77348
0.224643 0.557839 0.744274
0.224613 0.557671 0.744121
0.263264 0.571221 0.748882
0.366812 0.578286 0.723934
0.459815 0.591165 0.711864
0.542718 0.610666 0.713512
0.618372 0.634028 0.74548
0.714321 0.667124 0.780652
0.832151 0.705623 0.789807
0.251164 0.647654 0.800351
0.251102 0.647547 0.800305
0.31014 0.67747 0.825711
0.399832 0.69424 0.829099
0.500389 0.702586 0.815183
0.603571 0.711406 0.792248
0.689174 0.729168 0.78732
0.771939 0.753674 0.822126
0.891493 0.785992 0.821942
0.366842 0.750393 0.83299
0.366751 0.750317 0.832944
0.433234 0.79411 0.8757
0.501076 0.8103 0.88481
0.575174 0.821042 0.885023
0.655192 0.831067 0.881483
0.742229 0.842435 0.875959
0.843519 0.856168 0.864485
0.961837 0.875578 0.859449
0.542031 0.866346 0.875547
0.575097 0.900435 0.91133
0.614771 0.919341 0.927779
0.659861 0.929763 0.932738
0.712612 0.937499 0.932525
0.784543 0.942092 0.926665
0.865522 0.946868 0.917113
0.949798 0.958862 0.896437
1 0.972244 0.89099
0.349264 0.631174 0.946334
0.349264 0.631174 0.946334
0.349264 0.631174 0.946334
0.374212 0.630243 0.939559
0.462013 0.653468 0.955657
0.565286 0.690944 1
0.677119 0.720165 1
0.817472 0.74696 1
0.989654 0.807813 1
0.349264 0.631174 0.946334
0.349264 0.631174 0.946334
0.349264 0.631174 0.946334
0.37464 0.630274 0.939529
0.462364 0.65359 0.955749
0.565515 0.69102 1
0.677287 0.720195 1
0.817594 0.747005 1
0.989715 0.807828 1
0.349264 0.631174 0.946334
0.349264 0.631174 0.946334
0.349264 0.631174 0.946334
0.375235 0.63032 0.939483
0.463004 0.653803 0.955917
0.56585 0.691142 1
0.677531 0.720241 1
0.817792 0.747082 1
0.989837 0.807858 1
0.349264 0.631174 0.946334
0.349264 0.631174 0.946334
0.349264 0.631174 0.946334
0.376257 0.630411 0.939422
0.464164 0.654185 0.956222
0.566445 0.691341 1
0.677943 0.720333 1
0.818143 0.747219 1
0.990021 0.807919 1
0.262043 0.523293 0.761898
0.262196 0.5234 0.762203
0.262425 0.523583 0.762646
0.303029 0.52285 0.745449
0.390616 0.529198 0.729168
0.473579 0.550607 0.749447
0.559014 0.580789 0.808713
0.671031 0.616388 0.855711
0.810483 0.673091 0.862119
0.253697 0.558145 0.764126
0.253712 0.558022 0.764019
0.253697 0.557824 0.763851
0.326329 0.573587 0.756481
0.433021 0.590875 0.748089
0.523217 0.612055 0.750759
0.601404 0.636835 0.781537
0.690776 0.665827 0.842573
0.810697 0.714427 0.851698
0.273472 0.658747 0.85185
0.273442 0.65864 0.851774
0.273396 0.658488 0.851652
0.369604 0.690867 0.866178
0.4916 0.700313 0.842222
0.58996 0.715099 0.829847
0.675685 0.736385 0.832685
0.755505 0.761456 0.87126
0.863539 0.800793 0.899641
0.330312 0.768154 0.923018
0.330251 0.768078 0.922972
0.330175 0.767971 0.922911
0.433753 0.819699 0.968627
0.53138 0.833417 0.967895
0.6327 0.842451 0.955566
0.740902 0.850706 0.930632
0.832853 0.86836 0.922271
0.924804 0.897475 0.95584
0.46154 0.900145 0.998062
0.46154 0.900145 0.998062
0.499092 0.933608 1
0.57232 0.958099 1
0.644434 0.968322 1
0.720317 0.975647 1
0.801984 0.98291 1
0.891356 0.99202 1
0.995193 1 1
