luts/Bat-DLog.cube
TITLE "Generated by Resolve"
LUT_3D_SIZE 5
0.029221 0.0315709 0.0206455
0.124956 0.0354314 0
0.508934 0.16669 0
0.84741 0.346105 0
0.959823 0.449424 0
0.0729534 0.0830854 0.0191348
0.165743 0.0874189 0
0.465492 0.175753 0
0.82179 0.345846 0
0.959518 0.457023 0
0.333059 0.341161 0.179477
0.352407 0.343801 0.170657
0.487922 0.352193 0.0426642
0.804868 0.418402 0
0.977813 0.512505 0
0.671794 0.66009 0.427893
0.680171 0.661875 0.424674
0.733013 0.672374 0.401129
0.924208 0.698146 0.292027
1 0.722515 0.101457
0.904631 0.84889 0.535821
0.908797 0.849638 0.533837
0.935973 0.853895 0.519417
1 0.86862 0.454475
1 0.877119 0.372366
0.0360266 0.0619974 0.0979171
0.0813001 0.0708476 0.123507
0.494591 0.182376 0.00807202
0.837583 0.358389 0
0.959854 0.449149 0
0.00192264 0.111635 0.142794
0.106844 0.120363 0.119387
0.450156 0.200336 0.0201572
0.815457 0.357183 0
0.959503 0.456733 0
0.329427 0.346456 0.211643
0.349477 0.350271 0.20235
0.486686 0.360998 0.101106
0.8047 0.41799 0
0.977691 0.512245 0
0.671534 0.659953 0.427878
0.679911 0.661738 0.424643
0.732815 0.672251 0.401099
0.924147 0.69807 0.291936
1 0.722423 0.101228
0.904524 0.848844 0.535836
0.90869 0.849607 0.533852
0.935882 0.853849 0.519432
1 0.86862 0.45449
1 0.877119 0.372366
0.11516 0.254536 0.396887
0.154589 0.258961 0.395712
0.379431 0.327352 0.484535
0.796994 0.399924 0.313191
0.8981 0.525826 0.352224
0.0990005 0.248966 0.379538
0.151476 0.257145 0.378912
0.358953 0.318746 0.445701
0.768231 0.407858 0.321645
0.902525 0.532631 0.350851
0.150591 0.393744 0.451728
0.206043 0.398428 0.448966
0.401038 0.416205 0.420768
0.741711 0.499092 0.380194
0.942 0.580606 0.343603
0.663432 0.687877 0.534569
0.672511 0.691051 0.529427
0.725597 0.703563 0.517128
0.914504 0.732754 0.45452
1 0.754009 0.322698
0.903731 0.848478 0.535882
0.907942 0.849226 0.533837
0.93518 0.853544 0.519493
1 0.868589 0.454566
1 0.877119 0.372366
0.277943 0.51606 0.778424
0.277928 0.516045 0.778408
0.424033 0.553948 0.807233
0.741878 0.628382 0.852995
0.811185 0.618708 0.70518
0.277852 0.515908 0.778195
0.278172 0.515862 0.778073
0.425361 0.554391 0.808103
0.682109 0.581903 0.777188
0.811994 0.625132 0.706127
0.2 0.453391 0.643488
0.236637 0.46009 0.638224
0.385779 0.482689 0.621927
0.645212 0.586496 0.710506
0.839246 0.674449 0.726314
0.485801 0.760113 0.834241
0.501137 0.762646 0.834592
0.582956 0.774563 0.832929
0.797681 0.810697 0.818723
0.947982 0.849958 0.81912
0.785351 0.931334 0.907347
0.791119 0.931777 0.906859
0.827253 0.934401 0.903059
0.95024 0.952605 0.875059
1 0.966384 0.865873
0.349264 0.631174 0.946334
0.349264 0.631174 0.946334
0.430961 0.643595 0.947951
0.75581 0.733028 1
0.833051 0.692149 0.900999
0.349264 0.631174 0.946334
0.349264 0.631174 0.946334
0.432822 0.64416 0.948394
0.75613 0.733074 1
0.802319 0.670756 0.864591
0.294759 0.558282 0.828779
0.293904 0.557198 0.826947
0.385443 0.54313 0.774197
0.620111 0.599298 0.831998
0.793469 0.696635 0.8439
0.428931 0.774472 0.933974
0.450919 0.777295 0.932876
0.563958 0.787945 0.917556
0.786465 0.828992 0.895445
0.908995 0.879698 0.946426
0.699702 0.967987 1
0.705989 0.968658 1
0.745144 0.972473 1
0.882155 0.987823 1
0.995193 1 1
