luts/Bat-SLog.cube
TITLE "Generated by Resolve"
LUT_3D_SIZE 9
0.024094 0.0297398 0.0202182
0.0689708 0.0301976 0.00848402
0.172412 0.0345464 0
0.328679 0.0666514 0
0.518029 0.151904 0
0.727672 0.251637 0
0.944015 0.355383 0
1 0.455528 0
1 0.54023 0
0.0399481 0.0513008 0.0230259
0.0848249 0.0529793 0
0.175692 0.0527199 0
0.320043 0.0879988 0
0.503075 0.166293 0
0.705104 0.252857 0
0.907942 0.349142 0
1 0.440772 0
1 0.516701 0
0.0786297 0.100175 0.0260624
0.1205 0.111574 0.0131075
0.196857 0.106416 0
0.305043 0.112886 0
0.46096 0.173404 0
0.651041 0.238743 0
0.833021 0.324407 0
1 0.405661 0
1 0.472374 0
0.171145 0.197284 0.0689403
0.203082 0.211124 0.066453
0.243336 0.213733 0.0345464
0.32372 0.206592 0
0.446418 0.209705 0
0.598764 0.248295 0
0.755199 0.310674 0
0.90248 0.378439 0
1 0.437522 0
0.281788 0.310063 0.166491
0.30602 0.32372 0.172076
0.331548 0.328634 0.161135
0.369879 0.329763 0.127535
0.464973 0.32958 0.0173495
0.601465 0.32874 0
0.730556 0.35729 0
0.858763 0.403174 0
0.972763 0.451896 0
0.39144 0.422736 0.264591
0.41297 0.437568 0.275227
0.434134 0.446174 0.272282
0.460945 0.450874 0.26389
0.521004 0.457786 0.227573
0.625193 0.463157 0.145403
0.760678 0.466529 0
0.881971 0.487297 0
0.990753 0.520287 0
0.500862 0.535683 0.361654
0.522744 0.553262 0.375509
0.543374 0.565591 0.377523
0.568856 0.574624 0.373922
0.616144 0.584298 0.355962
0.693248 0.595163 0.313451
0.803723 0.60354 0.238773
0.936202 0.609461 0.0356756
1 0.627253 0
0.613169 0.652354 0.458717
0.636576 0.673075 0.474662
0.658106 0.688655 0.480964
0.685252 0.701595 0.476524
0.726787 0.712902 0.46566
0.7897 0.72459 0.436622
0.877607 0.736599 0.387884
0.989639 0.745266 0.311498
1 0.753292 0.161212
0.727443 0.771664 0.555444
0.752056 0.794598 0.572549
0.774823 0.811994 0.579934
0.803067 0.826429 0.573556
0.841413 0.837537 0.564889
0.896391 0.848569 0.541543
0.971359 0.85977 0.50106
1 0.869871 0.447944
1 0.877119 0.372366
0.0295415 0.0418097 0.0488746
0.0513924 0.0448615 0.0560922
0.16907 0.0416419 0.029572
0.326024 0.073228 0
0.51194 0.160113 0
0.716701 0.262333 0
0.932036 0.36466 0
1 0.461494 0
1 0.543938 0
0.0065156 0.0640574 0.0769665
0.0582284 0.0671397 0.0623789
0.156619 0.0729381 0.0423133
0.307774 0.111666 0.0104372
0.492195 0.182177 0
0.692775 0.267399 0
0.896193 0.358511 0
1 0.446677 0
1 0.520134 0
0.053315 0.117693 0.0829633
0.0991836 0.123461 0.0801099
0.17229 0.126085 0.039826
0.303136 0.127779 0
0.461601 0.179187 0
0.640833 0.253834 0
0.822309 0.334676 0
0.990936 0.412345 0
1 0.476631 0
0.160525 0.207843 0.13315
0.194003 0.21854 0.131304
0.233295 0.223194 0.100038
0.310842 0.221241 0.0297856
0.450095 0.220325 0
0.595193 0.26154 0
0.748501 0.322805 0
0.894987 0.387472 0
1 0.444572 0
0.276112 0.315267 0.20528
0.301549 0.328862 0.210269
0.328511 0.335882 0.196094
0.36759 0.338445 0.172183
0.461769 0.341115 0.0945296
0.600641 0.342168 0
0.730373 0.370184 0
0.858366 0.414405 0
0.972366 0.461662 0
0.389685 0.427604 0.29041
0.412146 0.442832 0.30042
0.434653 0.452796 0.296071
0.463096 0.458869 0.28716
0.524315 0.466911 0.255741
0.628046 0.47364 0.189975
0.764599 0.47808 0.00610361
0.886503 0.498772 0
0.995392 0.530938 0
0.502052 0.541344 0.380972
0.524514 0.559274 0.394278
0.546044 0.572396 0.396948
0.573434 0.582773 0.390448
0.621866 0.593118 0.373754
0.699489 0.604608 0.334432
0.809781 0.613657 0.267567
0.942824 0.620035 0.0943618
1 0.637629 0
0.616541 0.659098 0.474662
0.64036 0.680095 0.490303
0.662593 0.696223 0.496742
0.691157 0.710094 0.490013
0.733181 0.721386 0.479377
0.796902 0.733639 0.45182
0.884825 0.745892 0.405783
0.996506 0.754833 0.334905
1 0.763027 0.200137
0.732235 0.779293 0.569543
0.757031 0.802228 0.586404
0.780301 0.819806 0.59353
0.809277 0.834791 0.586069
0.847822 0.845975 0.577737
0.903059 0.857206 0.555489
0.977905 0.868345 0.516487
1 0.878264 0.465904
1 0.885496 0.395102
0.0365606 0.0708171 0.118929
0.0574502 0.0735332 0.119463
0.117556 0.0885023 0.147829
0.307897 0.0969253 0.102235
0.502983 0.160113 0.011017
0.708171 0.258625 0
0.920195 0.363333 0
1 0.464546 0
1 0.549798 0
0.0291142 0.0831464 0.128328
0.0607004 0.0910048 0.127138
0.123079 0.10695 0.150759
0.300572 0.124269 0.110597
0.484199 0.18616 0.0453956
0.680278 0.272541 0
0.879118 0.365698 0
1 0.455543 0
1 0.526726 0
0 0.13846 0.174945
0.0374456 0.146944 0.171771
0.133562 0.148104 0.148486
0.267536 0.162203 0.120439
0.432532 0.209964 0.0831617
0.616953 0.276295 0.0264591
0.800793 0.350362 0
0.969985 0.423117 0
1 0.484108 0
0.105135 0.220386 0.189731
0.157916 0.229831 0.193362
0.20943 0.231891 0.183993
0.284398 0.236774 0.147936
0.430274 0.243107 0.0589914
0.578042 0.282094 0.00753796
0.73254 0.33901 0
0.879652 0.399908 0
1 0.454429 0
0.250507 0.323064 0.24831
0.284215 0.333898 0.259297
0.315785 0.340917 0.250294
0.35671 0.346777 0.226429
0.448478 0.352804 0.185183
0.591363 0.357137 0.0558175
0.722499 0.384955 0
0.851102 0.42768 0
0.965606 0.473625 0
0.379126 0.43125 0.326452
0.403677 0.446708 0.336156
0.428016 0.457176 0.333547
0.459083 0.465888 0.318944
0.5205 0.475166 0.294835
0.623117 0.484108 0.248295
0.761349 0.490379 0.118349
0.884138 0.511635 0.00224308
0.993439 0.543832 0
0.497139 0.545342 0.408347
0.520806 0.563775 0.421057
0.543236 0.577478 0.424704
0.572686 0.589944 0.414313
0.621149 0.600885 0.401495
0.698817 0.613672 0.369406
0.808057 0.624033 0.316884
0.941817 0.631418 0.190143
1 0.649836 0.0660258
0.614832 0.663905 0.496513
0.639384 0.685542 0.512657
0.661921 0.70219 0.520943
0.691417 0.716991 0.514717
0.733837 0.729412 0.503777
0.797345 0.742199 0.480385
0.884764 0.755062 0.440757
0.995148 0.764508 0.381476
1 0.773556 0.271794
0.732128 0.784802 0.589334
0.756695 0.80827 0.60856
0.779889 0.826154 0.618128
0.809216 0.841413 0.612955
0.84831 0.85391 0.601358
0.903243 0.865278 0.58172
0.977523 0.876463 0.546395
1 0.886244 0.501198
1 0.893889 0.440299
0.057023 0.140017 0.229633
0.0820478 0.143496 0.227649
0.126925 0.155566 0.250751
0.237171 0.188022 0.282231
0.462272 0.214359 0.242283
0.694316 0.263661 0.129473
0.907103 0.35964 0
1 0.458045 0
1 0.541985 0
0.0499733 0.145022 0.228138
0.0800488 0.152209 0.229053
0.133318 0.16495 0.241062
0.239124 0.199451 0.281132
0.453727 0.227146 0.244617
0.6692 0.277989 0.159915
0.867338 0.363348 0.0632944
1 0.450095 0
1 0.523064 0
0.0282292 0.169574 0.246326
0.0711528 0.175799 0.241474
0.134752 0.182055 0.233005
0.227131 0.206516 0.263539
0.424399 0.229038 0.225376
0.607721 0.283619 0.173983
0.785855 0.355901 0.119738
0.94995 0.429099 0.0590372
1 0.490929 0.0160372
0 0.244205 0.293141
0.0437171 0.256031 0.297536
0.137911 0.259617 0.289006
0.24477 0.261036 0.26424
0.387488 0.276417 0.239216
0.542062 0.313954 0.211826
0.700771 0.366415 0.183948
0.852186 0.421592 0.146044
0.976959 0.472755 0.113787
0.199405 0.335485 0.30602
0.238361 0.348974 0.317571
0.279896 0.35494 0.318715
0.330434 0.358114 0.312062
0.42118 0.36997 0.285801
0.566659 0.37998 0.225681
0.700755 0.408713 0.187411
0.831647 0.450034 0.15758
0.947646 0.494621 0.138003
0.349233 0.442008 0.360311
0.37879 0.45623 0.379019
0.408408 0.464561 0.389059
0.443565 0.473365 0.383291
0.505516 0.486824 0.36022
0.604837 0.499077 0.336873
0.746212 0.508629 0.258228
0.870481 0.531197 0.204379
0.980941 0.563775 0.171649
0.484596 0.549874 0.44419
0.508186 0.569375 0.462699
0.530724 0.583658 0.473014
0.561746 0.596475 0.469947
0.611719 0.6112 0.451637
0.688243 0.625406 0.43003
0.795209 0.637858 0.396551
0.930922 0.64715 0.307591
1 0.666743 0.247456
0.606516 0.668894 0.530938
0.630335 0.691463 0.552224
0.652811 0.708675 0.564767
0.682887 0.723522 0.563241
0.726879 0.738933 0.545953
0.789532 0.752361 0.529213
0.875944 0.766171 0.498726
0.984649 0.777005 0.455634
1 0.787137 0.371633
0.725017 0.790631 0.625055
0.74873 0.814527 0.647822
0.771817 0.83267 0.660441
0.801266 0.847639 0.658625
0.841962 0.862837 0.639948
0.896056 0.874327 0.624903
0.969207 0.885664 0.595346
1 0.895964 0.558373
1 0.904143 0.510903
0.100649 0.231525 0.363302
0.125414 0.234012 0.362203
0.171527 0.243641 0.367056
0.240436 0.268025 0.416602
0.383276 0.310826 0.441184
0.623652 0.349889 0.406943
0.887587 0.376532 0.296223
1 0.459785 0.199664
1 0.537957 0.09308
0.0921645 0.230167 0.355093
0.121935 0.235508 0.356298
0.168978 0.24448 0.359045
0.241779 0.270497 0.403372
0.380362 0.315114 0.434287
0.605585 0.353674 0.403555
0.849851 0.380133 0.310567
1 0.453101 0.237079
1 0.520424 0.172747
0.0716716 0.23006 0.342611
0.107408 0.237568 0.344823
0.157717 0.243442 0.341436
0.230045 0.262074 0.36112
0.35555 0.305425 0.402716
0.560464 0.340352 0.374517
0.773053 0.370413 0.305089
0.937453 0.432898 0.255436
1 0.490303 0.219364
0.033753 0.2813 0.391684
0.089189 0.288045 0.388281
0.161288 0.285466 0.365957
0.242741 0.292882 0.351751
0.344198 0.31957 0.382406
0.524193 0.344091 0.353429
0.696468 0.378531 0.312932
0.843458 0.43064 0.286107
0.964996 0.481483 0.271244
0.0352483 0.36408 0.42266
0.11252 0.378622 0.432135
0.189273 0.385641 0.43125
0.26627 0.389441 0.422797
0.381888 0.397284 0.401755
0.518364 0.415106 0.385
0.656916 0.445869 0.367727
0.791257 0.486442 0.356252
0.910842 0.529839 0.351598
0.283421 0.460121 0.439399
0.314733 0.477897 0.457343
0.34931 0.488685 0.466468
0.397375 0.49546 0.468116
0.473503 0.503975 0.462531
0.572061 0.521538 0.445365
0.714427 0.535683 0.402228
0.840604 0.560433 0.376379
0.953521 0.593744 0.364294
0.450294 0.564874 0.497795
0.473915 0.585885 0.52018
0.49659 0.601144 0.534356
0.525856 0.614801 0.538781
0.58967 0.623301 0.537438
0.666362 0.641932 0.514672
0.769329 0.657038 0.499458
0.90779 0.669108 0.438834
1 0.690517 0.405814
0.579263 0.681849 0.581552
0.602152 0.705638 0.605844
0.626856 0.722011 0.624048
0.661372 0.734005 0.632166
0.709041 0.748562 0.622431
0.772564 0.765896 0.599359
0.857221 0.780819 0.578775
0.963043 0.793606 0.552956
1 0.805402 0.49099
0.705547 0.800336 0.678218
0.728267 0.824887 0.703441
0.751919 0.842832 0.71957
0.783123 0.856535 0.72398
0.825483 0.870726 0.712093
0.880842 0.885878 0.686595
0.952255 0.897566 0.664561
1 0.908644 0.636744
1 0.917861 0.604196
0.164431 0.333318 0.511818
0.181979 0.334951 0.51075
0.216052 0.340612 0.512612
0.278233 0.362264 0.539025
0.378424 0.393194 0.600504
0.544945 0.445136 0.612345
0.782437 0.492622 0.583429
1 0.492546 0.473671
1 0.551766 0.402289
0.155718 0.327123 0.497963
0.176944 0.330709 0.49836
0.212009 0.33608 0.498711
0.276921 0.356252 0.518547
0.374762 0.389166 0.581384
0.53344 0.440497 0.595743
0.751003 0.485313 0.56939
1 0.484565 0.47335
1 0.534951 0.414908
0.132494 0.314 0.470039
0.159472 0.319081 0.470985
0.196323 0.322347 0.466835
0.261387 0.335653 0.469825
0.349767 0.367147 0.527581
0.495369 0.416724 0.549584
0.689036 0.457618 0.526909
0.916045 0.461112 0.450813
1 0.505119 0.409354
0.109453 0.326314 0.467597
0.147097 0.332631 0.466499
0.190433 0.334874 0.457359
0.255772 0.342916 0.450706
0.340124 0.36463 0.47512
0.46479 0.407218 0.509392
0.635065 0.442878 0.4916
0.830823 0.45507 0.440101
0.956374 0.496895 0.417182
0.0730297 0.400641 0.533532
0.136217 0.411902 0.537224
0.199985 0.413291 0.5243
0.28307 0.411643 0.496284
0.378866 0.42501 0.482826
0.479011 0.453605 0.51426
0.634501 0.479728 0.496254
0.792462 0.504021 0.469139
0.912749 0.543511 0.460288
0.160723 0.48896 0.555016
0.214649 0.506905 0.569955
0.265873 0.518273 0.576501
0.327657 0.526085 0.576089
0.419791 0.536049 0.57023
0.535897 0.55021 0.555749
0.665583 0.570397 0.545663
0.792966 0.598245 0.53489
0.908186 0.632837 0.532815
0.359442 0.593027 0.585809
0.387121 0.614847 0.608606
0.4159 0.63032 0.623499
0.460929 0.641398 0.630518
0.537102 0.650736 0.630274
0.630442 0.662593 0.624735
0.732509 0.682078 0.611048
0.870893 0.697993 0.575784
0.984558 0.721828 0.560342
0.537896 0.701183 0.651698
0.560693 0.725795 0.677775
0.584878 0.74377 0.695491
0.620813 0.756695 0.704402
0.670695 0.769467 0.705135
0.744533 0.780819 0.69926
0.828992 0.800107 0.674647
0.93048 0.815198 0.663783
1 0.829007 0.619791
0.66952 0.819944 0.737499
0.691997 0.844953 0.764172
0.715084 0.863462 0.781552
0.744167 0.87808 0.788922
0.791775 0.886824 0.793423
0.855406 0.897566 0.779309
0.92697 0.91313 0.750011
1 0.925155 0.730236
1 0.935637 0.711711
0.230762 0.439963 0.667399
0.243839 0.440787 0.665904
0.269886 0.443915 0.665553
0.323598 0.459693 0.677989
0.407279 0.491646 0.727703
0.531487 0.52192 0.789853
0.710872 0.581598 0.784573
0.925612 0.631968 0.76141
1 0.624521 0.677806
0.221302 0.429435 0.648035
0.236744 0.431281 0.646983
0.263249 0.433783 0.644846
0.31754 0.44715 0.652491
0.399863 0.477394 0.697627
0.519585 0.508858 0.759579
0.686564 0.565225 0.753964
0.878309 0.61062 0.731777
1 0.605631 0.660029
0.196811 0.406256 0.607385
0.21561 0.408621 0.605798
0.243122 0.409094 0.599496
0.294179 0.416312 0.597391
0.37174 0.440879 0.628855
0.482246 0.47454 0.691737
0.633158 0.527047 0.69131
0.800839 0.568338 0.673396
0.994034 0.569085 0.61825
0.171328 0.39321 0.572381
0.196033 0.398352 0.571878
0.227832 0.400366 0.565377
0.280888 0.404913 0.557076
0.359579 0.422004 0.564095
0.453666 0.453193 0.624628
0.588296 0.501823 0.636561
0.737621 0.541848 0.627024
0.912337 0.551751 0.591409
0.16025 0.435523 0.601709
0.195453 0.442664 0.6
0.236484 0.442893 0.585626
0.301106 0.44715 0.571023
0.384207 0.462486 0.567102
0.472236 0.488151 0.597833
0.588357 0.529351 0.628321
0.727352 0.565881 0.622583
0.891707 0.580743 0.599084
0.160296 0.521431 0.664378
0.208438 0.537606 0.675456
0.257389 0.546593 0.676341
0.32813 0.551034 0.66511
0.433066 0.556741 0.639979
0.53344 0.57528 0.630442
0.630121 0.605035 0.663478
0.76791 0.632776 0.654322
0.910903 0.653803 0.639918
0.272267 0.620142 0.69514
0.31017 0.641978 0.715938
0.348577 0.65742 0.728847
0.403723 0.669306 0.734646
0.483635 0.680964 0.73463
0.582361 0.694682 0.730465
0.697612 0.711192 0.71841
0.821286 0.732174 0.712016
0.933639 0.758816 0.708324
0.44213 0.732982 0.743069
0.467811 0.757946 0.769299
0.495216 0.775952 0.786892
0.537026 0.789624 0.796811
0.598245 0.801328 0.80029
0.686442 0.811368 0.797223
0.78909 0.822904 0.788357
0.890562 0.841779 0.776974
1 0.857847 0.750423
0.599008 0.847089 0.820615
0.619959 0.872816 0.847852
0.645685 0.890944 0.865568
0.685176 0.903685 0.874815
0.741665 0.912627 0.87631
0.811841 0.920165 0.870436
0.892622 0.929473 0.858686
0.978317 0.9458 0.831937
1 0.957366 0.824125
0.294713 0.543145 0.817929
0.304891 0.543145 0.815671
0.325414 0.54435 0.813428
0.366705 0.554681 0.820676
0.449485 0.583673 0.849515
0.549859 0.617304 0.91284
0.689586 0.643091 0.969375
0.868055 0.708324 0.942061
1 0.750912 0.928344
0.283772 0.528466 0.793011
0.295445 0.528664 0.790158
0.31603 0.528679 0.785443
0.358175 0.536294 0.787396
0.438056 0.561395 0.810162
0.534264 0.593576 0.870268
0.665568 0.618845 0.922606
0.827344 0.677867 0.894148
0.972213 0.713878 0.880049
0.256855 0.496788 0.741024
0.270481 0.496529 0.736507
0.291295 0.494209 0.727337
0.331777 0.496574 0.720607
0.406348 0.51458 0.730419
0.493538 0.54461 0.785763
0.614343 0.572473 0.837659
0.758526 0.626276 0.815686
0.885496 0.659983 0.807111
0.22652 0.467247 0.684977
0.244205 0.469703 0.681941
0.268162 0.46862 0.672389
0.311666 0.469612 0.661234
0.384421 0.481956 0.658289
0.463279 0.507805 0.702571
0.57319 0.53959 0.761547
0.705226 0.592325 0.753216
0.823453 0.629404 0.755703
0.212116 0.477546 0.671565
0.236225 0.483757 0.670222
0.26772 0.485771 0.660899
0.322057 0.491875 0.652964
0.397253 0.505394 0.649424
0.481971 0.529152 0.667735
0.576913 0.561517 0.730327
0.698878 0.610361 0.739925
0.812863 0.65005 0.748119
0.216617 0.551949 0.734524
0.250141 0.564614 0.740368
0.290532 0.569329 0.732677
0.359365 0.572671 0.715114
0.44567 0.583627 0.701885
0.536004 0.605081 0.703075
0.623682 0.633112 0.739437
0.732677 0.673457 0.768734
0.84509 0.710536 0.774746
0.252079 0.648676 0.796124
0.289158 0.669917 0.815183
0.32842 0.684504 0.825757
0.389029 0.695384 0.827955
0.478981 0.704814 0.819944
0.593271 0.714305 0.79675
0.695781 0.734356 0.787533
0.78909 0.764233 0.8206
0.904692 0.792767 0.819257
0.370382 0.759182 0.844709
0.400885 0.784207 0.870176
0.433982 0.802228 0.886915
0.484489 0.81593 0.895766
0.556023 0.827634 0.897948
0.645167 0.839231 0.894865
0.746441 0.853147 0.889097
0.857191 0.869749 0.878096
0.965057 0.889464 0.874983
0.516487 0.876707 0.910552
0.54023 0.902113 0.937423
0.568765 0.920562 0.95523
0.610361 0.933928 0.964736
0.668269 0.94406 0.967117
0.742031 0.952422 0.963302
0.830869 0.960784 0.955261
0.935576 0.968856 0.94049
1 0.981964 0.930343
0.349264 0.631174 0.946334
0.357565 0.630503 0.943358
0.374441 0.630259 0.939544
0.407874 0.636942 0.942916
0.483177 0.660655 0.961273
0.57644 0.694652 1
0.696498 0.723766 1
0.847471 0.758297 1
0.996201 0.809552 1
0.336812 0.612924 0.916457
0.345892 0.611612 0.911788
0.362387 0.609552 0.904631
0.396597 0.613138 0.902266
0.469932 0.632273 0.912947
0.55671 0.662074 0.960632
0.669383 0.689143 1
0.807507 0.721508 1
0.938415 0.765072 1
0.307301 0.574212 0.854795
0.317403 0.571649 0.84741
0.333623 0.566827 0.83534
0.366934 0.565545 0.824674
0.434134 0.577447 0.824506
0.512673 0.602365 0.863401
0.61619 0.630365 0.916487
0.741619 0.663722 0.932692
0.859052 0.704814 0.912047
0.272648 0.533089 0.783536
0.28571 0.532479 0.776761
0.304417 0.528649 0.764096
0.341451 0.526787 0.750134
0.406043 0.534722 0.743053
0.48101 0.556069 0.770459
0.575723 0.587289 0.828031
0.693324 0.625864 0.856138
0.805676 0.670497 0.850965
0.251072 0.522286 0.742153
0.26981 0.527199 0.740078
0.296269 0.529259 0.732418
0.344778 0.534905 0.72549
0.413977 0.546593 0.721294
0.498039 0.568795 0.731029
0.580789 0.599634 0.788403
0.690257 0.639887 0.833799
0.800336 0.687221 0.840192
0.256672 0.576425 0.780316
0.282414 0.587808 0.784817
0.319203 0.59321 0.777996
0.380682 0.6 0.767208
0.457359 0.614023 0.763043
0.543572 0.635493 0.766613
0.629694 0.663462 0.794888
0.724636 0.697826 0.856062
0.831296 0.743984 0.867353
0.27866 0.675258 0.864164
0.310124 0.694987 0.880995
0.348074 0.707393 0.886961
0.413046 0.71545 0.880781
0.504997 0.72256 0.86305
0.604578 0.735485 0.84683
0.698116 0.758801 0.848646
0.783978 0.787015 0.887816
0.88072 0.82443 0.913115
0.34313 0.784024 0.932113
0.373617 0.808896 0.957137
0.408179 0.826703 0.973175
0.461997 0.840085 0.980926
0.538766 0.851179 0.981048
0.636744 0.861128 0.972335
0.754376 0.871138 0.949401
0.856321 0.889586 0.936889
0.937972 0.916243 0.966339
0.461524 0.90016 0.998108
0.487556 0.92546 1
0.519966 0.943938 1
0.567224 0.957168 1
0.632013 0.966918 1
0.712963 0.974929 1
0.805478 0.983291 1
0.901961 0.993286 1
0.995193 1 1
