luts/Bat-CLog.cube
TITLE "Generated by Resolve"
LUT_3D_SIZE 5
0.024094 0.0297398 0.0202182
0.266148 0.0491493 0
0.601099 0.191959 0
0.952636 0.359472 0
1 0.54023 0
0.141238 0.166949 0.0502785
0.278386 0.173449 0
0.510048 0.207843 0
0.804944 0.317693 0
1 0.497566 0
0.335378 0.365057 0.214557
0.399374 0.386801 0.206561
0.531655 0.390463 0.0834821
0.745281 0.39794 0
0.971572 0.464057 0
0.534264 0.566567 0.387381
0.58201 0.590921 0.388388
0.662699 0.606058 0.35407
0.819089 0.619135 0.253101
1 0.633906 0
0.783261 0.816983 0.579263
0.816861 0.8309 0.57145
0.875669 0.844755 0.551186
0.98323 0.861204 0.494102
1 0.877119 0.372366
0.053315 0.129351 0.214023
0.177996 0.157382 0.266987
0.566567 0.21088 0.163058
0.916274 0.363134 0
1 0.542901 0
0 0.202182 0.244739
0.197559 0.213458 0.215778
0.469032 0.255741 0.160281
0.766629 0.356756 0.0769665
1 0.518288 0
0.324941 0.368444 0.257847
0.393179 0.394263 0.247349
0.52726 0.40206 0.167773
0.744442 0.412421 0
0.971405 0.477195 0
0.528511 0.561822 0.383886
0.579767 0.589517 0.387778
0.66099 0.604868 0.353521
0.817945 0.618067 0.252186
1 0.632914 0
0.781491 0.815946 0.579507
0.8159 0.830655 0.571679
0.874983 0.844633 0.551492
0.982849 0.861189 0.494362
1 0.877119 0.372366
0.141665 0.29688 0.458671
0.224964 0.313634 0.466804
0.431998 0.376089 0.558312
0.847028 0.437156 0.480735
1 0.543648 0.308232
0.0957504 0.279423 0.411246
0.202533 0.293858 0.406607
0.392309 0.351492 0.479576
0.752285 0.40708 0.428519
1 0.539605 0.303624
0.083238 0.413275 0.472358
0.252338 0.439628 0.484077
0.438666 0.453498 0.45832
0.660639 0.484825 0.430381
0.908003 0.545373 0.402487
0.482643 0.568566 0.477394
0.55465 0.611704 0.517082
0.643473 0.636759 0.489128
0.79559 0.657603 0.452537
1 0.680629 0.33019
0.77644 0.813016 0.57998
0.813016 0.829831 0.572305
0.873075 0.844236 0.552331
0.981826 0.861143 0.495109
1 0.877119 0.372366
0.251896 0.474037 0.717128
0.282307 0.476097 0.714076
0.441962 0.529946 0.782422
0.699321 0.601022 0.846326
1 0.674495 0.771206
0.238956 0.458076 0.689632
0.275181 0.462394 0.688243
0.438025 0.518456 0.760128
0.70042 0.59971 0.841535
1 0.670909 0.764599
0.173007 0.45977 0.630747
0.247532 0.46743 0.615228
0.417731 0.490105 0.594202
0.586908 0.542687 0.65684
0.870115 0.595209 0.63563
0.278752 0.62536 0.69836
0.3691 0.666835 0.73518
0.517067 0.689433 0.736934
0.700221 0.713787 0.721035
0.932921 0.754223 0.706401
0.689601 0.851392 0.779782
0.741253 0.88043 0.801953
0.817792 0.893812 0.803861
0.929152 0.917037 0.762692
1 0.93875 0.728954
0.349264 0.631174 0.946334
0.349264 0.631174 0.946334
0.462013 0.653468 0.955657
0.677119 0.720165 1
0.989654 0.807813 1
0.349264 0.631174 0.946334
0.349264 0.631174 0.946334
0.463004 0.653803 0.955917
0.677531 0.720241 1
0.989837 0.807858 1
0.262043 0.523293 0.761898
0.262425 0.523583 0.762646
0.390616 0.529198 0.729168
0.559014 0.580789 0.808713
0.810483 0.673091 0.862119
0.273472 0.658747 0.85185
0.273396 0.658488 0.851652
0.4916 0.700313 0.842222
0.675685 0.736385 0.832685
0.863539 0.800793 0.899641
0.46154 0.900145 0.998062
0.499092 0.933608 1
0.644434 0.968322 1
0.801984 0.98291 1
0.995193 1 1
