luts/Bat-Log3G10.cube
TITLE "Generated by Resolve"
LUT_3D_SIZE 33
0.0326696 0.0361334 0.0265354
0.0349889 0.036408 0.0259098
0.0387579 0.0370336 0.0263523
0.0495613 0.0367285 0.02327
0.063859 0.0370794 0.0193484
0.0842603 0.0378424 0.0140993
0.113298 0.0391546 0.00691234
0.151156 0.0406348 0
0.196063 0.0446632 0
0.248844 0.0527962 0
0.308431 0.0676432 0
0.374517 0.0915084 0
0.445548 0.124224 0
0.520623 0.159991 0
0.599374 0.194369 0
0.677852 0.231632 0
0.756664 0.268894 0
0.834745 0.30573 0
0.90985 0.34107 0
0.98143 0.374716 0
1 0.405692 0
1 0.433799 0
1 0.458183 0
1 0.478798 0
1 0.495598 0
1 0.508904 0
1 0.519219 0
1 0.527245 0
1 0.533165 0
1 0.537469 0
1 0.54023 0
1 0.54023 0
1 0.54023 0
0.0309453 0.0385138 0.0281682
0.0341344 0.0386206 0.0271611
0.039353 0.0387121 0.0255436
0.0490578 0.0385901 0.0224002
0.0637217 0.0386511 0.0180362
0.0850538 0.0389105 0.0118868
0.113451 0.0400854 0.00492866
0.150744 0.0416266 0
0.195499 0.0457313 0
0.248264 0.0543069 0
0.307744 0.0697948 0
0.373678 0.0936904 0
0.444617 0.126284 0
0.519631 0.161852 0
0.598306 0.19527 0
0.676509 0.232258 0
0.755169 0.269459 0
0.833127 0.306264 0
0.908141 0.341573 0
0.979522 0.375067 0
1 0.405829 0
1 0.433707 0
1 0.458122 0
1 0.478782 0
1 0.495598 0
1 0.508904 0
1 0.519203 0
1 0.52723 0
1 0.533165 0
1 0.537469 0
1 0.54023 0
1 0.54023 0
1 0.54023 0
0.0341344 0.0412451 0.0267643
0.0372168 0.0411383 0.0257877
0.0421607 0.0413214 0.0233158
0.0532082 0.0408026 0.0186465
0.069337 0.0398108 0.0126345
0.0885634 0.0401312 0.00770581
0.114321 0.0413519 0.00184634
0.150668 0.0430762 0
0.195071 0.0476692 0
0.24741 0.0567025 0
0.306538 0.072694 0
0.372259 0.0967575 0
0.443076 0.129213 0
0.517754 0.164004 0
0.596338 0.196078 0
0.67422 0.232883 0
0.752407 0.26981 0
0.829923 0.306325 0
0.904524 0.341421 0
0.975753 0.374792 0
1 0.405692 0
1 0.433555 0
1 0.457755 0
1 0.478447 0
1 0.495552 0
1 0.508904 0
1 0.519203 0
1 0.52723 0
1 0.533165 0
1 0.537469 0
1 0.54023 0
1 0.54023 0
1 0.54023 0
0.0400702 0.0458076 0.0258793
0.0427863 0.0459754 0.0246281
0.0471504 0.0463722 0.0214237
0.0564584 0.0463111 0.0160372
0.0740063 0.0441749 0.00787366
0.0926375 0.0435645 0.00337224
0.11812 0.0437934 0
0.151858 0.0456397 0
0.194446 0.050248 0
0.24535 0.0600443 0
0.303929 0.0762798 0
0.369146 0.10045 0
0.439307 0.132006 0
0.513878 0.165255 0
0.592355 0.196384 0
0.66952 0.232731 0
0.747127 0.269306 0
0.824094 0.305577 0
0.898222 0.340505 0
0.968978 0.373663 0
1 0.404334 0
1 0.432059 0
1 0.456458 0
1 0.477363 0
1 0.494438 0
1 0.508034 0
1 0.518761 0
1 0.52723 0
1 0.533165 0
1 0.537469 0
1 0.54023 0
1 0.54023 0
1 0.54023 0
0.0467842 0.0522469 0.0228275
0.0493172 0.052842 0.0213169
0.0537118 0.0534218 0.0186618
0.0619364 0.053727 0.0139773
0.0782483 0.0530098 0.00460822
0.102998 0.0497902 0
0.126268 0.048661 0
0.155383 0.0497749 0
0.194369 0.0547646 0
0.242847 0.0643626 0
0.29984 0.0802625 0
0.363928 0.104189 0
0.433341 0.13518 0
0.507225 0.166781 0
0.585489 0.195773 0
0.661768 0.231495 0
0.738231 0.267552 0
0.813916 0.303212 0
0.886946 0.337636 0
0.956649 0.370321 0
1 0.400671 0
1 0.428305 0
1 0.452689 0
1 0.473716 0
1 0.491035 0
1 0.504997 0
1 0.51603 0
1 0.524666 0
1 0.531044 0
1 0.535698 0
1 0.53872 0
1 0.538964 0
1 0.539147 0
0.0548562 0.0612039 0.0189975
0.0573434 0.0619364 0.0177005
0.0617227 0.0627756 0.0158236
0.0692454 0.0634775 0.0123598
0.0834821 0.0639353 0.00488289
0.107088 0.062623 0
0.136736 0.0585031 0
0.161685 0.0577707 0
0.196033 0.0611582 0
0.240742 0.0698711 0
0.295064 0.0850843 0
0.356985 0.108431 0
0.424842 0.137819 0
0.497475 0.168429 0
0.574594 0.196338 0
0.650706 0.22884 0
0.725536 0.264149 0
0.799588 0.299077 0
0.870649 0.332616 0
0.938582 0.364599 0
1 0.394156 0
1 0.421103 0
1 0.444877 0
1 0.465537 0
1 0.482918 0
1 0.497078 0
1 0.508339 0
1 0.517311 0
1 0.524163 0
1 0.529152 0
1 0.532509 0
1 0.532998 0
1 0.533394 0
0.0638895 0.0733501 0.0190585
0.0664683 0.0743572 0.0183566
0.0710002 0.0757305 0.016434
0.0782025 0.0767987 0.013901
0.0908064 0.0777447 0.0077821
0.111681 0.0780346 0
0.140139 0.0760967 0
0.170733 0.0709087 0
0.20061 0.0711223 0
0.240269 0.0775921 0
0.290486 0.0913252 0
0.349004 0.113191 0
0.414343 0.140581 0
0.484596 0.17023 0
0.560159 0.196826 0
0.636454 0.225116 0
0.709194 0.259419 0
0.780941 0.293263 0
0.849683 0.325689 0
0.91519 0.356573 0
0.975692 0.385122 0
1 0.411124 0
1 0.433967 0
1 0.453696 0
1 0.470176 0
1 0.483757 0
1 0.494591 0
1 0.503227 0
1 0.50988 0
1 0.514763 0
1 0.51812 0
1 0.518807 0
1 0.519295 0
0.0773022 0.0910658 0.0210117
0.080293 0.0925307 0.0208591
0.0848707 0.0942397 0.0194247
0.092256 0.0962539 0.0172274
0.104082 0.097734 0.012604
0.121782 0.0986038 0.00343328
0.145083 0.0981918 0
0.174014 0.0947738 0
0.208316 0.0881819 0
0.242725 0.090013 0
0.287327 0.100359 0
0.341161 0.119402 0
0.402792 0.144076 0
0.46978 0.172503 0
0.543145 0.197498 0
0.617609 0.223407 0
0.689418 0.253758 0
0.758526 0.286275 0
0.82446 0.317372 0
0.887098 0.347005 0
0.944839 0.374289 0
0.99707 0.398871 0
1 0.4206 0
1 0.4392 0
1 0.454704 0
1 0.467384 0
1 0.477378 0
1 0.485405 0
1 0.491493 0
1 0.495979 0
1 0.499077 0
1 0.499702 0
1 0.50016 0
0.0985885 0.117861 0.0273899
0.101686 0.119387 0.0274815
0.106645 0.12166 0.0272374
0.114397 0.124224 0.0246738
0.125185 0.126268 0.0214542
0.139437 0.127718 0.0143893
0.158251 0.128374 0.00199893
0.181827 0.127092 0
0.211719 0.12282 0
0.250874 0.11516 0
0.289021 0.118517 0
0.336263 0.131029 0
0.392096 0.15053 0
0.454566 0.175494 0
0.524453 0.198611 0
0.596048 0.222629 0
0.667079 0.248142 0
0.73312 0.279088 0
0.79617 0.308736 0
0.855619 0.336782 0
0.910201 0.362539 0
0.959579 0.385855 0
1 0.406287 0
1 0.423606 0
1 0.438071 0
1 0.449638 0
1 0.458869 0
1 0.466178 0
1 0.471672 0
1 0.475792 0
1 0.478584 0
1 0.479042 0
1 0.479362 0
0.128466 0.150134 0.0394903
0.131731 0.151934 0.0402838
0.135988 0.154162 0.0408789
0.142687 0.157015 0.0398566
0.15227 0.159976 0.0366674
0.164187 0.161837 0.0316777
0.179171 0.162951 0.0218509
0.19794 0.163012 0.00610361
0.220478 0.161166 0
0.254337 0.156725 0
0.297704 0.149371 0
0.338247 0.15349 0
0.386816 0.166033 0
0.443809 0.184527 0
0.508812 0.203662 0
0.576043 0.224582 0
0.643732 0.246509 0
0.707027 0.273594 0
0.766415 0.300984 0
0.822568 0.327184 0
0.874083 0.351446 0
0.920455 0.373281 0
0.960662 0.392279 0
0.994965 0.408576 0
1 0.421973 0
1 0.432746 0
1 0.441169 0
1 0.447868 0
1 0.452903 0
1 0.456611 0
1 0.459083 0
1 0.459327 0
1 0.459525 0
0.162158 0.186542 0.0606241
0.165469 0.188067 0.0606546
0.16936 0.190387 0.0621653
0.175341 0.193576 0.0631876
0.183825 0.19704 0.0608835
0.194339 0.199664 0.057084
0.206821 0.201266 0.0499886
0.221866 0.202029 0.0376135
0.239689 0.201312 0.018555
0.263386 0.199573 0
0.301579 0.195483 0
0.348119 0.188632 0
0.390845 0.192248 0
0.443015 0.201862 0
0.50103 0.215991 0
0.562295 0.232883 0
0.624933 0.251423 0
0.684153 0.274372 0
0.739864 0.29897 0
0.792538 0.322683 0
0.840833 0.344839 0
0.884215 0.364935 0
0.921859 0.382406 0
0.953689 0.397192 0
0.97995 0.409552 0
1 0.419486 0
1 0.427192 0
1 0.433249 0
1 0.437781 0
1 0.441154 0
1 0.443412 0
1 0.443549 0
1 0.443656 0
0.199725 0.226337 0.0915847
0.201846 0.227237 0.0913558
0.205875 0.22945 0.092607
0.211063 0.232792 0.0959335
0.218585 0.236622 0.0966812
0.22855 0.240391 0.0922713
0.239475 0.242527 0.0881208
0.252033 0.243824 0.0791333
0.2663 0.243854 0.0639353
0.28333 0.243122 0.0431067
0.310689 0.241825 0.00944533
0.351644 0.238636 0
0.405356 0.230655 0
0.454383 0.230701 0
0.504936 0.238331 0
0.559258 0.250004 0
0.614893 0.265202 0
0.668391 0.285084 0
0.720165 0.305867 0
0.769314 0.326497 0
0.814572 0.346136 0
0.855314 0.364126 0
0.890791 0.380148 0
0.920729 0.393652 0
0.945388 0.404883 0
0.965103 0.413993 0
0.980514 0.42118 0
0.992599 0.42681 0
1 0.430915 0
1 0.434028 0
1 0.436103 0
1 0.436072 0
1 0.436057 0
0.241779 0.269215 0.129885
0.241764 0.269215 0.12987
0.243732 0.270161 0.130037
0.248661 0.273228 0.13257
0.255482 0.277546 0.13611
0.264927 0.282155 0.136233
0.275029 0.285298 0.132067
0.285832 0.2869 0.126864
0.297658 0.287388 0.117006
0.311025 0.287282 0.102678
0.330694 0.287098 0.0780652
0.361395 0.28658 0.039353
0.404166 0.284627 0
0.459846 0.279026 0
0.512154 0.278004 0
0.562387 0.282826 0
0.61265 0.293309 0
0.662104 0.307485 0
0.710246 0.323674 0
0.755978 0.340627 0
0.798505 0.357351 0
0.836835 0.373053 0
0.870314 0.387106 0
0.898955 0.399496 0
0.922332 0.409644 0
0.941024 0.417945 0
0.955627 0.424399 0
0.967147 0.429603 0
0.975753 0.433524 0
0.982055 0.436423 0
0.986313 0.438392 0
0.986435 0.438331 0
0.986526 0.4383 0
0.284886 0.313222 0.169329
0.284886 0.313222 0.169329
0.284886 0.313222 0.169329
0.286748 0.314183 0.169711
0.292943 0.318456 0.173648
0.30103 0.323201 0.175982
0.311192 0.327565 0.17377
0.321569 0.330343 0.170352
0.332174 0.331579 0.165408
0.34374 0.332143 0.157504
0.358557 0.33257 0.145037
0.38204 0.333059 0.120989
0.416022 0.33373 0.0804456
0.459815 0.333303 0.0319066
0.516289 0.328984 0
0.568292 0.328618 0
0.617548 0.332937 0
0.664759 0.34136 0
0.710292 0.352605 0
0.753307 0.365484 0
0.79353 0.378943 0
0.829801 0.392035 0
0.861662 0.404089 0
0.888899 0.41474 0
0.911528 0.424002 0
0.929473 0.431357 0
0.943603 0.437354 0
0.954726 0.442115 0
0.962921 0.445518 0
0.969039 0.448218 0
0.973236 0.45008 0
0.973266 0.450004 0
0.973297 0.449943 0
0.326894 0.356329 0.207004
0.326879 0.356329 0.207004
0.326879 0.356329 0.207004
0.326879 0.356313 0.206989
0.328695 0.357259 0.207279
0.336522 0.362921 0.212406
0.34699 0.368872 0.214603
0.357977 0.373434 0.211612
0.368292 0.375692 0.209308
0.378897 0.377081 0.205234
0.39118 0.378088 0.198413
0.410147 0.379171 0.18436
0.437705 0.380972 0.161868
0.47425 0.382666 0.12781
0.518059 0.383093 0.0826123
0.574731 0.380438 0
0.626154 0.380697 0
0.673472 0.384237 0
0.717983 0.390799 0
0.759579 0.39971 0
0.798291 0.409796 0
0.833066 0.420142 0
0.863951 0.43032 0
0.890211 0.439323 0
0.911894 0.447105 0
0.929549 0.453819 0
0.943358 0.459129 0
0.954086 0.463279 0
0.962264 0.46656 0
0.968246 0.469032 0
0.972427 0.470756 0
0.972381 0.470665 0
0.972351 0.470588 0
0.367971 0.398581 0.24361
0.367971 0.398581 0.24361
0.367971 0.398581 0.24361
0.367971 0.398581 0.243595
0.367971 0.398581 0.243595
0.37052 0.400137 0.244556
0.380911 0.407858 0.251392
0.393454 0.414786 0.253117
0.404868 0.419318 0.250278
0.415167 0.42153 0.248676
0.426261 0.423255 0.245106
0.442481 0.424949 0.236332
0.46595 0.427375 0.221576
0.496742 0.429923 0.199207
0.535073 0.432441 0.16936
0.579278 0.433921 0.13402
0.634958 0.432456 0.0431678
0.684749 0.432898 0
0.730434 0.436088 0
0.772152 0.441535 0
0.810361 0.448493 0
0.84445 0.456184 0
0.874403 0.463951 0
0.900343 0.47155 0
0.921553 0.478035 0
0.938888 0.483803 0
0.952285 0.488243 0
0.962966 0.492027 0
0.971023 0.494942 0
0.97673 0.496956 0
0.980926 0.498512 0
0.98088 0.498421 0
0.980835 0.49836 0
0.408469 0.440269 0.279805
0.408469 0.440269 0.279805
0.408469 0.440269 0.279805
0.408469 0.440269 0.279805
0.408453 0.440269 0.279789
0.408453 0.440269 0.279789
0.412268 0.442985 0.281987
0.42623 0.453193 0.29012
0.439841 0.460502 0.290791
0.451392 0.464866 0.288655
0.462226 0.467552 0.287434
0.476967 0.469932 0.281941
0.497856 0.472969 0.271687
0.524987 0.476173 0.255497
0.558801 0.479713 0.233539
0.598215 0.482872 0.206546
0.642252 0.484672 0.174716
0.69604 0.484047 0.0944991
0.74435 0.485054 0.0148013
0.787686 0.487922 0
0.826429 0.492332 0
0.8607 0.497719 0
0.890623 0.503502 0
0.916381 0.509468 0
0.937484 0.514717 0
0.954376 0.519234 0
0.967971 0.523262 0
0.978531 0.526513 0
0.986221 0.528771 0
0.992157 0.530739 0
0.996536 0.532219 0
0.996521 0.532158 0
0.99649 0.532097 0
0.44799 0.481025 0.314961
0.44799 0.481025 0.314961
0.447974 0.481025 0.314946
0.447974 0.481025 0.314946
0.447974 0.481025 0.314946
0.447974 0.48101 0.314946
0.447974 0.48101 0.314946
0.454154 0.485908 0.31931
0.472068 0.498756 0.328023
0.48629 0.506172 0.327474
0.497948 0.510536 0.32639
0.512245 0.514107 0.323659
0.53138 0.517479 0.316075
0.556359 0.521508 0.304036
0.586618 0.525444 0.286671
0.622461 0.529503 0.264622
0.662181 0.532952 0.239551
0.706004 0.535073 0.209216
0.757473 0.535119 0.141253
0.80325 0.53637 0.0632944
0.843641 0.538903 0
0.878889 0.542458 0
0.909377 0.546563 0
0.935347 0.550988 0
0.956725 0.5552 0
0.973709 0.558816 0
0.987442 0.562158 0
0.998032 0.564889 0
1 0.566781 0
1 0.56849 0
1 0.569772 0
1 0.569787 0
1 0.569741 0
0.486107 0.520409 0.348669
0.486107 0.520409 0.348653
0.486107 0.520409 0.348653
0.486107 0.520394 0.348653
0.486107 0.520394 0.348653
0.486107 0.520394 0.348653
0.486091 0.520394 0.348653
0.486091 0.520394 0.348653
0.497261 0.529747 0.356954
0.517754 0.543801 0.364172
0.53228 0.551385 0.362737
0.546441 0.556069 0.361547
0.564874 0.560281 0.356298
0.588388 0.564843 0.346868
0.61648 0.569284 0.332677
0.649531 0.573983 0.314397
0.686641 0.578363 0.292424
0.726055 0.581796 0.268605
0.769162 0.584176 0.238895
0.817807 0.584604 0.178485
0.860349 0.585962 0.113756
0.897169 0.588174 0.0460365
0.92871 0.590982 0
0.95555 0.594369 0
0.977218 0.597467 0
0.994644 0.600381 0
1 0.603021 0
1 0.60531 0
1 0.606912 0
1 0.608316 0
1 0.60943 0
1 0.609506 0
1 0.609461 0
0.522835 0.558434 0.38085
0.522835 0.558434 0.38085
0.522835 0.558434 0.38085
0.52282 0.558434 0.38085
0.52282 0.558434 0.38085
0.52282 0.558434 0.38085
0.52282 0.558434 0.38085
0.52282 0.558419 0.38085
0.52282 0.558419 0.38085
0.542367 0.574746 0.39408
0.563088 0.58819 0.398322
0.578851 0.595697 0.396185
0.597314 0.601022 0.393103
0.620066 0.606241 0.385733
0.646799 0.611185 0.373861
0.677623 0.616083 0.357931
0.712352 0.620981 0.338643
0.74995 0.625406 0.316762
0.788815 0.629129 0.294682
0.830564 0.631296 0.26453
0.875273 0.6318 0.210483
0.914076 0.633143 0.156695
0.947112 0.635233 0.101488
0.97435 0.637461 0.0489967
0.996567 0.63975 0.00920119
1 0.642222 0
1 0.644144 0
1 0.646052 0
1 0.647593 0
1 0.648829 0
1 0.6495 0
1 0.649622 0
1 0.649592 0
0.557183 0.594095 0.410651
0.557183 0.594095 0.410651
0.557183 0.594095 0.410651
0.557183 0.594095 0.410651
0.557183 0.594095 0.410651
0.557183 0.594095 0.410651
0.557183 0.594079 0.410651
0.557183 0.594079 0.410651
0.557168 0.594079 0.410651
0.557168 0.594079 0.410651
0.5879 0.619211 0.428626
0.607919 0.631342 0.429587
0.627176 0.63859 0.426322
0.649561 0.644388 0.420462
0.675822 0.650141 0.41062
0.705379 0.655406 0.396582
0.738537 0.660716 0.379248
0.774227 0.665476 0.358984
0.811261 0.669551 0.337407
0.848447 0.673091 0.317037
0.888106 0.67509 0.286976
0.928695 0.675868 0.239551
0.962844 0.677089 0.195148
0.991043 0.678706 0.153918
1 0.68069 0.115465
1 0.682338 0.079057
1 0.684153 0.0523079
1 0.685725 0.0326848
1 0.686702 0.0176852
1 0.68777 0.0075227
1 0.688609 0.00030518
1 0.688777 0
1 0.688746 0
0.589151 0.627329 0.438163
0.589151 0.627329 0.438163
0.589151 0.627329 0.438163
0.589136 0.627329 0.438163
0.589136 0.627329 0.438163
0.589136 0.627329 0.438163
0.589136 0.627329 0.438163
0.589136 0.627329 0.438163
0.589136 0.627314 0.438148
0.589136 0.627314 0.438148
0.598276 0.635645 0.445182
0.632044 0.661524 0.459419
0.653666 0.672404 0.455863
0.676692 0.679469 0.451896
0.702449 0.685588 0.443305
0.731243 0.691249 0.430777
0.763302 0.696788 0.414878
0.797543 0.701823 0.396185
0.833188 0.706218 0.375708
0.869291 0.710124 0.35523
0.904021 0.713405 0.336934
0.940932 0.715053 0.306798
0.97644 0.715892 0.266194
1 0.717021 0.230152
1 0.718593 0.198779
1 0.71986 0.171405
1 0.72134 0.149187
1 0.722545 0.130892
1 0.72343 0.115694
1 0.724346 0.104417
1 0.725048 0.0954452
1 0.725277 0.0923629
1 0.725246 0.0923018
0.617884 0.657267 0.46273
0.617884 0.657267 0.46273
0.617884 0.657267 0.46273
0.617884 0.657267 0.46273
0.617884 0.657267 0.46273
0.617884 0.657267 0.46273
0.617884 0.657267 0.46273
0.617868 0.657252 0.462715
0.617868 0.657252 0.462715
0.617868 0.657252 0.462715
0.617868 0.657252 0.462715
0.647547 0.682979 0.481529
0.675334 0.700786 0.483635
0.699977 0.710155 0.479301
0.725948 0.716793 0.471809
0.754772 0.723049 0.460502
0.785733 0.728573 0.445655
0.819242 0.733883 0.428092
0.853864 0.738613 0.408713
0.88864 0.74258 0.388617
0.922621 0.74612 0.369772
0.954238 0.74905 0.353735
0.987869 0.750317 0.323629
1 0.751446 0.289937
1 0.752407 0.260746
1 0.753384 0.236316
1 0.75462 0.216953
1 0.755749 0.201801
1 0.756374 0.189456
1 0.757168 0.180606
1 0.757794 0.174029
1 0.758038 0.170947
1 0.758022 0.170916
0.64329 0.683757 0.484337
0.64329 0.683757 0.484337
0.64329 0.683757 0.484337
0.64329 0.683757 0.484337
0.64329 0.683757 0.484337
0.64329 0.683757 0.484337
0.64329 0.683757 0.484337
0.64329 0.683757 0.484337
0.64329 0.683757 0.484337
0.64329 0.683757 0.484337
0.643275 0.683757 0.484321
0.644266 0.684642 0.484993
0.691524 0.723125 0.50779
0.719142 0.736171 0.502647
0.745907 0.743725 0.496376
0.774792 0.750317 0.485924
0.805585 0.75613 0.471916
0.838163 0.761395 0.4551
0.872129 0.766293 0.436423
0.906325 0.770672 0.417075
0.939574 0.774365 0.398199
0.970611 0.777462 0.381415
0.998611 0.780011 0.367712
1 0.78085 0.337652
1 0.781888 0.309911
1 0.782681 0.287007
1 0.783703 0.268864
1 0.784375 0.254582
1 0.785153 0.243549
1 0.78584 0.235538
1 0.786404 0.229633
1 0.786587 0.22623
1 0.786572 0.226215
0.664912 0.70634 0.502663
0.664912 0.70634 0.502663
0.664912 0.70634 0.502663
0.664912 0.70634 0.502663
0.664912 0.70634 0.502663
0.664912 0.706325 0.502663
0.664912 0.706325 0.502663
0.664912 0.706325 0.502663
0.664912 0.706325 0.502663
0.664912 0.706325 0.502663
0.664912 0.706325 0.502663
0.664897 0.706325 0.502647
0.700938 0.737804 0.524468
0.73373 0.757031 0.521584
0.762219 0.766171 0.516991
0.791455 0.773144 0.507195
0.822202 0.77911 0.493675
0.85449 0.784497 0.477378
0.887953 0.789563 0.459373
0.921614 0.794018 0.44033
0.954314 0.797879 0.421668
0.98497 0.801068 0.404517
1 0.803662 0.390066
1 0.8056 0.37615
1 0.806195 0.348745
1 0.807157 0.326833
1 0.807782 0.309071
1 0.808637 0.295644
1 0.809323 0.285145
1 0.809903 0.277394
1 0.810376 0.271626
1 0.810513 0.267903
1 0.810498 0.267887
0.682719 0.724926 0.517723
0.682719 0.724926 0.517723
0.682719 0.724926 0.517723
0.682719 0.724926 0.517723
0.682719 0.724926 0.517723
0.682719 0.724926 0.517723
0.682719 0.724926 0.517723
0.682719 0.724926 0.517723
0.682719 0.724926 0.517723
0.682719 0.724926 0.517723
0.682719 0.724926 0.517723
0.682719 0.724926 0.517723
0.696239 0.737682 0.527886
0.744167 0.772778 0.54023
0.774609 0.783963 0.533608
0.804608 0.791485 0.524407
0.835691 0.797742 0.511299
0.868147 0.80354 0.495613
0.901198 0.808454 0.477684
0.934432 0.81297 0.458946
0.966735 0.816831 0.44033
0.996994 0.82005 0.423072
1 0.822766 0.408316
1 0.824933 0.396353
1 0.826413 0.379507
1 0.826947 0.357717
1 0.82771 0.34049
1 0.828153 0.327016
1 0.828779 0.316899
1 0.829328 0.309499
1 0.82974 0.303807
1 0.830106 0.299977
1 0.830091 0.299962
0.697368 0.74023 0.530083
0.697368 0.74023 0.530083
0.697368 0.74023 0.530083
0.697368 0.74023 0.530083
0.697368 0.74023 0.530083
0.697368 0.74023 0.530083
0.697353 0.740215 0.530083
0.697353 0.740215 0.530083
0.697353 0.740215 0.530083
0.697353 0.740215 0.530083
0.697353 0.740215 0.530083
0.697353 0.740215 0.530083
0.697353 0.740215 0.530083
0.750378 0.783658 0.554284
0.784283 0.798306 0.547127
0.815061 0.806256 0.538323
0.846525 0.812802 0.525536
0.879057 0.818738 0.510094
0.911879 0.823713 0.492454
0.9449 0.82826 0.473899
0.976974 0.832135 0.455344
1 0.835431 0.438056
1 0.838117 0.422934
1 0.840269 0.410636
1 0.841993 0.40119
1 0.842878 0.382055
1 0.84332 0.364858
1 0.843976 0.351675
1 0.844572 0.341909
1 0.844968 0.334508
1 0.845182 0.328817
1 0.845518 0.324941
1 0.845533 0.324529
0.708675 0.752041 0.53962
0.708675 0.752041 0.53962
0.708675 0.752041 0.53962
0.708675 0.752041 0.53962
0.708675 0.752041 0.53962
0.708675 0.752041 0.53962
0.708675 0.752041 0.53962
0.708675 0.752041 0.53962
0.708675 0.752041 0.53962
