luts/Bat-SLog.cube
TITLE "Generated by Resolve"
LUT_3D_SIZE 5
0.024094 0.0297398 0.0202182
0.172412 0.0345464 0
0.518029 0.151904 0
0.944015 0.355383 0
1 0.54023 0
0.0786297 0.100175 0.0260624
0.196857 0.106416 0
0.46096 0.173404 0
0.833021 0.324407 0
1 0.472374 0
0.281788 0.310063 0.166491
0.331548 0.328634 0.161135
0.464973 0.32958 0.0173495
0.730556 0.35729 0
0.972763 0.451896 0
0.500862 0.535683 0.361654
0.543374 0.565591 0.377523
0.616144 0.584298 0.355962
0.803723 0.60354 0.238773
1 0.627253 0
0.727443 0.771664 0.555444
0.774823 0.811994 0.579934
0.841413 0.837537 0.564889
0.971359 0.85977 0.50106
1 0.877119 0.372366
0.0365606 0.0708171 0.118929
0.117556 0.0885023 0.147829
0.502983 0.160113 0.011017
0.920195 0.363333 0
1 0.549798 0
0 0.13846 0.174945
0.133562 0.148104 0.148486
0.432532 0.209964 0.0831617
0.800793 0.350362 0
1 0.484108 0
0.250507 0.323064 0.24831
0.315785 0.340917 0.250294
0.448478 0.352804 0.185183
0.722499 0.384955 0
0.965606 0.473625 0
0.497139 0.545342 0.408347
0.543236 0.577478 0.424704
0.621149 0.600885 0.401495
0.808057 0.624033 0.316884
1 0.649836 0.0660258
0.732128 0.784802 0.589334
0.779889 0.826154 0.618128
0.84831 0.85391 0.601358
0.977523 0.876463 0.546395
1 0.893889 0.440299
0.100649 0.231525 0.363302
0.171527 0.243641 0.367056
0.383276 0.310826 0.441184
0.887587 0.376532 0.296223
1 0.537957 0.09308
0.0716716 0.23006 0.342611
0.157717 0.243442 0.341436
0.35555 0.305425 0.402716
0.773053 0.370413 0.305089
1 0.490303 0.219364
0.0352483 0.36408 0.42266
0.189273 0.385641 0.43125
0.381888 0.397284 0.401755
0.656916 0.445869 0.367727
0.910842 0.529839 0.351598
0.450294 0.564874 0.497795
0.49659 0.601144 0.534356
0.58967 0.623301 0.537438
0.769329 0.657038 0.499458
1 0.690517 0.405814
0.705547 0.800336 0.678218
0.751919 0.842832 0.71957
0.825483 0.870726 0.712093
0.952255 0.897566 0.664561
1 0.917861 0.604196
0.230762 0.439963 0.667399
0.269886 0.443915 0.665553
0.407279 0.491646 0.727703
0.710872 0.581598 0.784573
1 0.624521 0.677806
0.196811 0.406256 0.607385
0.243122 0.409094 0.599496
0.37174 0.440879 0.628855
0.633158 0.527047 0.69131
0.994034 0.569085 0.61825
0.16025 0.435523 0.601709
0.236484 0.442893 0.585626
0.384207 0.462486 0.567102
0.588357 0.529351 0.628321
0.891707 0.580743 0.599084
0.272267 0.620142 0.69514
0.348577 0.65742 0.728847
0.483635 0.680964 0.73463
0.697612 0.711192 0.71841
0.933639 0.758816 0.708324
0.599008 0.847089 0.820615
0.645685 0.890944 0.865568
0.741665 0.912627 0.87631
0.892622 0.929473 0.858686
1 0.957366 0.824125
0.349264 0.631174 0.946334
0.374441 0.630259 0.939544
0.483177 0.660655 0.961273
0.696498 0.723766 1
0.996201 0.809552 1
0.307301 0.574212 0.854795
0.333623 0.566827 0.83534
0.434134 0.577447 0.824506
0.61619 0.630365 0.916487
0.859052 0.704814 0.912047
0.251072 0.522286 0.742153
0.296269 0.529259 0.732418
0.413977 0.546593 0.721294
0.580789 0.599634 0.788403
0.800336 0.687221 0.840192
0.27866 0.675258 0.864164
0.348074 0.707393 0.886961
0.504997 0.72256 0.86305
0.698116 0.758801 0.848646
0.88072 0.82443 0.913115
0.461524 0.90016 0.998108
0.519966 0.943938 1
0.632013 0.966918 1
0.805478 0.983291 1
0.995193 1 1
