luts/Bat-CLog3.cube
TITLE "Generated by Resolve"
LUT_3D_SIZE 33
0.024094 0.0297398 0.0202182
0.024094 0.0297398 0.0202182
0.024094 0.0297398 0.0202182
0.0299077 0.0298161 0.0174868
0.0533455 0.0302129 0.0128939
0.0875563 0.0301671 0.00323491
0.12668 0.0309606 0
0.170748 0.0343938 0
0.217762 0.0399786 0
0.266392 0.0492103 0
0.316594 0.0628061 0
0.367559 0.0807202 0
0.41976 0.103304 0
0.472801 0.129595 0
0.526177 0.155932 0
0.580301 0.182559 0
0.634928 0.207019 0
0.68864 0.232837 0
0.74258 0.258808 0
0.796094 0.284504 0
0.84889 0.309834 0
0.900862 0.334707 0
0.95172 0.35903 0
1 0.382925 0
1 0.405737 0
1 0.427741 0
1 0.4486 0
1 0.468086 0
1 0.48603 0
1 0.502541 0
1 0.517433 0
1 0.530495 0
1 0.54023 0
0.024094 0.0297398 0.0202182
0.024094 0.0297398 0.0202182
0.024094 0.0297398 0.0202182
0.0301061 0.0298466 0.0176547
0.054612 0.0302129 0.0125429
0.088838 0.0301518 0.0028687
0.127886 0.0310216 0
0.171908 0.0345006 0
0.218738 0.0401312 0
0.267216 0.0493935 0
0.317159 0.0629892 0
0.368154 0.0809491 0
0.420264 0.103548 0
0.473213 0.129809 0
0.526482 0.156085 0
0.580606 0.182696 0
0.635172 0.207141 0
0.688838 0.232929 0
0.742702 0.258869 0
0.796231 0.284566 0
0.849012 0.309895 0
0.900954 0.334752 0
0.951797 0.359075 0
1 0.382956 0
1 0.405768 0
1 0.427771 0
1 0.448631 0
1 0.468101 0
1 0.486046 0
1 0.502541 0
1 0.517433 0
1 0.53051 0
1 0.54023 0
0.024094 0.0297398 0.0202182
0.024094 0.0297398 0.0202182
0.024094 0.0297398 0.0202182
0.0303044 0.0299077 0.0178531
0.0556497 0.0302129 0.012253
0.0897383 0.0301671 0.00262455
0.128786 0.0310826 0
0.172854 0.0345922 0
0.219562 0.0402533 0
0.267903 0.049546 0
0.317601 0.0631418 0
0.368643 0.0811475 0
0.420676 0.103746 0
0.473533 0.129961 0
0.526757 0.156222 0
0.58085 0.182818 0
0.63537 0.207233 0
0.688991 0.233005 0
0.742809 0.258915 0
0.796353 0.284627 0
0.849104 0.309941 0
0.901045 0.334798 0
0.951858 0.359106 0
1 0.382986 0
1 0.405798 0
1 0.427787 0
1 0.448646 0
1 0.468101 0
1 0.486061 0
1 0.502556 0
1 0.517449 0
1 0.53051 0
1 0.54023 0
0.0247959 0.0345464 0.0216526
0.0245518 0.0342718 0.0216678
0.0243687 0.0340429 0.0216983
0.031632 0.0329595 0.0188907
0.0560311 0.0333104 0.0123445
0.0911879 0.0338598 0.00341802
0.13048 0.0345159 0
0.174685 0.0377356 0
0.221225 0.0440528 0
0.269215 0.0535744 0
0.318456 0.0666972 0
0.369253 0.0840162 0
0.421118 0.105791 0
0.473793 0.130678 0
0.527001 0.156344 0
0.581048 0.182925 0
0.635538 0.207309 0
0.689128 0.233082 0
0.742885 0.258961 0
0.796445 0.284672 0
0.84918 0.309972 0
0.901106 0.334829 0
0.951919 0.359121 0
1 0.383001 0
1 0.405814 0
1 0.427802 0
1 0.448646 0
1 0.468116 0
1 0.486061 0
1 0.502556 0
1 0.517449 0
1 0.53051 0
1 0.54023 0
0.0383917 0.0494545 0.0230259
0.0379797 0.0489967 0.0229953
0.037644 0.0486152 0.0229801
0.0439918 0.0484169 0.0193637
0.0682841 0.0494545 0.00639353
0.105913 0.0456703 0
0.137636 0.0460822 0
0.17586 0.049546 0
0.219135 0.0564431 0
0.265614 0.0670329 0
0.314046 0.0811475 0
0.364446 0.0993668 0
0.416098 0.121614 0
0.468605 0.144533 0
0.522515 0.167208 0
0.578088 0.18793 0
0.632059 0.212528 0
0.686442 0.23711 0
0.741268 0.261738 0
0.795651 0.285679 0
0.849241 0.310002 0
0.901167 0.334859 0
0.951965 0.359152 0
1 0.383032 0
1 0.405829 0
1 0.427817 0
1 0.448661 0
1 0.468116 0
1 0.486076 0
1 0.502556 0
1 0.517449 0
1 0.530526 0
1 0.54023 0
0.051194 0.0655985 0.0226902
0.0508431 0.065156 0.0227054
0.0505684 0.0647898 0.0227359
0.0574502 0.0658274 0.0189364
0.0805982 0.0696727 0.00943008
0.119081 0.0679637 0
0.15407 0.0625162 0
0.183963 0.0628519 0
0.219791 0.0677653 0
0.26067 0.0769207 0
0.305257 0.0901808 0
0.352956 0.108232 0
0.402335 0.128649 0
0.453101 0.150301 0
0.505913 0.170809 0
0.560739 0.189899 0
0.615518 0.211063 0
0.669367 0.235828 0
0.724361 0.260929 0
0.780774 0.286397 0
0.83769 0.311666 0
0.894453 0.3364 0
0.949798 0.359869 0
1 0.383047 0
1 0.405844 0
1 0.427832 0
1 0.448676 0
1 0.468116 0
1 0.486076 0
1 0.502571 0
1 0.517464 0
1 0.530526 0
1 0.54023 0
0.0654307 0.0838331 0.0233616
0.0650339 0.0833448 0.0233005
0.0647135 0.0829328 0.0232548
0.0725414 0.0849317 0.0200198
0.0962234 0.0904097 0.0121309
0.128405 0.0909895 0
0.161959 0.0875105 0
0.195224 0.0810712 0
0.225193 0.0818799 0
0.260182 0.088304 0
0.299748 0.0995193 0
0.343267 0.115511 0
0.389517 0.133867 0
0.437446 0.15378 0
0.487678 0.173556 0
0.540383 0.191302 0
0.594049 0.209537 0
0.647303 0.230091 0
0.699687 0.25417 0
0.753399 0.278752 0
0.808225 0.303761 0
0.864683 0.329152 0
0.923247 0.355138 0
0.984436 0.381521 0
1 0.406058 0
1 0.427848 0
1 0.448692 0
1 0.468132 0
1 0.486091 0
1 0.502571 0
1 0.517464 0
1 0.530526 0
1 0.54023 0
0.0859541 0.109346 0.0280308
0.0854963 0.108827 0.0278325
0.0851301 0.10837 0.0277409
0.0942245 0.111452 0.0252842
0.119097 0.118517 0.0187839
0.14493 0.120027 0.00424201
0.171542 0.118761 0
0.201114 0.114076 0
0.235431 0.106065 0
0.264973 0.106737 0
0.298802 0.113787 0
0.337209 0.125399 0
0.379034 0.140337 0
0.423468 0.157885 0
0.470314 0.176593 0
0.520226 0.192782 0
0.571481 0.209644 0
0.62327 0.226947 0
0.674174 0.247028 0
0.724773 0.270207 0
0.775708 0.2934 0
0.828214 0.317281 0
0.882277 0.341665 0
0.939193 0.367056 0
0.999069 0.393423 0
1 0.421057 0
1 0.447425 0
1 0.468147 0
1 0.486091 0
1 0.502586 0
1 0.517464 0
1 0.530541 0
1 0.54023 0
0.11339 0.138781 0.0372473
0.112993 0.138369 0.0370489
0.112688 0.138079 0.0369726
0.12285 0.141909 0.0356756
0.145418 0.149355 0.0303807
0.166369 0.151095 0.0182803
0.18761 0.150835 0.0009308
0.210559 0.148714 0
0.240162 0.144106 0
0.275364 0.136461 0
0.304448 0.136919 0
0.337346 0.142916 0
0.374182 0.153506 0
0.413794 0.166888 0
0.456825 0.181903 0
0.503502 0.19588 0
0.551446 0.210788 0
0.600107 0.226291 0
0.64947 0.24242 0
0.697475 0.263005 0
0.744945 0.284459 0
0.793194 0.306294 0
0.842283 0.32845 0
0.893568 0.351415 0
0.946395 0.374884 0
1 0.399832 0
1 0.426444 0
1 0.45507 0
1 0.483375 0
1 0.502586 0
1 0.517479 0
1 0.530541 0
1 0.54023 0
0.143694 0.169436 0.0516365
0.143313 0.169039 0.0514229
0.142977 0.168704 0.0512398
0.153002 0.173175 0.0513008
0.173434 0.180774 0.0467689
0.191257 0.183032 0.0373846
0.208438 0.183215 0.0225681
0.226917 0.182239 0.00378424
0.248875 0.179889 0
0.279698 0.175494 0
0.315358 0.168292 0
0.344121 0.168627 0
0.375769 0.173907 0
0.410498 0.182925 0
0.450782 0.192554 0
0.49337 0.20383 0
0.537316 0.216159 0
0.582361 0.229435 0
0.628183 0.24329 0
0.673655 0.259403 0
0.717479 0.278477 0
0.761685 0.297993 0
0.806561 0.317952 0
0.852628 0.338491 0
0.899245 0.359121 0
0.948104 0.380621 0
0.999603 0.403052 0
1 0.426932 0
1 0.453208 0
1 0.482902 0
1 0.513405 0
1 0.530556 0
1 0.54023 0
0.17435 0.200519 0.0713664
0.174029 0.200183 0.0711376
0.173754 0.199908 0.0709392
0.18407 0.205203 0.0728466
0.202777 0.212818 0.068925
0.217868 0.215045 0.061387
0.232197 0.215671 0.0492714
0.247242 0.215167 0.0329442
0.263996 0.213855 0.0129397
0.28777 0.21178 0
0.319127 0.207706 0
0.355215 0.200809 0
0.385504 0.200458 0
0.418097 0.20351 0
0.453468 0.209354 0
0.491157 0.217288 0
0.530968 0.226917 0
0.571756 0.237537 0
0.613748 0.249073 0
0.655802 0.262531 0
0.695994 0.278828 0
0.736431 0.295659 0
0.777173 0.312917 0
0.818387 0.33048 0
0.8598 0.348241 0
0.902083 0.366354 0
0.945785 0.385229 0
0.991211 0.404715 0
1 0.425361 0
1 0.447669 0
1 0.472938 0
1 0.502312 0
1 0.533165 0
0.205142 0.231846 0.0967117
0.204883 0.231571 0.0964675
0.204654 0.231342 0.0962692
0.21529 0.237324 0.100008
0.232639 0.244938 0.0968032
0.245869 0.24741 0.0912184
0.258091 0.24828 0.0812695
0.270573 0.248127 0.0675059
0.283696 0.247257 0.050721
0.301823 0.246159 0.0275731
0.326741 0.244404 0
0.358083 0.241047 0
0.396201 0.234623 0
0.432197 0.230961 0
0.464118 0.232502 0
0.497368 0.236912 0
0.532616 0.243259 0
0.569696 0.251286 0
0.607569 0.260395 0
0.644312 0.272694 0
0.681392 0.28629 0
0.718456 0.300313 0
0.755581 0.314931 0
0.792859 0.329839 0
0.829801 0.344808 0
0.866987 0.35993 0
0.904448 0.375219 0
0.942245 0.390646 0
0.980987 0.406531 0
1 0.42327 0
1 0.441382 0
1 0.461036 0
1 0.482185 0
0.235721 0.263035 0.124437
0.235538 0.262837 0.1243
0.235401 0.262699 0.124178
0.246815 0.269566 0.129335
0.262837 0.276936 0.127932
0.274266 0.279301 0.123262
0.284642 0.280125 0.115923
0.295201 0.280262 0.105608
0.306004 0.27982 0.0920577
0.320302 0.279255 0.0734417
0.3402 0.278599 0.0477455
0.365866 0.277424 0.0155947
0.396582 0.275044 0
0.434943 0.269673 0
0.470863 0.266636 0
0.504936 0.266148 0
0.538354 0.268589 0
0.57174 0.27364 0
0.605432 0.281147 0
0.639567 0.290166 0
0.673808 0.300664 0
0.707912 0.311986 0
0.742123 0.324041 0
0.776181 0.336416 0
0.809842 0.349096 0
0.843168 0.361761 0
0.876036 0.374334 0
0.908446 0.38677 0
0.940627 0.399084 0
0.972702 0.411368 0
1 0.423819 0
1 0.436774 0
1 0.449485 0
0.266316 0.294255 0.152377
0.266163 0.294102 0.152255
0.266041 0.293965 0.152163
0.278386 0.301732 0.158495
0.292348 0.308034 0.156451
0.302556 0.310506 0.152605
0.311666 0.311528 0.147936
0.320836 0.311955 0.141283
0.330114 0.311849 0.132662
0.341878 0.311666 0.12015
0.35819 0.311543 0.100664
0.379324 0.311437 0.0732891
0.405402 0.310842 0.0408331
0.43566 0.309194 0.00688182
0.473899 0.304799 0
0.50956 0.302342 0
0.543191 0.301839 0
0.575814 0.303685 0
0.608072 0.307805 0
0.640391 0.313878 0
0.672282 0.321263 0
0.704372 0.330144 0
0.73608 0.339574 0
0.767712 0.349798 0
0.798596 0.360098 0
0.829084 0.370687 0
0.858839 0.381216 0
0.887633 0.391485 0
0.91548 0.401404 0
0.942336 0.410849 0
0.968719 0.420081 0
0.994308 0.429023 0
1 0.436591 0
0.296483 0.325063 0.180056
0.29633 0.32491 0.179919
0.296208 0.324788 0.179812
0.308751 0.332769 0.185489
0.32163 0.338766 0.184192
0.331014 0.341466 0.181079
0.339132 0.342626 0.178088
0.347189 0.343252 0.173648
0.355291 0.343511 0.168002
0.365438 0.343633 0.159564
0.379278 0.343893 0.146715
0.397147 0.344289 0.128603
0.419364 0.344579 0.103227
0.445701 0.344442 0.0705882
0.475807 0.343343 0.0366979
0.513588 0.3402 0
0.548547 0.338018 0
0.581704 0.337575 0
0.613626 0.339025 0
0.645151 0.342565 0
0.675959 0.347341 0
0.706233 0.353429 0
0.736324 0.360815 0
0.766049 0.368673 0
0.795041 0.377218 0
0.823545 0.385962 0
0.850889 0.394537 0
0.877287 0.403143 0
0.902388 0.411353 0
0.926131 0.419104 0
0.94873 0.426383 0
0.969787 0.433036 0
0.987182 0.438071 0
0.324941 0.354314 0.20528
0.324819 0.354192 0.205173
0.324727 0.354101 0.205081
0.33901 0.363592 0.212253
0.350805 0.369207 0.21146
0.359396 0.372045 0.208682
0.366766 0.373419 0.207034
0.374014 0.374258 0.204089
0.381231 0.374716 0.200183
0.39028 0.375158 0.194171
0.402411 0.375799 0.185199
0.41799 0.376516 0.172335
0.437232 0.377325 0.155047
0.460197 0.378012 0.132601
0.486702 0.378393 0.104723
0.516762 0.377935 0.0706951
0.553674 0.375219 0.0108186
0.588083 0.373556 0
0.620722 0.373236 0
0.652323 0.374746 0
0.682826 0.377371 0
0.712398 0.381338 0
0.741573 0.386664 0
0.769924 0.392523 0
0.797726 0.399298 0
0.824628 0.40618 0
0.850614 0.413443 0
0.875349 0.4206 0
0.898573 0.427314 0
0.920394 0.433814 0
0.940917 0.439902 0
0.959426 0.445258 0
0.973816 0.448875 0
0.353033 0.383215 0.230304
0.352926 0.383108 0.230228
0.354025 0.383719 0.230533
0.368978 0.393927 0.238392
0.379889 0.39939 0.238224
0.387793 0.402304 0.235676
0.394507 0.403845 0.234821
0.401129 0.404929 0.233066
0.407691 0.405615 0.230335
0.416007 0.406348 0.225971
0.427008 0.407233 0.219135
0.44094 0.408286 0.209537
0.458 0.409461 0.196689
0.478309 0.41062 0.180224
0.502083 0.411917 0.160372
0.52842 0.412558 0.136767
0.558175 0.412284 0.10631
0.594385 0.410208 0.0437629
0.628244 0.408972 0
0.660639 0.409094 0
0.691554 0.410086 0
0.721111 0.412329 0
0.749981 0.41593 0
0.777859 0.420111 0
0.804654 0.425116 0
0.830808 0.43064 0
0.85597 0.436576 0
0.879362 0.442267 0
0.901823 0.448142 0
0.92253 0.453696 0
0.941695 0.458762 0
0.958709 0.463172 0
0.971679 0.466224 0
0.380697 0.411673 0.255024
0.380621 0.411597 0.254948
0.384222 0.413962 0.256687
0.398962 0.424292 0.26453
0.408881 0.429358 0.264561
0.416129 0.432349 0.262394
0.422339 0.434012 0.261845
0.428412 0.435294 0.260822
0.434577 0.436271 0.259052
0.442481 0.437247 0.255634
0.452659 0.438346 0.250278
0.465385 0.439658 0.242756
0.480842 0.441138 0.232746
0.499184 0.442756 0.220035
0.520516 0.444434 0.204501
0.544366 0.445731 0.185901
0.570581 0.446662 0.16527
0.600259 0.446662 0.137881
0.635889 0.445335 0.0788891
0.669322 0.444526 0.0229343
0.701122 0.444419 0
0.731212 0.445365 0
0.760357 0.447593 0
0.788205 0.45037 0
0.814908 0.454032 0
0.840528 0.458244 0
0.864942 0.462684 0
0.888136 0.467613 0
0.909895 0.472511 0
0.929824 0.476997 0
0.948302 0.481453 0
0.96492 0.485481 0
0.976989 0.487953 0
0.407919 0.439719 0.279316
0.407858 0.439643 0.279255
0.414755 0.444907 0.283986
0.428855 0.454505 0.290318
0.437812 0.459236 0.290547
0.44448 0.46215 0.28893
0.450248 0.464042 0.288136
0.455863 0.465431 0.287633
0.46183 0.466651 0.286412
0.46949 0.467964 0.283848
0.479103 0.469306 0.279561
0.490898 0.470817 0.273472
0.505257 0.472663 0.265553
0.522057 0.474586 0.255314
0.541299 0.476417 0.242573
0.563119 0.478126 0.227222
0.587228 0.479637 0.209827
0.613397 0.480964 0.191531
0.643076 0.481361 0.166049
0.677867 0.480201 0.113893
0.710887 0.4795 0.0546426
0.741955 0.479652 0.00370794
0.771679 0.480797 0
0.799939 0.482429 0
0.826993 0.485145 0
0.852583 0.488106 0
0.876783 0.491524 0
0.899809 0.495506 0
0.921279 0.499413 0
0.940963 0.503349 0
0.959274 0.50721 0
0.97557 0.510765 0
0.987274 0.512886 0
0.434821 0.467445 0.303288
0.434775 0.467399 0.303243
0.445579 0.475944 0.310918
0.458686 0.484672 0.315816
0.466728 0.488975 0.315984
0.472862 0.491829 0.314839
0.478294 0.493935 0.313863
0.483482 0.49546 0.313787
0.489433 0.49691 0.31284
0.496941 0.498405 0.310704
0.506188 0.500008 0.307225
0.517388 0.501793 0.302251
0.5308 0.503838 0.295689
0.546212 0.505837 0.287037
0.563928 0.507927 0.276402
0.583932 0.510018 0.263661
0.606226 0.511925 0.248768
0.630777 0.513893 0.232685
0.656611 0.515236 0.215702
0.686198 0.515587 0.190448
0.720409 0.514717 0.142931
0.752941 0.514626 0.0882734
0.783337 0.514824 0.033875
0.812284 0.515633 0
0.839857 0.517449 0
0.865827 0.519493 0
0.89041 0.522271 0
0.913329 0.525231 0
0.934874 0.528466 0
0.954635 0.531716 0
0.972778 0.535058 0
0.988739 0.537911 0
1 0.539925 0
0.461646 0.495109 0.327077
0.461585 0.495064 0.327047
0.47686 0.50724 0.337407
0.488579 0.5149 0.340993
0.495583 0.518654 0.340932
0.501381 0.521569 0.340291
0.506462 0.523812 0.339055
0.511437 0.525505 0.339223
0.517449 0.527138 0.338476
0.524804 0.528801 0.33669
0.533944 0.5308 0.333989
0.54461 0.532708 0.329702
0.557046 0.534722 0.323934
0.571435 0.536858 0.316548
0.587884 0.539071 0.307408
0.606653 0.541527 0.29662
0.62742 0.543862 0.28394
0.650126 0.545907 0.269337
0.674403 0.547723 0.253727
0.699992 0.549203 0.237934
0.729931 0.54992 0.212848
0.763424 0.549294 0.168643
0.794858 0.549111 0.11989
0.824903 0.549538 0.0639963
0.85304 0.550515 0.0142977
0.879515 0.551843 0
0.904616 0.553979 0
0.92781 0.556161 0
0.949752 0.558892 0
0.969528 0.561471 0
0.987884 0.564355 0
1 0.566842 0
1 0.568643 0
0.487846 0.52221 0.350195
0.490501 0.524208 0.351736
0.508232 0.53846 0.36321
0.518257 0.544915 0.365621
0.52459 0.54844 0.365667
0.529915 0.551263 0.365286
0.534554 0.55346 0.364157
0.53962 0.555352 0.363912
0.545693 0.557153 0.363317
0.553079 0.559075 0.361868
0.561852 0.56112 0.359426
0.572 0.563134 0.355734
0.58378 0.56527 0.350759
0.597375 0.567529 0.344335
0.613062 0.570047 0.336492
0.630503 0.572549 0.32697
0.649775 0.574945 0.315694
0.670909 0.577295 0.302861
0.693858 0.579416 0.288502
0.718471 0.581628 0.273777
0.743801 0.583215 0.2589
0.773617 0.583581 0.232532
0.806287 0.583413 0.191455
0.837186 0.583459 0.146654
0.865995 0.583856 0.0954299
0.893233 0.584726 0.0426642
0.918929 0.586221 0
0.942626 0.587823 0
0.96495 0.590005 0
0.985046 0.592081 0
1 0.594553 0
1 0.596796 0
1 0.598352 0
0.513848 0.549126 0.373007
0.52311 0.557092 0.380011
0.539452 0.569574 0.388403
0.54789 0.574868 0.389822
0.553613 0.578195 0.389975
0.558465 0.580865 0.389715
0.562905 0.583062 0.388724
0.568093 0.585061 0.387945
0.574334 0.587137 0.387564
0.581582 0.589151 0.386267
0.589975 0.59118 0.384039
0.599695 0.593301 0.380774
0.610941 0.595483 0.376303
0.624109 0.598093 0.370886
0.638651 0.600534 0.363851
0.655039 0.603021 0.35523
0.673152 0.605554 0.34519
0.693095 0.608133 0.333715
0.714961 0.610697 0.320806
0.737926 0.612909 0.306813
0.762097 0.614893 0.292302
0.787366 0.616648 0.278126
0.81709 0.617258 0.251484
0.848722 0.617029 0.212131
0.87863 0.617136 0.170397
0.906935 0.617777 0.124895
0.932952 0.618601 0.073167
0.957549 0.62002 0.0261234
0.97998 0.621485 0
1 0.623224 0
1 0.625284 0
1 0.627451 0
1 0.628611 0
0.539635 0.57586 0.395453
0.556802 0.590585 0.407599
0.570153 0.600275 0.412711
0.577569 0.604959 0.413794
0.58262 0.60795 0.413901
0.58706 0.610437 0.413657
0.591592 0.612619 0.41236
0.596796 0.614664 0.411368
0.603067 0.616876 0.411078
0.61004 0.618845 0.409781
0.618158 0.620951 0.407782
0.627695 0.62324 0.404944
0.63859 0.62565 0.401144
0.650813 0.628 0.395972
0.664561 0.630488 0.389654
0.680079 0.633143 0.382086
0.697459 0.63592 0.373068
0.716197 0.638529 0.362615
0.736507 0.641062 0.35079
0.758389 0.643442 0.337621
0.781781 0.64596 0.324025
0.80589 0.647868 0.309758
0.830488 0.649531 0.296223
0.859953 0.649973 0.268528
0.890944 0.650095 0.231189
0.919676 0.650248 0.192279
0.946593 0.651011 0.152026
0.971481 0.65182 0.106996
0.994278 0.652934 0.0592355
1 0.654597 0.0187228
1 0.656077 0
1 0.657984 0
1 0.659236 0
0.568322 0.60502 0.419638
0.589929 0.623285 0.433478
0.600595 0.630747 0.4365
0.606912 0.634745 0.437247
0.611368 0.637339 0.437125
0.615854 0.639765 0.436545
0.620356 0.641932 0.43505
0.625772 0.644221 0.434363
0.631662 0.646128 0.433753
0.638468 0.648112 0.432532
0.646464 0.650324 0.430732
0.655619 0.652674 0.428199
0.665904 0.654948 0.424552
0.677531 0.657359 0.419959
0.69099 0.660121 0.414359
0.705592 0.662684 0.407385
0.721752 0.665339 0.39913
0.739559 0.667948 0.38941
0.759167 0.670863 0.378759
0.77995 0.67335 0.366552
0.801892 0.675731 0.353521
0.824842 0.677913 0.339925
0.848981 0.680095 0.326436
0.872953 0.681758 0.31368
0.902144 0.682063 0.284871
0.931853 0.682322 0.249699
0.959152 0.682673 0.214115
0.984543 0.683192 0.177249
1 0.684276 0.139208
1 0.685328 0.0980545
1 0.686839 0.0571908
1 0.688212 0.0229343
1 0.689403 0
0.604364 0.641138 0.449577
0.621729 0.654749 0.457664
0.630503 0.660746 0.459586
0.63595 0.664149 0.459922
0.640497 0.666712 0.459464
0.644755 0.66891 0.458473
0.649165 0.670939 0.456779
0.654398 0.67306 0.456306
0.660121 0.674937 0.45568
0.667018 0.67718 0.454734
0.674586 0.67924 0.452918
0.683207 0.681437 0.450446
0.693126 0.683757 0.44715
0.704479 0.686336 0.443
0.716915 0.688838 0.437736
0.730846 0.691356 0.431235
0.746517 0.694255 0.42385
0.763394 0.69688 0.414954
0.78172 0.699489 0.404822
0.801358 0.702068 0.393606
0.822705 0.704784 0.381476
0.844663 0.707088 0.368505
0.867521 0.709178 0.355093
0.890715 0.711055 0.342092
0.914488 0.712947 0.330175
0.943282 0.713146 0.300313
0.971115 0.713298 0.267277
0.997406 0.713924 0.234379
1 0.714504 0.201251
1 0.715663 0.16878
1 0.716701 0.1355
1 0.718166 0.101915
1 0.718929 0.0751507
0.639689 0.675792 0.476478
0.652522 0.685298 0.480766
0.6598 0.690089 0.481788
0.664958 0.693111 0.481376
0.669505 0.695583 0.480659
0.673472 0.697475 0.479225
0.678004 0.699611 0.477836
0.68275 0.70132 0.477485
0.688426 0.703288 0.476921
0.694896 0.705272 0.475792
0.702144 0.707286 0.474052
0.710719 0.709697 0.471916
0.720104 0.711894 0.468788
0.730694 0.714199 0.464759
0.74284 0.716793 0.459953
0.7561 0.719341 0.454047
0.770748 0.721859 0.446876
0.786755 0.724453 0.438666
0.804578 0.727321 0.429389
0.823316 0.729915 0.418906
0.843381 0.732387 0.407279
0.864515 0.734874 0.395056
0.886687 0.737255 0.382239
0.909041 0.739284 0.36936
0.931777 0.74107 0.356817
0.954559 0.742977 0.345815
0.982773 0.743099 0.315068
1 0.743297 0.283986
1 0.743999 0.253834
1 0.744656 0.22446
1 0.745785 0.196277
1 0.746777 0.168795
1 0.747738 0.14873
0.672236 0.707668 0.500359
0.682063 0.714611 0.502571
0.688746 0.718669 0.502449
0.693675 0.721309 0.501457
0.697978 0.723537 0.500328
0.701854 0.725383 0.498848
0.70602 0.727108 0.4981
0.710719 0.728832 0.497765
0.716091 0.730617 0.497047
