luts/Bat-CLog3.cube
TITLE "Generated by Resolve"
LUT_3D_SIZE 5
0.024094 0.0297398 0.0202182
0.217762 0.0399786 0
0.634928 0.207019 0
1 0.405737 0
1 0.54023 0
0.11339 0.138781 0.0372473
0.240162 0.144106 0
0.551446 0.210788 0
0.946395 0.374884 0
1 0.54023 0
0.353033 0.383215 0.230304
0.407691 0.405615 0.230335
0.558175 0.412284 0.10631
0.804654 0.425116 0
0.971679 0.466224 0
0.568322 0.60502 0.419638
0.631662 0.646128 0.433753
0.721752 0.665339 0.39913
0.902144 0.682063 0.284871
1 0.689403 0
0.796384 0.823621 0.575265
0.827131 0.833997 0.569314
0.891569 0.847761 0.543908
1 0.865736 0.470542
1 0.877119 0.372366
0.0474708 0.110628 0.186603
0.140307 0.131975 0.228107
0.605905 0.217227 0.0830091
1 0.41001 0
1 0.544671 0
0 0.169223 0.207141
0.162509 0.177829 0.179187
0.520073 0.25069 0.0989853
0.924712 0.401846 0
1 0.547448 0
0.350927 0.381048 0.228443
0.40415 0.403113 0.228748
0.555871 0.409674 0.102159
0.803815 0.423117 0
0.971618 0.46482 0
0.564508 0.601694 0.417014
0.629725 0.64506 0.433433
0.720531 0.664607 0.398932
0.901564 0.681453 0.284321
1 0.688823 0
0.794995 0.823011 0.575952
0.826123 0.833677 0.569512
0.891051 0.847715 0.544244
1 0.865705 0.47068
1 0.877119 0.372366
0.152178 0.313695 0.483192
0.205554 0.321401 0.48426
0.457527 0.397803 0.586557
0.962127 0.454124 0.46981
1 0.546944 0.353048
0.119707 0.293217 0.44036
0.189364 0.30312 0.439399
0.434318 0.381353 0.533684
0.950713 0.449836 0.45716
1 0.545678 0.337407
0.105043 0.433433 0.493889
0.241779 0.459648 0.509499
0.463584 0.478264 0.483253
0.721675 0.515801 0.450935
0.908629 0.549294 0.420844
0.557626 0.613519 0.476814
0.622461 0.65977 0.504005
0.718776 0.686366 0.473533
0.899001 0.70779 0.402152
1 0.718257 0.259632
0.789532 0.820264 0.577707
0.822583 0.83267 0.570306
0.889128 0.84744 0.545296
1 0.865629 0.471168
1 0.877119 0.372366
0.278218 0.516503 0.779065
0.278218 0.516503 0.779065
0.466194 0.570794 0.837842
0.774899 0.657801 0.909483
1 0.727565 0.870756
0.277424 0.515236 0.777203
0.277424 0.515236 0.777203
0.46656 0.56997 0.836912
0.775494 0.657176 0.907179
1 0.726223 0.867994
0.197223 0.478492 0.660624
0.197879 0.47808 0.66009
0.432334 0.512657 0.631769
0.63772 0.578698 0.705867
0.830518 0.621866 0.700893
0.323369 0.687556 0.765667
0.37702 0.721843 0.799023
0.56025 0.758221 0.812268
0.774105 0.787305 0.795163
0.947295 0.814817 0.784833
0.665293 0.864179 0.816007
0.72488 0.891096 0.837705
0.807874 0.909926 0.832029
0.953094 0.930983 0.795743
1 0.947585 0.776364
0.349264 0.631174 0.946334
0.349264 0.631174 0.946334
0.438056 0.645777 0.94966
0.740764 0.730892 1
0.992493 0.808606 1
0.349264 0.631174 0.946334
0.349264 0.631174 0.946334
0.439246 0.646097 0.949874
0.741009 0.730938 1
0.992538 0.808621 1
0.304616 0.570718 0.84921
0.306035 0.572549 0.85211
0.402914 0.575555 0.832029
0.710246 0.694667 1
0.992691 0.808652 1
0.291615 0.706645 0.885756
0.291524 0.706477 0.885649
0.486076 0.758877 0.907637
0.749111 0.79649 0.873167
0.890242 0.842054 0.923506
0.46154 0.90016 0.998077
0.46154 0.90016 0.998077
0.647303 0.968658 1
0.846189 0.987213 1
0.995193 1 1
