luts/Bat-CLog2.cube
TITLE "Generated by Resolve"
LUT_3D_SIZE 9
0.0389258 0.0444343 0.0366369
0.0722972 0.0453346 0.0305943
0.163668 0.0511788 0.0107118
0.33341 0.091722 0
0.562142 0.188373 0
0.818845 0.303502 0
1 0.415457 0
1 0.498711 0
1 0.542168 0
0.0552987 0.0631571 0.0353399
0.0875868 0.0641031 0.0180972
0.169055 0.0619211 0
0.326345 0.0992599 0
0.553872 0.188586 0
0.816358 0.30428 0
1 0.41445 0
1 0.498009 0
1 0.541619 0
0.101671 0.110796 0.0227512
0.129885 0.113985 0.0108949
0.19443 0.108095 0
0.312154 0.114946 0
0.512276 0.188128 0
0.757534 0.28484 0
1 0.405264 0
1 0.49662 0
1 0.54052 0
0.204944 0.220752 0.0807355
0.221622 0.225055 0.0739452
0.252445 0.22594 0.0459144
0.333379 0.218173 0
0.482872 0.221012 0
0.671748 0.272984 0
0.859953 0.350759 0
1 0.430335 0
1 0.516091 0
0.338384 0.359121 0.20531
0.348669 0.363134 0.201678
0.365774 0.365957 0.196735
0.401419 0.367437 0.170672
0.506371 0.36875 0.0605783
0.666087 0.367285 0
0.803998 0.394842 0
0.912474 0.426703 0
0.976104 0.445365 0
0.478645 0.502708 0.329
0.485237 0.505989 0.328298
0.497093 0.51075 0.327016
0.524163 0.516579 0.319707
0.590417 0.52575 0.284138
0.708812 0.533165 0.20177
0.853941 0.534768 0
0.954681 0.5458 0
1 0.554726 0
0.617487 0.644388 0.443549
0.621927 0.646754 0.442863
0.632731 0.651759 0.440406
0.657389 0.65919 0.436149
0.708598 0.669779 0.415702
0.79707 0.682628 0.367529
0.913481 0.690593 0.289052
1 0.693294 0.135286
1 0.697444 0.0193027
0.740536 0.765408 0.529686
0.744091 0.766812 0.528603
0.752972 0.770016 0.527855
0.773526 0.775998 0.523354
0.815747 0.78529 0.507515
0.888243 0.797269 0.470771
0.983063 0.808026 0.415671
1 0.813733 0.347311
1 0.815946 0.276967
0.811902 0.829465 0.572488
0.814954 0.830472 0.572
0.822171 0.832547 0.570413
0.839933 0.837263 0.565469
0.877028 0.845075 0.550652
0.941985 0.855726 0.517586
1 0.866361 0.467491
1 0.874189 0.423713
1 0.877119 0.372366
0.039704 0.052903 0.0623636
0.0579232 0.0560616 0.0702068
0.149767 0.0616312 0.0585031
0.330236 0.0911421 0.00497444
0.557595 0.188174 0
0.810025 0.308705 0
1 0.421637 0
1 0.502937 0
1 0.545495 0
0.0273747 0.0733349 0.082475
0.0643473 0.0740978 0.0700847
0.149416 0.0773632 0.0525216
0.314351 0.115801 0.0162966
0.542443 0.203159 0
0.806332 0.313176 0
1 0.420584 0
1 0.50222 0
1 0.54493 0
0.0845808 0.119524 0.0720684
0.114214 0.122423 0.0588235
0.176196 0.121141 0.0208438
0.314366 0.121279 0
0.512551 0.192081 0
0.750835 0.294408 0
1 0.411322 0
1 0.500237 0
1 0.543359 0
0.20354 0.21976 0.0804303
0.220417 0.224262 0.07364
0.25153 0.225238 0.0456245
0.332937 0.217334 0
0.482521 0.220554 0
0.672053 0.272923 0
0.860639 0.350912 0
1 0.430854 0
1 0.51722 0
0.337636 0.358618 0.205066
0.348058 0.362722 0.201511
0.365347 0.365667 0.196567
0.400992 0.367117 0.170489
0.506065 0.368429 0.0601053
0.665949 0.366964 0
0.803937 0.394629 0
0.91249 0.426535 0
0.976196 0.445243 0
0.47834 0.502541 0.32903
0.484901 0.505776 0.328237
0.49691 0.510658 0.326986
0.523964 0.516487 0.319707
0.590219 0.525612 0.284077
0.70869 0.533013 0.201617
0.853849 0.53463 0
0.954604 0.545678 0
1 0.55462 0
0.617258 0.644236 0.443503
0.621698 0.646616 0.442863
0.632517 0.651652 0.440375
0.657221 0.659113 0.436149
0.708461 0.669703 0.415702
0.796979 0.682567 0.367514
0.91342 0.690532 0.289006
1 0.693233 0.13518
1 0.697398 0.0191653
0.740353 0.765316 0.529732
0.743969 0.766766 0.528634
0.752865 0.769985 0.527886
0.773404 0.775937 0.523369
0.815656 0.78526 0.50753
0.888167 0.797238 0.470771
0.983017 0.807996 0.415656
1 0.813703 0.347295
1 0.815915 0.276921
0.811795 0.829404 0.572473
0.814847 0.830442 0.57203
0.822065 0.832517 0.570428
0.839857 0.837217 0.565469
0.876967 0.84506 0.550683
0.941939 0.855726 0.517601
1 0.866361 0.467506
1 0.874174 0.423728
1 0.877119 0.372366
0.0463111 0.0817731 0.131807
0.0646067 0.0856641 0.132311
0.111315 0.0968948 0.166598
0.304555 0.121019 0.133959
0.548531 0.184695 0.0122988
0.800916 0.304387 0
1 0.419608 0
1 0.504585 0
1 0.548684 0
0.042237 0.0912947 0.135988
0.0643931 0.0958724 0.134295
0.115023 0.108034 0.158434
0.306233 0.12726 0.121935
0.538491 0.200763 0.0312657
0.799191 0.307713 0
1 0.419898 0
1 0.504936 0
1 0.54902 0
0.00573739 0.139986 0.169253
0.0450904 0.143053 0.164584
0.128664 0.143099 0.143267
0.276768 0.158434 0.111131
0.485893 0.2215 0.0601968
0.730236 0.314137 0
1 0.420111 0
1 0.505837 0
1 0.54995 0
0.170718 0.231144 0.168826
0.196262 0.232822 0.170291
0.230625 0.237415 0.146746
0.307805 0.237263 0.0958724
0.476661 0.241413 0
0.658564 0.295735 0
0.845258 0.367468 0
1 0.44242 0
1 0.527077 0
0.335851 0.357473 0.204791
0.346456 0.361654 0.201282
0.364141 0.364813 0.196002
0.399939 0.366384 0.170108
0.505348 0.367559 0.058732
0.665614 0.36614 0
0.803723 0.394049 0
0.91252 0.426108 0
0.976455 0.444923 0
0.477348 0.501884 0.328771
0.484215 0.505394 0.328283
0.496269 0.510246 0.326711
0.523339 0.516136 0.319631
0.58967 0.525261 0.28394
0.70837 0.532662 0.201221
0.853635 0.534279 0
0.954421 0.545357 0
1 0.554314 0
0.616648 0.643809 0.443412
0.621118 0.646235 0.442832
0.632013 0.651347 0.440269
0.656764 0.658885 0.436118
0.70811 0.66952 0.415702
0.796735 0.682414 0.367453
0.913268 0.690364 0.288853
1 0.69308 0.134905
1 0.697246 0.0188144
0.739895 0.765057 0.529839
0.743648 0.766674 0.528679
0.752514 0.769848 0.527916
0.773068 0.775799 0.523384
0.815396 0.785153 0.507561
0.887999 0.797147 0.470771
0.98291 0.807919 0.415625
1 0.813657 0.34725
1 0.815839 0.276799
0.81149 0.829297 0.572519
0.814542 0.83035 0.572091
0.821775 0.832441 0.570504
0.839612 0.837171 0.565545
0.876799 0.845029 0.550759
0.941833 0.855711 0.517662
1 0.866361 0.467536
1 0.874174 0.423743
1 0.877119 0.372366
0.0711681 0.163027 0.261006
0.0875257 0.165301 0.260212
0.129412 0.174624 0.271901
0.233433 0.202472 0.324285
0.494697 0.247837 0.284916
0.783948 0.308034 0.149752
1 0.414374 0
1 0.49688 0
1 0.5402 0
0.0673686 0.164355 0.257115
0.0860914 0.168154 0.257557
0.133867 0.178622 0.264973
0.237964 0.209735 0.321859
0.497139 0.252918 0.284703
0.784405 0.307698 0.144152
1 0.414374 0
1 0.496971 0
1 0.540307 0
0.0515145 0.17438 0.254276
0.0755169 0.178653 0.253346
0.129015 0.185245 0.249393
0.227131 0.211536 0.292668
0.471595 0.247547 0.253605
0.728557 0.316762 0.172229
1 0.416052 0.0127871
1 0.497246 0
1 0.540642 0
0.00537118 0.255589 0.300374
0.0491951 0.261326 0.301472
0.13257 0.26421 0.294362
0.248142 0.264408 0.26775
0.423484 0.282994 0.235233
0.619684 0.331411 0.196139
0.815106 0.392477 0.143206
1 0.457664 0.0483558
1 0.532448 0
0.294118 0.36968 0.297032
0.31313 0.372763 0.30341
0.338491 0.377111 0.302251
0.380209 0.385306 0.279911
0.482155 0.393912 0.246326
0.650385 0.400671 0.133104
0.78996 0.428183 0.0564126
0.897642 0.457649 0.0157473
0.95906 0.474174 0
0.47422 0.499718 0.327794
0.481697 0.5037 0.327749
0.494469 0.509041 0.325933
0.521538 0.515053 0.319188
0.58822 0.524239 0.283436
0.7075 0.53167 0.200107
0.852964 0.533349 0
0.953887 0.544472 0
1 0.553491 0
0.614969 0.642634 0.443061
0.619745 0.645441 0.442939
0.630579 0.650538 0.439948
0.655528 0.658244 0.435981
0.707134 0.669032 0.415671
0.796048 0.681987 0.36733
0.912871 0.689952 0.288487
1 0.692668 0.134096
1 0.696864 0.0178378
0.738613 0.76434 0.530083
0.74258 0.766201 0.528618
0.751431 0.769345 0.52784
0.772152 0.775433 0.523445
0.814694 0.784863 0.507652
0.88751 0.796918 0.470802
0.982605 0.807721 0.415564
1 0.813504 0.347112
1 0.815656 0.276493
0.81062 0.829007 0.572656
0.813718 0.830045 0.572183
0.821027 0.832181 0.570611
0.838972 0.837003 0.565759
0.876371 0.844892 0.550881
0.941527 0.855665 0.51783
1 0.866331 0.467643
1 0.874174 0.423774
1 0.877119 0.372366
0.129824 0.277958 0.431067
0.137591 0.278874 0.430869
0.174685 0.283604 0.430655
0.248646 0.30898 0.467567
0.40824 0.353567 0.525734
0.686366 0.416358 0.491829
0.990982 0.436423 0.37084
1 0.502586 0.296147
1 0.540963 0.256153
0.129335 0.277241 0.429831
0.137377 0.278141 0.429603
0.174624 0.282933 0.429557
0.248539 0.308339 0.466789
0.40856 0.353155 0.524239
0.687709 0.415244 0.489815
0.991241 0.436103 0.368795
1 0.502449 0.294011
1 0.540871 0.253925
0.108476 0.267643 0.406119
0.122026 0.27068 0.407614
0.165118 0.276509 0.406668
0.243442 0.298604 0.429755
0.39852 0.34966 0.499107
0.67248 0.413001 0.479591
0.991913 0.435233 0.36347
1 0.502068 0.288426
1 0.540642 0.24799
0.0689097 0.289662 0.411032
0.0952926 0.294453 0.411185
0.155947 0.295781 0.397436
0.239567 0.30425 0.386389
0.364324 0.337972 0.43386
0.585748 0.377859 0.407324
0.816968 0.408591 0.348852
1 0.471031 0.308339
1 0.540078 0.231678
0.0819867 0.397559 0.454643
0.129793 0.407294 0.461723
0.197604 0.415732 0.463828
0.278676 0.420615 0.456977
0.415091 0.430167 0.434745
0.57937 0.449958 0.413108
0.731685 0.479042 0.390524
0.850584 0.503334 0.369863
0.920913 0.513375 0.351781
0.417288 0.520836 0.458289
0.428122 0.527794 0.464851
0.444694 0.536599 0.471565
0.484092 0.54464 0.477791
0.559869 0.561379 0.455222
0.672679 0.57763 0.438376
0.825696 0.587274 0.367758
0.929473 0.601968 0.332433
0.984131 0.612345 0.319646
0.610422 0.639414 0.442039
0.61532 0.64242 0.442283
0.626841 0.648447 0.439979
0.652171 0.65655 0.435737
0.704829 0.667979 0.415839
0.794186 0.680858 0.367025
0.911971 0.688975 0.287572
1 0.691539 0.131884
1 0.695827 0.0154574
0.735103 0.762325 0.530724
0.739208 0.76437 0.529335
0.748455 0.767971 0.527687
0.769665 0.77435 0.523537
0.812787 0.784085 0.507881
0.886198 0.796307 0.470878
0.981765 0.807187 0.415381
1 0.813046 0.346731
1 0.815152 0.275639
0.808225 0.828183 0.5729
0.811444 0.829282 0.572519
0.818936 0.831556 0.571099
0.837217 0.836561 0.566293
0.875074 0.844648 0.551461
0.940719 0.855543 0.518288
1 0.866285 0.467903
1 0.874144 0.42388
1 0.877119 0.372366
0.209262 0.405341 0.616892
0.209262 0.405341 0.616892
0.221424 0.406302 0.615808
0.286625 0.420249 0.623743
0.408438 0.464118 0.694286
0.604028 0.518029 0.736202
0.841794 0.585168 0.714137
1 0.581353 0.63418
1 0.581888 0.579217
0.209064 0.40502 0.616419
0.209064 0.40502 0.616419
0.221469 0.405997 0.61532
0.286702 0.42002 0.623362
0.408469 0.463874 0.69398
0.604166 0.517861 0.735607
0.842222 0.584848 0.713405
1 0.58085 0.633234
1 0.581704 0.578454
0.208545 0.404196 0.615213
0.208545 0.404196 0.615213
0.221607 0.405219 0.614038
0.286915 0.419425 0.622339
0.408545 0.463188 0.693156
0.604517 0.517433 0.734035
0.843336 0.584024 0.711498
1 0.579553 0.630732
1 0.581247 0.576486
0.160769 0.365576 0.540322
0.160845 0.365606 0.540398
0.186007 0.370703 0.541009
0.253956 0.375677 0.53077
0.363577 0.406683 0.570565
0.533623 0.465278 0.629557
0.751431 0.534737 0.6374
1 0.575097 0.624201
1 0.57998 0.570977
0.127459 0.430915 0.584283
0.127504 0.430854 0.584237
0.184573 0.440269 0.582315
0.27892 0.438743 0.54992
0.398474 0.456138 0.536553
0.521324 0.491386 0.582559
0.679515 0.526619 0.570733
0.841352 0.527703 0.537118
0.920043 0.532341 0.520211
0.215213 0.546242 0.613886
0.231678 0.553918 0.620966
0.286625 0.574487 0.638163
0.35465 0.58761 0.643687
0.465446 0.600961 0.63946
0.604181 0.618082 0.624323
0.746548 0.637995 0.612329
0.855451 0.656687 0.600824
0.915892 0.667399 0.59498
0.505028 0.682567 0.647837
0.514031 0.689082 0.654398
0.532265 0.698802 0.663447
0.573159 0.710094 0.670359
0.641627 0.723705 0.669184
0.740124 0.742397 0.648386
0.847089 0.758846 0.639963
0.966293 0.768597 0.597436
1 0.776471 0.582269
0.719707 0.779126 0.626078
0.724453 0.781521 0.62623
0.735744 0.786862 0.625376
0.760571 0.796826 0.617487
0.806439 0.810559 0.600244
0.879606 0.824216 0.57673
0.974395 0.837003 0.541634
1 0.844388 0.503334
1 0.847822 0.459754
0.802136 0.826078 0.573632
0.805478 0.827314 0.573327
0.813626 0.830014 0.572198
0.832609 0.835325 0.56759
0.871885 0.844053 0.552926
0.938598 0.855238 0.519448
1 0.866163 0.468559
1 0.874098 0.42417
1 0.877119 0.372366
0.281804 0.522286 0.787503
0.281804 0.522286 0.787503
0.281804 0.522286 0.787503
0.311925 0.523705 0.783475
0.432654 0.562036 0.81915
0.587961 0.607691 0.907729
0.785031 0.665385 0.917967
0.95903 0.703395 0.912932
1 0.733608 0.88336
0.281712 0.522148 0.787305
0.281712 0.522148 0.787305
0.281727 0.522164 0.78732
0.312001 0.523598 0.783291
0.43267 0.561959 0.819059
0.587976 0.607584 0.907591
0.785092 0.665324 0.917739
0.959136 0.703243 0.912764
1 0.733471 0.883085
0.281514 0.521828 0.786831
0.281514 0.521828 0.786831
0.281514 0.521828 0.786831
0.3122 0.523323 0.782834
0.432746 0.561746 0.818845
0.588037 0.607294 0.90724
0.785245 0.665156 0.917144
0.959472 0.702846 0.912367
1 0.733135 0.882368
0.280217 0.519417 0.782483
0.280278 0.519509 0.782666
0.280415 0.519738 0.783078
0.312657 0.521965 0.779965
0.43299 0.561196 0.818235
0.588205 0.606516 0.906279
0.785657 0.664714 0.91548
0.959945 0.702205 0.910994
1 0.732189 0.880415
0.201663 0.455955 0.64686
0.201663 0.455909 0.64683
0.201678 0.455817 0.646784
0.259464 0.462745 0.635019
0.380179 0.479759 0.623972
0.497887 0.514931 0.676677
0.637446 0.562966 0.713024
0.762097 0.591287 0.725093
0.842893 0.617243 0.721767
0.206867 0.574166 0.736889
0.206851 0.574136 0.736873
0.206806 0.57406 0.736828
0.305013 0.602014 0.748684
0.456046 0.6112 0.716533
0.587549 0.63534 0.705806
0.695689 0.668086 0.749157
0.796414 0.696315 0.749065
0.873899 0.703243 0.740261
0.329244 0.696101 0.774975
0.329229 0.696086 0.77496
0.357229 0.716701 0.79559
0.429892 0.746502 0.820661
0.532891 0.763302 0.823651
0.65684 0.779751 0.818173
0.7841 0.797208 0.805158
0.889357 0.812726 0.799237
0.949264 0.823377 0.795514
0.526421 0.82443 0.828672
0.535729 0.831693 0.836011
0.555779 0.842618 0.846098
0.596445 0.855192 0.854688
0.669551 0.866529 0.856382
0.778225 0.875441 0.848692
0.88426 0.891661 0.827268
0.965713 0.903944 0.824887
1 0.910094 0.805997
0.685405 0.88716 0.845365
0.691386 0.889387 0.847059
0.705196 0.893416 0.849546
0.735576 0.899809 0.851698
0.788785 0.908293 0.849226
0.866453 0.917159 0.841138
0.953079 0.934859 0.809659
1 0.945266 0.799146
1 0.950912 0.792996
0.332723 0.604471 0.907378
0.332723 0.604471 0.907378
0.332723 0.604471 0.907378
0.332723 0.604471 0.907378
0.424063 0.620447 0.912291
0.588952 0.677623 0.99556
0.759472 0.709102 1
0.917052 0.766888 1
1 0.790616 1
0.332692 0.604425 0.907301
0.332692 0.604425 0.907301
0.332692 0.604425 0.907301
0.332692 0.604425 0.907301
0.42414 0.620432 0.912245
0.588983 0.677592 0.995529
0.759503 0.709072 1
0.917082 0.766857 1
1 0.790585 1
0.332616 0.604288 0.907118
0.332616 0.604288 0.907118
0.332616 0.604288 0.907118
0.332616 0.604288 0.907118
0.424338 0.620386 0.912139
0.589075 0.677516 0.995453
0.759564 0.708949 1
0.917128 0.766796 1
1 0.790494 1
0.332387 0.603937 0.9066
0.332387 0.603937 0.9066
0.332387 0.603937 0.9066
0.332387 0.603937 0.9066
0.425086 0.620371 0.911894
0.589258 0.677287 0.995209
0.759747 0.708644 1
0.917296 0.766598 1
1 0.790219 1
0.266239 0.520165 0.768292
0.266331 0.520256 0.768444
0.26659 0.520485 0.768856
0.267185 0.521111 0.769985
0.366796 0.519112 0.737346
0.502907 0.561028 0.797223
0.660548 0.613382 0.889784
0.853697 0.714961 0.953628
1 0.789502 1
0.245136 0.577264 0.773205
0.245121 0.577234 0.773175
0.245106 0.577142 0.773083
0.245075 0.576883 0.772854
0.422675 0.605234 0.750423
0.565332 0.636881 0.750774
0.671565 0.670634 0.806821
0.76968 0.705119 0.827588
0.829282 0.721599 0.832486
0.295552 0.714137 0.866499
0.295552 0.714122 0.866484
0.295521 0.714076 0.866468
0.319463 0.731441 0.883314
0.480522 0.773632 0.906157
0.646784 0.787457 0.878676
0.772412 0.808911 0.86331
0.85211 0.832593 0.89575
0.909239 0.847791 0.900221
0.413352 0.822263 0.911131
0.413352 0.822248 0.911116
0.413321 0.822232 0.911116
0.480095 0.868116 0.956252
0.587533 0.890089 0.965713
0.707958 0.904738 0.960555
0.824582 0.918914 0.951415
0.920058 0.931594 0.939986
0.976944 0.94078 0.93904
0.500557 0.883207 0.933425
0.505486 0.888411 0.938933
0.539178 0.919051 0.970642
0.591409 0.938766 0.986313
0.669917 0.951827 0.9888
0.769314 0.962249 0.982101
0.872541 0.97258 0.971542
0.968307 0.979919 0.958801
1 0.988418 0.953704
0.349264 0.631174 0.946334
0.349264 0.631174 0.946334
0.349264 0.631174 0.946334
0.349264 0.631174 0.946334
0.390326 0.6327 0.940124
0.57818 0.695216 1
0.751064 0.732387 1
0.906172 0.780194 1
0.992508 0.808606 1
0.349264 0.631174 0.946334
0.349264 0.631174 0.946334
0.349264 0.631174 0.946334
0.349264 0.631174 0.946334
0.390448 0.632731 0.940139
0.578241 0.695232 1
0.751095 0.732387 1
0.906188 0.780194 1
0.992523 0.808606 1
0.349264 0.631174 0.946334
0.349264 0.631174 0.946334
0.349264 0.631174 0.946334
0.349264 0.631174 0.946334
0.390753 0.632792 0.940185
0.578363 0.695277 1
0.751156 0.732387 1
0.906218 0.780209 1
0.992523 0.808606 1
0.349264 0.631174 0.946334
0.349264 0.631174 0.946334
0.349264 0.631174 0.946334
0.349264 0.631174 0.946334
0.391516 0.632959 0.940261
0.578744 0.695384 1
0.751324 0.732418 1
0.90631 0.78024 1
0.992569 0.808621 1
0.349264 0.631174 0.946334
0.349264 0.631174 0.946334
0.349264 0.631174 0.946334
0.349264 0.631174 0.946334
0.393698 0.633433 0.940551
0.579736 0.695705 1
0.751797 0.732479 1
0.906554 0.780331 1
0.99266 0.808652 1
0.253819 0.559518 0.765301
0.253803 0.559487 0.76527
0.253788 0.559396 0.765179
0.253742 0.559136 0.764965
0.359472 0.578866 0.75259
0.535607 0.61651 0.752621
0.648539 0.653758 0.815869
0.749523 0.689174 0.846403
0.809033 0.709178 0.849134
0.295674 0.714717 0.890974
0.295674 0.714702 0.890974
0.295644 0.714656 0.890944
0.295598 0.714549 0.890883
0.431281 0.763867 0.924269
0.633417 0.780362 0.887221
0.760784 0.806516 0.880018
0.839719 0.829694 0.921691
0.894911 0.849515 0.927825
0.38587 0.830167 0.95787
0.38587 0.830167 0.957855
0.385855 0.830152 0.957855
0.385794 0.830091 0.957824
0.528542 0.892683 1
0.677653 0.910597 1
0.815747 0.923598 0.986954
0.914137 0.93669 0.967971
0.958007 0.949218 0.985245
0.46154 0.90016 0.998077
0.46154 0.90016 0.998077
0.46154 0.90016 0.998077
0.489204 0.926741 1
0.61503 0.96466 1
0.737865 0.977142 1
0.852354 0.987716 1
0.940444 0.997742 1
0.995193 1 1
