luts/Bat-LogC4.cube
TITLE "Generated by Resolve"
LUT_3D_SIZE 33
0.0249638 0.0301823 0.0204929
0.0302739 0.0300298 0.0179294
0.0357671 0.0305791 0.0179904
0.0511788 0.0302586 0.013901
0.0756847 0.0302434 0.00704967
0.109987 0.0303807 0
0.156893 0.0331426 0
0.212757 0.040177 0
0.276509 0.052842 0
0.347509 0.0744945 0
0.423499 0.106767 0
0.503456 0.146624 0
0.586297 0.186938 0
0.66894 0.227375 0
0.751354 0.267948 0
0.831403 0.307836 0
0.907317 0.346014 0
0.977615 0.382147 0
1 0.414939 0
1 0.443885 0
1 0.468513 0
1 0.488899 0
1 0.50515 0
1 0.517906 0
1 0.526772 0
1 0.533333 0
1 0.538094 0
1 0.54168 0
1 0.544091 0
1 0.545953 0
1 0.547143 0
1 0.548089 0
1 0.548775 0
0.0235142 0.032639 0.021973
0.0298772 0.0319677 0.0193027
0.0356451 0.0319066 0.0176699
0.0497597 0.0323491 0.014435
0.0753796 0.0328222 0.00808728
0.110369 0.0330053 0
0.157473 0.0350652 0
0.213535 0.0413672 0
0.277073 0.0539864 0
0.347646 0.0748302 0
0.423514 0.106752 0
0.503456 0.146624 0
0.586313 0.186923 0
0.668956 0.227375 0
0.751354 0.267948 0
0.831418 0.30782 0
0.907317 0.345998 0
0.97763 0.382147 0
1 0.414939 0
1 0.443885 0
1 0.468513 0
1 0.488899 0
1 0.50515 0
1 0.517906 0
1 0.526772 0
1 0.533333 0
1 0.538109 0
1 0.54168 0
1 0.544091 0
1 0.545953 0
1 0.547143 0
1 0.548089 0
1 0.548791 0
0.0269474 0.035996 0.0216068
0.0328527 0.0355688 0.0196384
0.0380865 0.0357061 0.0171817
0.0529335 0.0347906 0.0122377
0.0764935 0.035462 0.00708019
0.11104 0.0361181 0
0.158007 0.0389868 0
0.214145 0.0460365 0
0.277668 0.0591897 0
0.348348 0.0807202 0
0.424079 0.112306 0
0.503609 0.148898 0
0.586328 0.186923 0
0.668971 0.227359 0
0.751369 0.267933 0
0.831434 0.307805 0
0.907332 0.345998 0
0.977646 0.382132 0
1 0.414923 0
1 0.44387 0
1 0.468513 0
1 0.488899 0
1 0.50515 0
1 0.517906 0
1 0.526787 0
1 0.533333 0
1 0.538109 0
1 0.54168 0
1 0.544106 0
1 0.545953 0
1 0.547143 0
1 0.548104 0
1 0.548791 0
0.0327611 0.0433204 0.0217746
0.0387884 0.0426032 0.0201114
0.0437171 0.043473 0.0175174
0.0584878 0.0431678 0.00949111
0.0840009 0.0408637 0.00210575
0.115251 0.0412604 0
0.15845 0.0443732 0
0.212879 0.0520027 0
0.2757 0.0657816 0
0.346212 0.0879683 0
0.422309 0.119997 0
0.502541 0.155657 0
0.585641 0.191257 0
0.668544 0.229099 0
0.7514 0.267918 0
0.831464 0.307805 0
0.907362 0.345983 0
0.977676 0.382132 0
1 0.414923 0
1 0.44387 0
1 0.468498 0
1 0.488899 0
1 0.50515 0
1 0.517891 0
1 0.526787 0
1 0.533333 0
1 0.538109 0
1 0.541695 0
1 0.544106 0
1 0.545968 0
1 0.547143 0
1 0.548104 0
1 0.548791 0
0.0427558 0.0540627 0.022858
0.0478981 0.05449 0.0198672
0.0534371 0.0561379 0.0174868
0.0658885 0.0571298 0.0117189
0.094316 0.0554055 0
0.128542 0.051606 0
0.163363 0.0528878 0
0.211505 0.0596323 0
0.270649 0.0732128 0
0.339071 0.0955062 0
0.413962 0.127031 0
0.49482 0.159182 0
0.578683 0.193423 0
0.663035 0.232395 0
0.747906 0.271107 0
0.830655 0.308415 0
0.907393 0.345968 0
0.977707 0.382116 0
1 0.414908 0
1 0.443854 0
1 0.468498 0
1 0.488884 0
1 0.505135 0
1 0.517891 0
1 0.526787 0
1 0.533349 0
1 0.538109 0
1 0.541695 0
1 0.544106 0
1 0.545968 0
1 0.547143 0
1 0.548104 0
1 0.548791 0
0.0545663 0.0691691 0.0224002
0.0599374 0.0702068 0.0196078
0.0661631 0.0725567 0.0180209
0.0783093 0.0745251 0.0132753
0.102037 0.0750744 0.000747692
0.139528 0.0717479 0
0.174395 0.0670634 0
0.214191 0.0704204 0
0.266361 0.0820478 0
0.329747 0.102953 0
0.401144 0.132387 0
0.479194 0.162768 0
0.563302 0.191302 0
0.645594 0.229526 0
0.73019 0.269017 0
0.816632 0.30901 0
0.901457 0.347387 0
0.977737 0.382086 0
1 0.414878 0
1 0.443839 0
1 0.468482 0
1 0.488869 0
1 0.505135 0
1 0.517876 0
1 0.526802 0
1 0.533349 0
1 0.538125 0
1 0.541695 0
1 0.544121 0
1 0.545968 0
1 0.547158 0
1 0.548119 0
1 0.548806 0
0.0719615 0.0910353 0.0239872
0.0777142 0.0926528 0.0217136
0.0846265 0.0957656 0.0209049
0.0971847 0.0987869 0.0167239
0.118471 0.10045 0.00700389
0.147433 0.0999466 0
0.183673 0.094377 0
0.222156 0.0886397 0
0.265858 0.0949874 0
0.321843 0.112688 0
0.387243 0.137911 0
0.46009 0.166629 0
0.540536 0.192844 0
0.622141 0.223728 0
0.701961 0.261112 0
0.78352 0.299733 0
0.866789 0.338827 0
0.952728 0.378714 0
1 0.414984 0
1 0.443824 0
1 0.468467 0
1 0.488853 0
1 0.505104 0
1 0.517861 0
1 0.526802 0
1 0.533364 0
1 0.538125 0
1 0.541711 0
1 0.544137 0
1 0.545983 0
1 0.547158 0
1 0.548119 0
1 0.548806 0
0.100481 0.124819 0.0317235
0.106874 0.127001 0.0302739
0.114931 0.130694 0.0305486
0.127321 0.134493 0.026688
0.144396 0.136782 0.0195773
0.166201 0.137285 0.00456245
0.193606 0.135378 0
0.231495 0.128588 0
0.273838 0.122896 0
0.319814 0.130343 0
0.376333 0.147951 0
0.442039 0.172137 0
0.517052 0.195071 0
0.595285 0.219974 0
0.670634 0.252735 0
0.745357 0.288014 0
0.820462 0.323812 0
0.896742 0.360311 0
0.975265 0.397238 0
1 0.434638 0
1 0.467582 0
1 0.488838 0
1 0.505089 0
1 0.517845 0
1 0.526818 0
1 0.533379 0
1 0.53814 0
1 0.541726 0
1 0.544137 0
1 0.545998 0
1 0.547173 0
1 0.548135 0
1 0.548821 0
0.139971 0.164767 0.0485237
0.145632 0.167102 0.0480201
0.152605 0.170794 0.0492714
0.163485 0.17499 0.0458839
0.177569 0.177737 0.0408179
0.194583 0.178988 0.0293584
0.215 0.178317 0.00999466
0.241047 0.175875 0
0.283482 0.16939 0
0.328817 0.164019 0
0.375387 0.171511 0
0.433295 0.18584 0
0.500008 0.203296 0
0.570794 0.223392 0
0.641123 0.248295 0
0.708492 0.279194 0
0.775219 0.310506 0
0.84123 0.342367 0
0.906645 0.37377 0
0.972274 0.404761 0
1 0.435904 0
1 0.467124 0
1 0.497246 0
1 0.517617 0
1 0.526848 0
1 0.533394 0
1 0.53817 0
1 0.541741 0
1 0.544167 0
1 0.546014 0
1 0.547204 0
1 0.54815 0
1 0.548852 0
0.183017 0.208469 0.0765698
0.187823 0.210758 0.0769513
0.194415 0.214771 0.0799115
0.20415 0.219074 0.0784619
0.215961 0.222187 0.0736248
0.229572 0.223713 0.065095
0.245441 0.224002 0.0501106
0.264118 0.223087 0.0287938
0.293019 0.220676 0
0.339284 0.214496 0
0.390417 0.208194 0
0.440116 0.212207 0
0.496757 0.222477 0
0.558358 0.236759 0
0.620478 0.256229 0
0.680217 0.280766 0
0.738933 0.3066 0
0.795605 0.332525 0
0.849744 0.357839 0
0.901732 0.38233 0
0.951507 0.405798 0
0.999344 0.428183 0
1 0.449088 0
1 0.468956 0
1 0.487083 0
1 0.503365 0
1 0.517281 0
1 0.528695 0
1 0.536538 0
1 0.541131 0
1 0.544121 0
1 0.546136 0
1 0.547433 0
0.228107 0.254414 0.116014
0.23267 0.257038 0.1178
0.238621 0.260884 0.121279
0.247456 0.265309 0.121889
0.25803 0.269062 0.118181
0.269047 0.270634 0.112779
0.281422 0.271092 0.101686
0.295674 0.270802 0.0848859
0.315496 0.269963 0.0596933
0.348089 0.268421 0.0184939
0.395773 0.264332 0
0.45275 0.257771 0
0.506096 0.258213 0
0.558785 0.265904 0
0.612222 0.279744 0
0.6654 0.297337 0
0.717403 0.317128 0
0.767056 0.337865 0
0.81323 0.357839 0
0.855726 0.376684 0
0.894102 0.393896 0
0.928389 0.409262 0
0.958709 0.422812 0
0.985321 0.434699 0
1 0.444923 0
1 0.453483 0
1 0.460716 0
1 0.466606 0
1 0.471015 0
1 0.474449 0
1 0.476936 0
1 0.478935 0
1 0.4804 0
0.274418 0.30161 0.15848
0.278416 0.304143 0.160616
0.283986 0.307973 0.164202
0.291463 0.311849 0.164858
0.300496 0.315435 0.16173
0.310063 0.317479 0.158343
0.320577 0.318639 0.152941
0.331945 0.318746 0.143664
0.34667 0.318593 0.129198
0.371038 0.318853 0.102159
0.4065 0.318608 0.0577554
0.455085 0.316121 0.000915541
0.51252 0.31165 0
0.56524 0.312291 0
0.615427 0.318166 0
0.664302 0.328923 0
0.711543 0.342763 0
0.756161 0.35819 0
0.797375 0.373938 0
0.834333 0.388617 0
0.866758 0.402045 0
0.89427 0.413535 0
0.917266 0.423148 0
0.936126 0.431037 0
0.95108 0.437232 0
0.962921 0.44213 0
0.972244 0.446036 0
0.979324 0.44889 0
0.984451 0.450965 0
0.988434 0.452598 0
0.991241 0.453742 0
0.993439 0.454688 0
0.995041 0.45539 0
0.319631 0.347875 0.19913
0.323293 0.350484 0.20148
0.328237 0.353964 0.204456
0.335332 0.358038 0.206119
0.343618 0.361776 0.204929
0.352224 0.364416 0.201785
0.361334 0.365972 0.199329
0.371145 0.366827 0.194537
0.383139 0.367361 0.186618
0.402213 0.368002 0.171008
0.430488 0.369406 0.146212
0.468574 0.370504 0.108019
0.51722 0.369299 0.0492561
0.57377 0.366629 0
0.625299 0.36762 0
0.67335 0.372763 0
0.718181 0.381018 0
0.760159 0.391745 0
0.798733 0.403723 0
0.832761 0.415167 0
0.861921 0.425574 0
0.886656 0.434852 0
0.906554 0.442435 0
0.922377 0.448478 0
0.934447 0.453162 0
0.943709 0.456809 0
0.950576 0.459556 0
0.955596 0.461585 0
0.959228 0.463066 0
0.961975 0.464179 0
0.963729 0.464897 0
0.965118 0.465446 0
0.966155 0.465858 0
0.36376 0.393149 0.238483
0.367132 0.395773 0.241047
0.371969 0.399329 0.24416
0.378744 0.40351 0.246433
0.386481 0.407431 0.246494
0.39469 0.410788 0.244038
0.403037 0.412985 0.243
0.411551 0.414176 0.240375
0.422126 0.415381 0.235813
0.438529 0.416907 0.226215
0.461707 0.418616 0.209842
0.493446 0.421012 0.186145
0.533043 0.423178 0.154879
0.581567 0.423133 0.104829
0.636744 0.421897 0.018616
0.686671 0.423484 0
0.732158 0.427985 0
0.773831 0.434943 0
0.811185 0.443366 0
0.84416 0.452064 0
0.87219 0.460273 0
0.89575 0.467796 0
0.914321 0.473808 0
0.929122 0.478996 0
0.940276 0.483101 0
0.948577 0.486198 0
0.954696 0.488609 0
0.959304 0.490394 0
0.962478 0.491661 0
0.964721 0.492576 0
0.966278 0.493248 0
0.967529 0.493736 0
0.968414 0.494087 0
0.406806 0.437446 0.277043
0.410376 0.440421 0.280079
0.415152 0.444038 0.283177
0.421729 0.448356 0.285832
0.429053 0.452461 0.286763
0.436835 0.456138 0.285756
0.444587 0.4589 0.28394
0.452659 0.460899 0.283223
0.462608 0.462776 0.280552
0.477134 0.464668 0.273777
0.497688 0.467216 0.262562
0.52491 0.470115 0.245457
0.558968 0.473167 0.222446
0.599222 0.476051 0.195483
0.647715 0.47718 0.153506
0.701076 0.477211 0.0737316
0.74844 0.479042 0.00680552
0.791424 0.483253 0
0.829526 0.489097 0
0.862699 0.495552 0
0.890623 0.501945 0
0.914153 0.50808 0
0.932509 0.513191 0
0.947097 0.517723 0
0.958053 0.521385 0
0.966018 0.52398 0
0.971954 0.526101 0
0.97641 0.527718 0
0.979492 0.528923 0
0.981842 0.529793 0
0.983368 0.530434 0
0.984573 0.530892 0
0.985397 0.531212 0
0.448951 0.480858 0.314794
0.452338 0.483757 0.317601
0.457328 0.487694 0.320943
0.463722 0.492119 0.323781
0.470741 0.496406 0.325261
0.478035 0.500206 0.325017
0.485801 0.503807 0.323415
0.493523 0.506462 0.323217
0.503365 0.508934 0.321645
0.517021 0.511437 0.316854
0.535775 0.514473 0.308446
0.560098 0.517906 0.295506
0.589914 0.521187 0.27715
0.62591 0.525078 0.255192
0.66659 0.528679 0.231464
0.714015 0.530236 0.192767
0.764797 0.531273 0.128573
0.810132 0.533837 0.0622873
0.849851 0.537881 0.014435
0.884138 0.542641 0
0.912947 0.547585 0
0.936477 0.552377 0
0.955489 0.557 0
0.970031 0.560647 0
0.981216 0.563897 0
0.989471 0.566461 0
0.9953 0.568139 0
0.999878 0.569635 0
1 0.570748 0
1 0.571572 0
1 0.572168 0
1 0.57261 0
1 0.5729 0
0.489754 0.522988 0.351003
0.493217 0.525963 0.353735
0.498039 0.529824 0.356847
0.504311 0.534356 0.359731
0.511116 0.538827 0.361608
0.51838 0.543069 0.362295
0.525917 0.547021 0.361639
0.533684 0.550469 0.360494
0.543526 0.553414 0.359579
0.556771 0.556481 0.356069
0.574304 0.559945 0.349508
0.596628 0.563775 0.339208
0.623636 0.567514 0.324361
0.655787 0.571496 0.305547
0.693019 0.575845 0.284199
0.732952 0.579644 0.262852
0.779675 0.581979 0.226291
0.827588 0.583734 0.172366
0.869474 0.586679 0.121416
0.905425 0.590311 0.0738079
0.935393 0.594232 0.0398108
0.959777 0.598169 0.0193637
0.979065 0.601801 0.00856031
0.994354 0.605234 0.00445563
1 0.607889 0.00428779
1 0.610132 0.00584421
1 0.611933 0.00820935
1 0.613306 0.0105592
1 0.614328 0.0128176
1 0.615091 0.0146944
1 0.615579 0.0163882
1 0.615869 0.0170596
1 0.616068 0.0177615
0.528969 0.563516 0.385351
0.532479 0.566537 0.387945
0.537377 0.570535 0.390982
0.54342 0.575036 0.393805
0.550134 0.579721 0.396017
0.557061 0.584039 0.39704
0.564385 0.588235 0.397024
0.572381 0.592279 0.395468
0.582498 0.595865 0.394659
0.5953 0.599207 0.391821
0.611994 0.602991 0.386496
0.632868 0.60708 0.377935
0.657954 0.611185 0.365499
0.687449 0.615473 0.349432
0.721172 0.619577 0.329686
0.758907 0.624277 0.309316
0.797757 0.628428 0.290547
0.842924 0.631098 0.254978
0.886961 0.633448 0.209659
0.924697 0.636423 0.169802
0.955947 0.639673 0.136217
0.981277 0.642954 0.110552
1 0.646067 0.0929274
1 0.649088 0.0835431
1 0.651438 0.0791485
1 0.653483 0.078233
1 0.655116 0.0786755
1 0.656367 0.0793317
1 0.657313 0.0808423
1 0.657862 0.0815442
1 0.658244 0.082475
1 0.658625 0.083238
1 0.658869 0.0839246
0.565972 0.601801 0.417319
0.569543 0.604868 0.419776
0.57467 0.609125 0.422889
0.580438 0.613535 0.425605
0.586755 0.618082 0.427741
0.593591 0.622614 0.429145
0.600717 0.626978 0.429603
0.608743 0.631098 0.427985
0.619043 0.635233 0.426352
0.631922 0.639155 0.424338
0.64799 0.643183 0.419852
0.667475 0.647227 0.412268
0.691203 0.651713 0.401679
0.718898 0.656291 0.38764
0.750225 0.660655 0.370092
0.78439 0.664469 0.349706
0.821836 0.669505 0.330968
0.859388 0.674083 0.315114
0.901976 0.676753 0.280781
0.941131 0.67921 0.243214
0.973648 0.682109 0.21297
1 0.685283 0.190204
1 0.688014 0.174182
1 0.690394 0.163729
1 0.692729 0.158129
1 0.69453 0.15523
1 0.695857 0.153811
1 0.697002 0.153124
1 0.697902 0.153262
1 0.698543 0.153445
1 0.699046 0.153979
1 0.699397 0.154253
1 0.699611 0.154345
0.600351 0.637339 0.446555
0.604044 0.640543 0.449012
0.608774 0.64445 0.451698
0.614221 0.648692 0.4542
0.620325 0.653178 0.456336
0.627039 0.657847 0.457969
0.63389 0.662135 0.458457
0.642405 0.666773 0.457176
0.652811 0.671275 0.454856
0.665507 0.675395 0.453223
0.680797 0.679347 0.449088
0.699687 0.683787 0.442649
0.72224 0.688334 0.433158
0.748455 0.692958 0.420447
0.777752 0.697185 0.404379
0.810254 0.701381 0.385779
0.844755 0.705531 0.366354
0.881041 0.710567 0.349599
0.915694 0.715068 0.336873
0.955215 0.717662 0.303456
0.988876 0.72047 0.274357
1 0.72314 0.25185
1 0.725917 0.236179
1 0.728069 0.225193
1 0.730205 0.218753
1 0.731655 0.214557
1 0.733043 0.212436
1 0.734096 0.211032
1 0.73492 0.210498
1 0.735515 0.210147
1 0.735882 0.209949
1 0.736065 0.209689
1 0.736217 0.209766
0.63122 0.669245 0.472511
0.635019 0.672526 0.474876
0.639399 0.676158 0.477226
0.644587 0.680232 0.479576
0.650553 0.684749 0.481788
0.65684 0.689189 0.483299
0.663935 0.693767 0.483986
0.672358 0.698283 0.482414
0.682826 0.703059 0.479713
0.695308 0.707332 0.478309
0.710506 0.711635 0.474815
0.72842 0.715801 0.46865
0.750027 0.720302 0.459922
0.775036 0.724895 0.448218
0.803265 0.729397 0.43357
0.833936 0.733455 0.416129
0.866529 0.737362 0.397253
0.900649 0.741711 0.379309
0.934676 0.746715 0.365316
0.967025 0.751141 0.353307
1 0.753887 0.324392
1 0.756451 0.301961
1 0.758831 0.285725
1 0.760845 0.274266
1 0.762844 0.267216
1 0.764477 0.262699
1 0.765484 0.259602
1 0.766445 0.257725
1 0.767224 0.256886
1 0.767788 0.25626
1 0.768231 0.255955
1 0.768536 0.255665
1 0.768719 0.25568
0.658564 0.697459 0.495171
0.661891 0.700313 0.497108
0.666117 0.703807 0.499321
0.671046 0.707698 0.501488
0.676539 0.711864 0.50341
0.682597 0.716228 0.504936
0.689754 0.72079 0.505394
0.698451 0.725597 0.50396
0.708934 0.730526 0.500923
0.721004 0.73463 0.499489
0.735714 0.738811 0.496147
0.753429 0.743175 0.490593
0.774304 0.747646 0.482399
0.798093 0.751904 0.471214
0.825269 0.75642 0.45745
0.855009 0.760739 0.441199
0.886442 0.764752 0.423209
0.918379 0.768231 0.404562
0.951354 0.773068 0.389425
0.982071 0.777569 0.378103
1 0.78146 0.364111
1 0.784054 0.34168
1 0.786603 0.325414
1 0.78854 0.313634
1 0.790311 0.305974
1 0.791745 0.301045
1 0.792996 0.297871
1 0.793942 0.295781
1 0.794461 0.294453
1 0.794949 0.293507
1 0.795377 0.293202
1 0.795666 0.292866
1 0.79585 0.292866
0.681254 0.720867 0.513817
0.684581 0.72372 0.515709
0.688396 0.726864 0.517586
0.693202 0.730694 0.519722
0.698436 0.734691 0.521508
0.704341 0.738949 0.522927
0.711543 0.743496 0.523186
0.720195 0.748257 0.521645
0.730602 0.753124 0.518318
0.742596 0.757305 0.517006
0.756909 0.761334 0.51371
0.774243 0.765667 0.508415
0.794598 0.770092 0.500572
0.817746 0.774319 0.489906
0.844068 0.778775 0.476738
0.872892 0.783108 0.461234
0.90338 0.787091 0.443839
0.934417 0.790646 0.425727
0.965393 0.794354 0.408972
0.996063 0.799252 0.396887
1 0.803525 0.389303
1 0.806683 0.373114
1 0.809232 0.356832
1 0.811139 0.3449
1 0.812985 0.337118
1 0.814206 0.331807
1 0.815366 0.328328
1 0.816236 0.325841
1 0.816938 0.324666
1 0.817182 0.323339
1 0.817594 0.322972
1 0.817868 0.322515
1 0.818036 0.322499
0.699977 0.740169 0.529107
0.703029 0.742748 0.530724
0.706691 0.745769 0.532494
0.711208 0.749371 0.534417
0.716167 0.753185 0.53611
0.722026 0.757336 0.537301
0.729152 0.76173 0.537316
0.737728 0.7664 0.535653
0.748043 0.771267 0.532219
0.759976 0.775433 0.530922
0.774334 0.779644 0.527901
0.791028 0.783658 0.522515
0.810971 0.788022 0.514946
0.833906 0.792477 0.504829
0.859678 0.796918 0.492103
0.887419 0.8009 0.476875
0.917235 0.804898 0.459983
0.947585 0.808499 0.442298
0.977172 0.811536 0.424964
1 0.816007 0.411688
1 0.820615 0.40322
1 0.824613 0.397574
1 0.826917 0.380819
1 0.829023 0.368933
1 0.830594 0.360754
1 0.83209 0.35555
1 0.832975 0.351751
1 0.83386 0.349264
1 0.834562 0.347997
1 0.835065 0.346868
1 0.835477 0.346456
1 0.835752 0.346014
1 0.83592 0.345907
0.71487 0.755505 0.541176
0.71783 0.758007 0.542748
0.721218 0.760769 0.544274
0.725399 0.76408 0.545968
0.730343 0.767895 0.547692
0.736141 0.771908 0.548638
0.743221 0.776242 0.548516
0.751736 0.780835 0.546731
0.76199 0.785641 0.543191
0.773693 0.789624 0.541787
0.787717 0.793637 0.538674
0.804517 0.797909 0.533623
0.824186 0.802243 0.526238
0.846738 0.806653 0.516335
0.871672 0.810742 0.503685
0.89929 0.815015 0.489021
0.928557 0.818982 0.472496
0.958328 0.822522 0.45507
0.987427 0.825574 0.437934
1 0.829114 0.42327
1 0.833738 0.414069
1 0.837842 0.409323
1 0.840711 0.399084
1 0.842649 0.38703
1 0.844495 0.379065
1 0.845701 0.373495
1 0.84683 0.369863
1 0.847654 0.367269
1 0.848341 0.365881
1 0.848829 0.364767
1 0.84921 0.364248
1 0.849332 0.363516
1 0.849409 0.363424
0.726421 0.767391 0.5505
0.729015 0.769543 0.551766
0.732448 0.772351 0.553353
0.73637 0.775433 0.554864
0.741299 0.779232 0.556542
0.747021 0.783108 0.55729
0.754055 0.78735 0.557015
0.762539 0.791897 0.555154
0.772732 0.796658 0.551583
0.784482 0.800763 0.550301
0.79826 0.804578 0.547066
0.814893 0.808835 0.542092
0.834333 0.813138 0.534813
0.85658 0.817487 0.525063
0.881209 0.821546 0.512642
0.908446 0.825788 0.498222
0.93727 0.829694 0.48191
0.966628 0.833204 0.464729
0.995407 0.836286 0.447715
1 0.838987 0.432166
1 0.843595 0.422415
1 0.84773 0.416938
1 0.851148 0.412802
1 0.853101 0.400687
1 0.854917 0.392538
1 0.856245 0.38706
1 0.857176 0.383154
1 0.857984 0.380499
1 0.858656 0.37908
1 0.859113 0.377966
1 0.85951 0.377356
1 0.859648 0.376699
1 0.859724 0.376623
0.735073 0.776287 0.557504
0.737743 0.778546 0.558862
0.740856 0.781033 0.560174
0.744671 0.784024 0.561654
0.749493 0.787671 0.563088
0.755199 0.791501 0.563745
0.762188 0.795651 0.563317
0.770642 0.800153 0.561395
0.780789 0.804868 0.557824
0.792477 0.808957 0.556527
0.806455 0.813001 0.553506
0.822705 0.816983 0.548379
0.841962 0.821241 0.541146
0.864012 0.825574 0.531518
0.888716 0.829847 0.519417
0.915343 0.833799 0.504967
0.943877 0.837644 0.488792
0.972992 0.841184 0.471794
1 0.844236 0.454963
1 0.846723 0.439216
1 0.850858 0.428611
1 0.855024 0.42269
1 0.858671 0.420706
1 0.861051 0.410712
1 0.862562 0.402274
1 0.863981 0.396887
1 0.864866 0.392889
1 0.865629 0.390204
1 0.866285 0.388739
1 0.866758 0.387518
1 0.86714 0.38703
1 0.867399 0.386435
1 0.867552 0.386419
0.741451 0.782849 0.562661
0.74406 0.785031 0.563928
0.747066 0.787427 0.565179
0.751003 0.790539 0.566781
0.755566 0.793896 0.567895
0.761242 0.797665 0.568444
0.7682 0.801785 0.567956
0.776638 0.806256 0.565972
0.78674 0.81091 0.562402
