luts/Cliff-SLog2.cube
TITLE "Generated by Resolve"
LUT_3D_SIZE 9
0 0 0
0.0628214 0 0
0.19411 0 0
0.3084 0 0
0.369467 0 0
0.373892 0.000518807 0
0.334691 7.62951e-05 0
0.249317 0.0399939 0.013901
0.154757 0.0831311 0.0756847
0 0.0474403 0
0.0498817 0.0384222 0
0.197421 0.0309758 0
0.351278 0.0406195 0
0.463783 0.0417792 0
0.519387 0.0419013 0
0.519463 0.0614786 0
0.471626 0.102373 0
0.393881 0.148165 0.0762646
0 0.155306 0
0.022797 0.161746 0
0.181079 0.152514 0
0.366827 0.135805 0
0.525292 0.131823 0
0.623316 0.15053 0
0.669947 0.182239 0
0.677424 0.221012 0
0.656703 0.2636 0.03093
0 0.285664 0
0.0206912 0.310063 0
0.166629 0.319677 0
0.357504 0.311513 0
0.548608 0.305272 0
0.681956 0.318044 0
0.763821 0.345876 0
0.807935 0.381201 0
0.826154 0.41825 0.00155642
0 0.437201 0
0.0717327 0.476127 0
0.200595 0.500542 0.00451667
0.375631 0.50457 0.0145571
0.566567 0.50309 0
0.721004 0.512016 0
0.822766 0.531685 0
0.88629 0.557916 0
0.923903 0.584543 0.0319524
0.09308 0.59585 0.0681468
0.163409 0.640681 0.0714885
0.284077 0.669642 0.0879225
0.447364 0.677852 0.0995346
0.61529 0.680064 0.0817578
0.759014 0.68394 0.08336
0.863279 0.697444 0.0467994
0.931472 0.71458 0.0986801
0.973053 0.732403 0.183368
0.198886 0.740291 0.181201
0.272358 0.781552 0.177096
0.398184 0.805432 0.182483
0.547631 0.811063 0.188052
0.692241 0.812268 0.190631
0.808423 0.813687 0.239307
0.896757 0.820768 0.275959
0.954055 0.832609 0.333532
0.988602 0.845075 0.407431
0.307378 0.854795 0.299092
0.391959 0.885115 0.292149
0.524086 0.897536 0.29897
0.659693 0.897475 0.316716
0.776104 0.897047 0.349859
0.863676 0.899565 0.4121
0.924849 0.901335 0.516945
0.964797 0.91078 0.594232
0.988128 0.920989 0.665873
0.419577 0.929259 0.419181
0.519158 0.944533 0.425711
0.650797 0.94638 0.453559
0.763165 0.944305 0.501167
0.84889 0.944381 0.567864
0.909911 0.948577 0.646448
0.95024 0.952956 0.737881
0.977951 0.961578 0.805905
0.995911 0.971939 0.853712
0 0 0.0784314
0.0590982 0 0.0745556
0.211536 0 0.0200351
0.348974 0 0
0.424567 0 0
0.444678 0 0
0.416205 0 0
0.339574 0.0180972 0
0.242893 0.0670481 0.0624399
0 0.0461738 0.0598764
0.0402991 0.0423133 0.0573129
0.224125 0.0225071 0.00866712
0.402808 0.0130159 0
0.527932 0.0154421 0
0.590692 0.0335851 0
0.602731 0.0632639 0
0.572152 0.100252 0
0.509453 0.139193 0.0503395
0 0.161654 0.0120699
0.00662242 0.172213 0.0146792
0.183307 0.161181 0.0120241
0.403372 0.137407 0
0.579934 0.135958 0
0.688762 0.154711 0
0.744503 0.18468 0
0.763226 0.221485 0
0.755199 0.260945 0.0161135
0 0.299931 0
0.00221256 0.327459 0
0.156558 0.338506 0.0134279
0.370504 0.324758 0
0.587869 0.312642 0
0.733898 0.323186 0
0.822599 0.350134 0
0.871977 0.384833 0
0.895369 0.420417 0.00968948
0 0.456825 0.0262913
0.0511788 0.499107 0.0307012
0.184604 0.525704 0.0470283
0.371923 0.526345 0.0577707
0.584207 0.518364 0.0268406
0.753307 0.522423 0
0.861402 0.539345 0
0.928176 0.564569 0
0.967376 0.590692 0.0672618
0.0717174 0.618814 0.116609
0.147555 0.665537 0.117433
0.264988 0.695354 0.127703
0.43476 0.700618 0.137331
0.618051 0.697627 0.124697
0.773602 0.696773 0.128038
0.883543 0.707454 0.103761
0.95317 0.723262 0.158206
0.994476 0.740307 0.237293
0.175708 0.764111 0.232227
0.24892 0.804654 0.226139
0.375921 0.827619 0.228794
0.533745 0.829999 0.236088
0.688823 0.826307 0.242725
0.812238 0.825101 0.287572
0.903502 0.829618 0.336904
0.960983 0.840223 0.398367
0.994568 0.852369 0.471748
0.276982 0.87631 0.355718
0.366384 0.90425 0.351873
0.505882 0.913588 0.361303
0.650172 0.909819 0.382834
0.772747 0.90631 0.420645
0.863523 0.907256 0.479515
0.924651 0.907683 0.583627
0.965133 0.91725 0.654902
0.988815 0.927886 0.718715
0.392233 0.945846 0.48188
0.500877 0.95758 0.493767
0.641611 0.955825 0.525505
0.760052 0.951156 0.573831
0.848646 0.950317 0.6365
0.911147 0.954162 0.706538
0.95227 0.959655 0.782254
0.979828 0.967834 0.843473
0.998016 0.978149 0.884062
0 0 0.196612
0.0463569 0 0.214069
0.195285 0 0.181735
0.354559 0 0.0792248
0.455467 0 0
0.496483 0 0
0.480156 0 0
0.419028 0 0
0.329503 0.0430304 0.0577096
0 0.0390021 0.207782
0.0349889 0.0366522 0.229435
0.214374 0.0173342 0.198077
0.431373 0 0.0699474
0.575051 0 0
0.646311 0 0
0.670298 0.0382239 0
0.65716 0.0783551 0
0.615869 0.114916 0.0511635
0 0.159121 0.148974
0.00132753 0.173098 0.161151
0.173327 0.167956 0.156008
0.422141 0.150011 0.0829633
0.618997 0.149325 0
0.737896 0.167269 0
0.801785 0.196338 0
0.829068 0.231647 0.0236667
0.831525 0.269154 0.111696
0 0.306188 0.107607
0 0.338842 0.107881
0.139055 0.354055 0.11635
0.378851 0.336583 0.102281
0.62208 0.320577 0
0.778058 0.330587 0
0.871077 0.358144 0
0.923506 0.393027 0.0410773
0.949996 0.42855 0.14432
0 0.471565 0.12372
0.0267338 0.516365 0.125399
0.165515 0.546532 0.132662
0.364141 0.546563 0.139605
0.598291 0.531746 0.114458
0.781918 0.531838 0.0101015
0.89427 0.547845 0.0207065
0.961746 0.572229 0.107927
1 0.598321 0.198962
0.0414282 0.637568 0.205524
0.123369 0.685145 0.20267
0.242878 0.716762 0.2056
0.419074 0.721431 0.211627
0.616922 0.713542 0.205798
0.783856 0.708049 0.215991
0.898741 0.71632 0.21471
0.968627 0.731044 0.268055
1 0.748272 0.338643
0.139025 0.783825 0.320912
0.218463 0.82417 0.315282
0.350469 0.846693 0.315221
0.516243 0.846296 0.321569
0.682124 0.838773 0.332784
0.812161 0.835477 0.370184
0.905455 0.837461 0.431128
0.963333 0.847837 0.491493
0.996292 0.859724 0.557687
0.237339 0.894133 0.444205
0.335195 0.9196 0.444648
0.484764 0.926284 0.456382
0.638361 0.91989 0.479774
0.76704 0.913832 0.517555
0.861265 0.913985 0.572702
0.923125 0.914534 0.662608
0.964309 0.924331 0.722133
0.988464 0.93518 0.775265
0.367468 0.958709 0.567468
0.481346 0.968353 0.582101
0.63331 0.963699 0.614359
0.757565 0.957107 0.658198
0.848859 0.95584 0.712016
0.912428 0.959747 0.769619
0.954833 0.966766 0.827176
0.981964 0.974411 0.880522
1 0.984863 0.913893
0 0 0.30164
0.0331884 0 0.343679
0.167559 0 0.329931
0.319936 0 0.268086
0.443168 0 0.164141
0.502602 0 0.0619669
0.505898 0 0.0195773
0.460655 0 0.0384222
0.381628 0.0353246 0.0902113
0 0.0318914 0.348653
0.0289158 0.0304875 0.401022
0.191211 0.0148775 0.394308
0.398169 0 0.33051
0.575265 0 0.217639
0.675425 0 0.105165
0.719142 0 0.0319524
0.720867 0 0.0374304
0.693568 0.0429084 0.0891127
0 0.152087 0.310826
0.00698863 0.165866 0.358923
0.16614 0.163622 0.380346
0.417929 0.144015 0.336782
0.65272 0.0984512 0.230747
0.790814 0.0721904 0.135943
0.857633 0.132998 0.130251
0.889982 0.186679 0.162768
0.898894 0.233921 0.208164
0 0.304051 0.264363
0 0.337545 0.289021
0.120516 0.358312 0.302129
0.369879 0.344869 0.287556
0.632227 0.332403 0.229374
0.798474 0.34551 0.205158
0.895415 0.373999 0.22179
0.950729 0.408499 0.261479
0.979644 0.443015 0.309071
0 0.476982 0.263416
0.000885023 0.524453 0.271656
0.122667 0.559686 0.273152
0.345357 0.560265 0.273198
0.601434 0.541466 0.259358
0.796963 0.539864 0.215763
0.9122 0.556069 0.238102
0.979995 0.581079 0.290639
1 0.606989 0.347143
0.0137636 0.648493 0.328115
0.070222 0.697963 0.327886
0.207553 0.731044 0.328496
0.396704 0.735958 0.328786
0.608713 0.724285 0.323796
0.786007 0.716091 0.337499
0.904921 0.723461 0.348196
0.974823 0.73814 0.396887
1 0.755199 0.455116
0.113512 0.794842 0.433219
0.177264 0.836652 0.430213
0.317601 0.859281 0.429877
0.495171 0.857633 0.434897
0.671321 0.847471 0.446448
0.808377 0.843565 0.46978
0.902495 0.843565 0.533974
0.961395 0.854215 0.585992
0.994797 0.866743 0.641367
0.231113 0.902495 0.547723
0.313405 0.928817 0.550286
0.462409 0.935653 0.55993
0.626184 0.926909 0.581689
0.760891 0.919585 0.614694
0.858076 0.919264 0.660349
0.921828 0.921782 0.727718
0.963317 0.930922 0.779934
0.987991 0.941787 0.822416
0.374258 0.963638 0.65626
0.480888 0.973114 0.669108
0.628092 0.969512 0.694011
0.757641 0.962112 0.731395
0.850355 0.960388 0.774899
0.914641 0.964508 0.8215
0.957549 0.972656 0.865324
0.984802 0.980438 0.910201
1 0.990799 0.937713
0 0 0.371572
0.0233463 0 0.432853
0.139406 0 0.441459
0.280903 0 0.393256
0.400763 0 0.322026
0.479118 0 0.233875
0.501305 0 0.166415
0.472358 0 0.138674
0.406714 0.0395819 0.145998
0 0.0285191 0.445624
0.0268559 0.0282597 0.523629
0.170169 0.0164645 0.547463
0.365286 0 0.507118
0.537774 0 0.439155
0.658625 0 0.352178
0.721126 0 0.281865
0.739284 0.0114748 0.241184
0.72491 0.0552682 0.233021
0 0.146151 0.449195
0.0156558 0.160281 0.529397
0.162737 0.160418 0.578424
0.396735 0.140566 0.562097
0.621866 0.137499 0.506859
0.780301 0.132982 0.435828
0.871702 0.139666 0.387137
0.919585 0.170947 0.36582
0.93901 0.213077 0.365682
0 0.300008 0.4215
0.000167849 0.332692 0.481071
0.130327 0.352972 0.527214
0.35935 0.345037 0.535286
0.62884 0.332174 0.495415
0.824277 0.327474 0.443046
0.936812 0.342916 0.418845
1 0.373098 0.420172
1 0.407935 0.437049
0 0.476967 0.417853
0.014435 0.524178 0.452918
0.130114 0.559304 0.47686
0.320867 0.567559 0.475898
0.589624 0.54963 0.458488
0.794324 0.54992 0.43473
0.912505 0.568017 0.445075
0.981979 0.593683 0.473487
1 0.619745 0.506142
0.0281987 0.652171 0.468116
0.0800183 0.700984 0.486732
0.192035 0.736263 0.494987
0.360906 0.746471 0.487922
0.591501 0.732692 0.481895
0.779706 0.722576 0.488334
0.90277 0.730007 0.497841
0.973312 0.74548 0.534585
1 0.763088 0.577173
0.124025 0.8 0.554742
0.183139 0.840269 0.564309
0.302586 0.864485 0.566751
0.466163 0.867002 0.564752
0.656168 0.854444 0.573999
0.800534 0.849042 0.590249
0.897581 0.849714 0.637385
0.957626 0.860639 0.676295
0.991424 0.873686 0.718578
0.240604 0.906752 0.649699
0.322332 0.931441 0.65893
0.461082 0.939101 0.666362
0.614389 0.933639 0.678614
0.755917 0.924895 0.705043
0.855589 0.924102 0.739086
0.920882 0.928573 0.784909
0.962753 0.937255 0.82974
0.987976 0.948287 0.86276
0.389242 0.965606 0.736309
0.497276 0.973678 0.748852
0.638712 0.97116 0.766888
0.759731 0.966857 0.793988
0.853941 0.964874 0.828443
0.917998 0.969238 0.864607
0.96054 0.977554 0.899275
0.987778 0.986084 0.934813
1 0.996292 0.957519
0 0 0.395941
0.0176089 0 0.469535
0.115618 0 0.49955
0.239994 0 0.473655
0.357198 0 0.416815
0.436027 0 0.348928
0.472267 0 0.276616
0.459464 0.0081178 0.226749
0.407752 0.0545663 0.204868
0 0.0294041 0.488655
0.0293584 0.0305638 0.58851
0.154696 0.0228275 0.637568
0.330816 0.0065156 0.623575
0.503548 0 0.57644
0.624277 0.0149691 0.517952
0.699641 0.0381018 0.44979
0.732815 0.0560464 0.396399
0.732494 0.089601 0.363302
0 0.144167 0.537774
0.0290684 0.159152 0.63888
0.164675 0.162478 0.705242
0.376684 0.148287 0.711955
0.599329 0.136431 0.681147
0.754711 0.155322 0.640162
0.855344 0.184771 0.591394
0.914641 0.21091 0.557244
0.943709 0.244038 0.536538
0 0.297414 0.541451
0.0218662 0.330022 0.626413
0.147646 0.35079 0.693614
0.359518 0.346746 0.717998
0.61471 0.333043 0.704585
0.800641 0.346136 0.674739
0.921218 0.36994 0.642695
0.993164 0.397818 0.625071
1 0.428916 0.619593
0 0.476783 0.549355
0.0374151 0.522927 0.609384
0.14934 0.557092 0.656931
0.332372 0.565377 0.675914
0.577508 0.553872 0.671351
0.787427 0.553506 0.648356
0.922896 0.564996 0.630991
1 0.586023 0.630701
1 0.610285 0.640146
0.0513008 0.653803 0.592859
0.098909 0.701732 0.631144
0.206256 0.735836 0.656474
0.367712 0.746242 0.660365
0.570047 0.740642 0.65005
0.767666 0.729976 0.645579
0.893339 0.737728 0.646616
0.96466 0.75433 0.666819
1 0.772656 0.691875
0.14287 0.802853 0.664073
0.198398 0.841886 0.686534
0.314427 0.865019 0.697643
0.471015 0.868101 0.696727
0.638193 0.862119 0.694316
0.791318 0.854307 0.705318
0.891829 0.856138 0.732296
0.953353 0.867567 0.757595
0.987228 0.880888 0.786954
0.25864 0.90866 0.739147
0.339406 0.931609 0.753353
0.476967 0.938659 0.761151
0.623056 0.93492 0.767514
0.751842 0.930831 0.782147
0.854063 0.929061 0.80705
0.921263 0.935088 0.835584
0.962783 0.943175 0.871611
0.988296 0.954604 0.897124
0.411276 0.965743 0.803738
0.519905 0.972869 0.815579
0.658 0.970794 0.828656
0.771282 0.968597 0.846738
0.858701 0.969436 0.872358
0.922072 0.973922 0.90071
0.964126 0.982391 0.928008
0.991104 0.991775 0.954696
1 1 0.974441
0 0 0.372229
0.0158541 0 0.455131
0.0972915 0 0.506401
0.20264 0 0.505241
0.310552 0 0.467552
0.391272 0 0.411597
0.430045 0 0.349233
0.427604 0.0336614 0.290944
0.388724 0.0755779 0.252659
0 0.0341192 0.483452
0.0354772 0.0364843 0.604288
0.14461 0.0324254 0.676844
0.299794 0.02121 0.686564
0.464912 0.0128328 0.659312
0.592096 0.0193484 0.61677
0.669963 0.0519112 0.56701
0.711635 0.0931868 0.511681
0.721965 0.123735 0.469322
0 0.146304 0.577554
0.0465553 0.162173 0.695125
0.170748 0.168933 0.775097
0.361944 0.160464 0.798535
0.574456 0.150942 0.786221
0.735882 0.158938 0.761791
0.837873 0.189776 0.733394
0.901473 0.235035 0.697963
0.937133 0.270146 0.671321
0.000656138 0.297841 0.616281
0.0492561 0.330907 0.716625
0.169604 0.353353 0.794339
0.365393 0.353826 0.828992
0.602533 0.344594 0.829953
0.790295 0.350027 0.817487
0.907927 0.378027 0.799756
0.981186 0.415793 0.776181
1 0.447883 0.761471
0.0248722 0.477333 0.643565
0.0676432 0.522942 0.719036
0.177081 0.556817 0.77969
0.353033 0.566308 0.80914
0.580087 0.558709 0.813596
0.778424 0.556405 0.8065
0.90576 0.575555 0.792294
0.987076 0.599619 0.78027
1 0.623697 0.775967
0.0826429 0.655299 0.689219
0.126589 0.70222 0.741176
0.230884 0.735271 0.77847
0.386404 0.745449 0.791989
0.57882 0.740993 0.789609
0.758343 0.735836 0.784985
0.887343 0.74287 0.775631
0.966079 0.757107 0.776028
1 0.774411 0.784192
0.168948 0.804562 0.750896
0.222141 0.842298 0.78294
0.336263 0.864149 0.800717
0.487556 0.867536 0.802579
0.64715 0.863005 0.799146
0.782284 0.861326 0.800641
0.886915 0.863005 0.812451
0.948348 0.874769 0.826551
0.982254 0.888228 0.845685
0.283665 0.909422 0.811429
0.364477 0.930861 0.828626
0.499733 0.93727 0.836027
0.640146 0.934737 0.839307
0.760662 0.932891 0.846922
0.853819 0.934646 0.862303
0.921553 0.94023 0.88275
0.9635 0.949233 0.90692
0.988815 0.960601 0.926009
0.439033 0.964904 0.85832
0.547204 0.971405 0.868772
0.680583 0.970153 0.877638
0.787869 0.969375 0.890608
0.867933 0.972534 0.9084
0.926528 0.978592 0.929961
0.968002 0.987045 0.951598
0.994766 0.997162 0.971298
1 1 0.988571
0 0 0.308934
0.0180362 0 0.397635
0.0845045 0 0.47068
0.172122 0 0.493996
0.266377 0 0.47718
0.343755 0 0.43444
0.385855 0.0119173 0.380667
0.387976 0.0509194 0.326131
0.358099 0.0949722 0.280613
0.00172427 0.0419928 0.437339
0.0445258 0.045243 0.580926
0.138689 0.0443275 0.677638
0.273533 0.0379797 0.709178
0.426276 0.0325322 0.700771
0.554788 0.0385901 0.671565
0.640055 0.0597848 0.633371
0.685298 0.100053 0.589899
0.701595 0.144533 0.545403
0.0185855 0.151049 0.576867
0.0664225 0.168002 0.712001
0.179477 0.178058 0.806012
0.351324 0.175021 0.843565
0.549645 0.169192 0.845991
0.712581 0.176104 0.833249
0.822431 0.199924 0.815671
0.889586 0.235706 0.795132
0.927977 0.282902 0.768002
0.0347906 0.30042 0.651652
0.0796368 0.334325 0.765423
0.193652 0.358816 0.85098
0.373892 0.363821 0.892302
0.592798 0.359289 0.903441
0.776852 0.364965 0.900816
0.899199 0.386267 0.892149
0.974319 0.419013 0.881102
1 0.458045 0.863035
0.063859 0.478782 0.702037
0.103182 0.524651 0.78854
0.208957 0.559091 0.856245
0.376196 0.570199 0.890181
0.586236 0.566537 0.900236
0.773098 0.566384 0.899031
0.901427 0.579904 0.894438
0.979095 0.605875 0.884947
1 0.633524 0.874281
0.119539 0.65658 0.755947
0.159594 0.702953 0.816281
0.261219 0.735454 0.860731
0.411826 0.74583 0.878798
0.593774 0.742992 0.88069
0.760708 0.740139 0.877546
0.880537 0.747158 0.874235
0.954269 0.764996 0.867231
0.999207 0.783032 0.865187
0.200381 0.805493 0.814939
0.251499 0.842222 0.852613
0.363653 0.863142 0.874296
0.510369 0.866728 0.877668
0.661921 0.863706 0.874632
0.789303 0.863767 0.874403
0.883436 0.869291 0.878553
0.947234 0.880247 0.8822
0.979965 0.894423 0.892439
0.313481 0.909209 0.865644
0.394034 0.92958 0.884611
0.52665 0.935775 0.891402
0.660716 0.934417 0.89276
0.774121 0.934035 0.896254
0.860349 0.938033 0.905501
0.922774 0.945266 0.919448
0.964721 0.95491 0.935424
0.989624 0.966186 0.949447
0.470253 0.963165 0.89955
0.576501 0.969543 0.908553
0.70396 0.969421 0.91487
0.804608 0.970306 0.923842
0.879606 0.974746 0.937133
0.933303 0.982315 0.953048
0.97171 0.99144 0.970214
0.99823 1 0.985992
1 1 1
0 0 0.226596
0.022385 0 0.315084
0.0767987 0 0.405417
0.149325 0 0.451377
0.229526 0 0.453696
0.299596 0.010956 0.425757
0.341451 0.0346685 0.381003
0.347753 0.0697337 0.331868
0.323476 0.111971 0.287633
0.0194705 0.0514687 0.36495
0.055024 0.0557412 0.52842
0.136126 0.0572061 0.650355
0.25388 0.0547494 0.702983
0.391974 0.0527504 0.712001
0.517311 0.0593729 0.695705
0.607187 0.0794842 0.666423
0.658595 0.111345 0.63064
0.678752 0.152651 0.593637
0.0453956 0.157076 0.545159
0.0868238 0.175006 0.701396
0.189029 0.187823 0.811536
0.344442 0.189517 0.861814
0.528603 0.187549 0.876356
0.689738 0.195148 0.873762
0.803754 0.216983 0.863203
0.87686 0.249821 0.848753
0.918791 0.285908 0.832654
0.0704204 0.303624 0.657282
0.109865 0.338735 0.785077
0.216648 0.365347 0.879072
0.383322 0.374273 0.926406
0.58584 0.37406 0.944884
0.763653 0.380835 0.949279
0.888319 0.40087 0.94699
0.967483 0.43006 0.940505
1 0.461357 0.931762
0.104387 0.480339 0.73286
0.138949 0.527108 0.82887
0.239933 0.56231 0.900969
0.398047 0.57528 0.937804
0.592981 0.575341 0.951736
0.769314 0.577264 0.954665
0.895827 0.590219 0.95375
0.975448 0.61178 0.949157
1 0.638056 0.941482
0.157748 0.657389 0.798154
0.194049 0.704173 0.865034
0.292348 0.736217 0.912581
0.437583 0.747066 0.933104
0.60911 0.746334 0.937026
0.764858 0.745953 0.935042
0.879393 0.753491 0.931731
0.951446 0.769146 0.928313
0.993057 0.78909 0.921691
0.233005 0.80592 0.858686
0.282063 0.842023 0.899641
0.392874 0.862196 0.922881
0.534401 0.866255 0.927306
0.677623 0.864836 0.924498
0.797711 0.866468 0.923049
0.886244 0.87332 0.924254
0.943542 0.88513 0.926909
0.978531 0.899123 0.929015
0.344137 0.908217 0.903532
0.423819 0.927977 0.92314
0.553231 0.934356 0.929671
0.680903 0.934249 0.929686
0.78819 0.935347 0.931365
0.868971 0.94052 0.937163
0.926665 0.949157 0.946365
0.965988 0.959823 0.957107
0.99025 0.971145 0.967712
0.500221 0.961273 0.928649
0.604105 0.967681 0.936721
0.725155 0.968887 0.941344
0.820142 0.971099 0.947845
0.890242 0.976822 0.957809
0.940612 0.985214 0.970459
0.975967 0.995254 0.9841
1 1 0.99765
1 1 1
