luts/Cliff-LogC4.cube
TITLE "Generated by Resolve"
LUT_3D_SIZE 5
0 0 0
0.24242 0 0
0.406149 0 0
0.341878 0.028687 0.0293736
0.31957 0.0451514 0.0559396
0 0.198947 0
0.241093 0.2 0
0.695903 0.171328 0
0.341222 0.0289464 0.0294347
0.319036 0.0453498 0.0559548
0.158434 0.680095 0.121111
0.397955 0.744274 0.136751
0.838071 0.756344 0.167712
0.98851 0.783429 0.333776
1 0.787442 0.380728
0.452415 0.922133 0.364492
0.666651 0.928573 0.39765
0.917342 0.93077 0.598672
0.984283 0.953597 0.804898
0.992065 0.959869 0.836606
0.527779 0.944564 0.425055
0.718883 0.944411 0.47631
0.932296 0.950057 0.689311
0.990478 0.971756 0.860792
0.997879 0.978256 0.888243
0 0 0.245274
0.246403 0 0.219883
0.506828 0 0
0.410407 0.00860609 0.0545205
0.376944 0.0356451 0.0851759
0 0.211093 0.184436
0.237903 0.226017 0.198917
0.797101 0.194842 0.0556497
0.410269 0.00862135 0.0543526
0.376806 0.0356603 0.0850385
0.0926223 0.727535 0.289372
0.348013 0.793561 0.288487
0.853056 0.776486 0.343236
0.994217 0.792584 0.46511
1 0.795453 0.494865
0.397513 0.952239 0.529595
0.646586 0.94786 0.573419
0.918547 0.946136 0.737606
0.986114 0.963546 0.865324
0.993606 0.968109 0.882231
0.489265 0.968063 0.582818
0.709163 0.959258 0.638453
0.936172 0.963409 0.803677
0.994522 0.982345 0.91194
1 0.986725 0.925521
0 0.0712749 0.528862
0.21181 0.0652323 0.708888
0.557443 0 0.458656
0.422004 0.0460975 0.243458
0.399771 0.0658427 0.233326
0 0.247074 0.579492
0.21886 0.287648 0.767865
0.837156 0.252461 0.725658
0.775921 0.116716 0.477394
0.399771 0.0658274 0.23331
0.109102 0.737377 0.676066
0.315877 0.813855 0.736004
0.832593 0.800885 0.731945
0.978637 0.818311 0.7608
0.992721 0.821607 0.768475
0.419837 0.957534 0.818402
0.66009 0.958206 0.834287
0.923796 0.962478 0.89572
0.991592 0.981018 0.946426
0.9991 0.984909 0.953674
0.522408 0.972107 0.840528
0.732128 0.969268 0.860212
0.946853 0.979614 0.926986
1 0.99881 0.973327
1 1 0.979904
0.0510719 0.27219 0.643717
0.225376 0.325872 0.871763
0.814939 0.304875 0.910292
0.824399 0.192554 0.734478
0.577646 0.126238 0.47776
0.0662699 0.372519 0.686259
0.234897 0.444343 0.887007
0.840482 0.436973 0.936446
0.986343 0.396704 0.899977
0.981506 0.367178 0.871138
0.187945 0.755474 0.820523
0.362127 0.824872 0.903822
0.82945 0.825559 0.904646
0.969497 0.843275 0.902922
0.98436 0.846433 0.902876
0.42446 0.947036 0.908492
0.694667 0.958328 0.924636
0.934691 0.973022 0.954299
0.997787 0.992767 0.983017
1 0.996674 0.987594
0.514427 0.965057 0.920211
0.760159 0.969436 0.933364
0.957351 0.988785 0.970932
1 1 1
1 1 1
0.0728771 0.320119 0.665736
0.229343 0.383581 0.887083
0.82565 0.374884 0.945815
0.929793 0.301778 0.866224
0.876143 0.246265 0.789776
0.0885939 0.407156 0.704784
0.239979 0.483223 0.89955
0.837705 0.483452 0.957794
0.999161 0.456184 0.93753
1 0.43212 0.923293
0.205676 0.761212 0.838987
0.370153 0.828473 0.922057
0.831662 0.831861 0.923919
0.96733 0.849912 0.921645
0.981598 0.853346 0.920821
0.436835 0.946349 0.92079
0.699535 0.958556 0.936172
0.937652 0.974701 0.962371
0.999207 0.994995 0.988495
1 0.999008 0.992859
0.502922 0.961685 0.928664
0.762737 0.969329 0.942901
0.959564 0.989883 0.976837
1 1 1
1 1 1
