luts/Cliff-SLog2.cube
TITLE "Generated by Resolve"
LUT_3D_SIZE 33
0 0 0
0 0 0
0.00292973 0 0
0.0317693 0 0
0.0628214 0 0
0.0954757 0 0
0.129046 0 0
0.161425 0 0
0.19411 0 0
0.226062 0 0
0.256382 0 0
0.284031 0 0
0.3084 0 0
0.329152 0 0
0.346456 0 0
0.360021 0 0
0.369467 0 0
0.375174 0 0
0.3776 0 0
0.377279 0.000350958 0
0.373892 0.000518807 0
0.367941 0.00047303 0
0.358999 0.000503548 0
0.34786 0.000427253 0
0.334691 7.62951e-05 0
0.316274 0.00868238 0
0.295552 0.0188449 0
0.273106 0.0292668 0
0.249317 0.0399939 0.013901
0.225528 0.0510414 0.0305333
0.201053 0.0619669 0.0465705
0.177386 0.0725567 0.0617075
0.154757 0.0831311 0.0756847
0 0 0
0 0 0
0.00215152 0 0
0.030869 0 0
0.0622873 0 0
0.0954299 0 0
0.127932 0 0
0.16112 0 0
0.194614 0 0
0.227192 0 0
0.258076 0 0
0.286137 0 0
0.311498 0 0
0.33312 0 0
0.351156 0 0
0.365087 0 0
0.374945 0 0
0.380957 0.000686656 0
0.384634 0.00163272 0
0.385214 0.00189212 0
0.38291 0.00198367 0
0.377417 0.00199893 0
0.369162 0.00192264 0
0.358419 0.00173953 0
0.346075 0.0015259 0
0.327413 0.011017 0
0.306783 0.0210575 0
0.284611 0.0315099 0
0.261189 0.0425727 0.0130617
0.237064 0.0536202 0.0301213
0.21265 0.0646525 0.0467536
0.189014 0.0755322 0.0623941
0.165667 0.0857862 0.0769207
0 0 0
0 0 0
0 0 0
0.0244755 0 0
0.0548562 0 0
0.0883955 0 0
0.124727 0 0
0.162097 0 0
0.199252 0 0
0.235523 0 0
0.269947 0 0
0.301366 0 0
0.329427 0 0
0.354269 0.00369268 0
0.375158 0.00843824 0
0.393011 0.0116426 0
0.407568 0.0119326 0
0.418906 0.0122683 0
0.426627 0.0124361 0
0.431586 0.0124819 0
0.433021 0.0123445 0
0.431449 0.0122072 0
0.426581 0.0119326 0
0.41944 0.0115816 0
0.408225 0.0170901 0
0.392477 0.0267491 0
0.374273 0.0369268 0
0.353994 0.0475776 0
0.331975 0.0590066 0.0053254
0.308675 0.0704967 0.0247654
0.284443 0.0823987 0.044419
0.260365 0.0935225 0.0631571
0.236133 0.104417 0.0827649
0 0.0229038 0
0 0.0226139 0
0 0.0200198 0
0.0221714 0.0166018 0
0.0544594 0.0132906 0
0.0878004 0.0111696 0
0.123568 0.00981155 0
0.161517 0.00918593 0
0.200473 0.00950637 0
0.238895 0.010956 0
0.276097 0.0134737 0
0.310369 0.0169375 0
0.341894 0.0212406 0
0.370977 0.0247196 0
0.397223 0.0250858 0
0.419776 0.02533 0
0.438529 0.0255894 0
0.453605 0.025803 0
0.46566 0.0259098 0
0.474113 0.0258183 0
0.479469 0.0257572 0
0.481453 0.0255741 0
0.480735 0.0252079 0
0.476249 0.0284123 0
0.467216 0.0374304 0
0.454932 0.0471351 0
0.440604 0.0572061 0
0.423316 0.0681315 0
0.404105 0.0794232 0
0.383185 0.0908064 0.0146029
0.361212 0.102296 0.0362554
0.337987 0.113802 0.0583963
0.314549 0.125216 0.0824903
0 0.0474403 0
0 0.047364 0
0 0.0449683 0
0.0144656 0.0423285 0
0.0498817 0.0384222 0
0.0860609 0.0343481 0
0.120897 0.031754 0
0.158068 0.0306859 0
0.197421 0.0309758 0
0.237385 0.0327153 0
0.276936 0.0358892 0
0.314488 0.0400549 0
0.351278 0.0406195 0
0.384817 0.0409705 0
0.414984 0.0412757 0
0.441489 0.041474 0
0.463783 0.0417792 0
0.482963 0.0419471 0
0.498466 0.0419776 0
0.510445 0.0420233 0
0.519387 0.0419013 0
0.524941 0.0417029 0
0.527138 0.0440833 0
0.524987 0.0523537 0
0.519463 0.0614786 0
0.511299 0.0711528 0
0.500755 0.0818189 0
0.487511 0.0918898 0
0.471626 0.102373 0
0.454093 0.113436 0.00148013
0.435126 0.124773 0.024155
0.414939 0.136278 0.0493324
0.393881 0.148165 0.0762646
0 0.0726482 0
0 0.0725261 0
0 0.0709392 0
0.00732433 0.069337 0
0.0412146 0.0669261 0
0.0802014 0.0624552 0
0.116945 0.0581064 0
0.154101 0.0555123 0
0.193149 0.0549477 0
0.233707 0.0563973 0
0.275319 0.0589609 0
0.317769 0.059205 0
0.35758 0.0595254 0
0.394537 0.0597391 0
0.428534 0.0599832 0
0.45832 0.0601053 0
0.484321 0.0602579 0
0.506661 0.060441 0
0.525261 0.060441 0
0.540932 0.0603952 0
0.553124 0.0604105 0
0.561593 0.0631876 0
0.565576 0.0709087 0
0.566537 0.0793011 0
0.56492 0.0888075 0
0.560494 0.0977646 0
0.553124 0.107424 0
0.543679 0.117327 0
0.532128 0.127916 0
0.518578 0.138506 0
0.503136 0.14963 0.0107424
0.486732 0.161334 0.037583
0.468666 0.172885 0.0662394
0 0.0988937 0
0 0.0989548 0
0 0.098497 0
0.00077821 0.098085 0
0.0340887 0.0966201 0
0.0706035 0.0941024 0
0.110765 0.0891127 0
0.149172 0.0845045 0
0.188556 0.0821088 0
0.229923 0.082063 0
0.274556 0.0818341 0
0.318914 0.08159 0
0.361776 0.0814984 0
0.401434 0.0814221 0
0.438102 0.0814527 0
0.471214 0.0814832 0
0.500923 0.0815747 0
0.526513 0.0816358 0
0.548104 0.081651 0
0.566751 0.0815442 0
0.581018 0.0851911 0
0.591272 0.0924544 0
0.598444 0.100084 0
0.602564 0.108171 0
0.604074 0.116732 0
0.603403 0.125978 0
0.599924 0.135729 0
0.594308 0.145663 0
0.58616 0.155901 0
0.576471 0.16672 0
0.56495 0.1776 0
0.551888 0.188769 0.0242924
0.537926 0.200427 0.0550088
0 0.126467 0
0 0.126772 0
0 0.127535 0
0 0.128389 0
0.027985 0.12842 0
0.0640879 0.12697 0
0.102342 0.124315 0
0.143435 0.119249 0
0.185397 0.114626 0
0.229129 0.111086 0
0.273762 0.108583 0
0.319417 0.107012 0
0.363928 0.105806 0
0.406378 0.105119 0
0.44567 0.104585 0
0.481636 0.104234 0
0.51368 0.104189 0
0.542626 0.104479 0
0.567651 0.104677 0
0.587427 0.109895 0
0.603449 0.116197 0
0.616449 0.123247 0
0.627237 0.131182 0
0.634485 0.139406 0
0.6392 0.147951 0
0.641093 0.157031 0
0.641138 0.166903 0
0.638682 0.176883 0
0.634394 0.18706 0
0.628229 0.197513 0
0.620386 0.208621 0
0.610803 0.219516 0.0119936
0.600595 0.230808 0.0430152
0 0.155306 0
0 0.15581 0
0 0.15819 0
0 0.160418 0
0.022797 0.161746 0
0.058793 0.161532 0
0.0974136 0.159915 0
0.135302 0.157183 0
0.181079 0.152514 0
0.228611 0.147265 0
0.274678 0.142321 0
0.320836 0.13843 0
0.366827 0.135805 0
0.410803 0.134005 0
0.452445 0.132769 0
0.490715 0.132036 0
0.525292 0.131823 0
0.555611 0.134325 0
0.582116 0.13901 0
0.604425 0.144411 0
0.623316 0.15053 0
0.639048 0.157382 0
0.652003 0.165042 0
0.662257 0.173571 0
0.669947 0.182239 0
0.674983 0.191272 0
0.677577 0.200717 0
0.678798 0.210803 0
0.677424 0.221012 0
0.674266 0.231495 0
0.670253 0.24239 0
0.663981 0.25304 0.000411994
0.656703 0.2636 0.03093
0 0.185672 0
0 0.186374 0
0 0.190448 0
0 0.194064 0
0.0189822 0.196643 0
0.0546578 0.197589 0
0.0936141 0.197177 0
0.130587 0.195453 0
0.171756 0.192767 0
0.22034 0.188022 0
0.270787 0.1832 0
0.320378 0.17789 0
0.368322 0.173404 0
0.41442 0.170108 0
0.457298 0.168521 0
0.497078 0.16846 0
0.532952 0.169848 0
0.565148 0.172549 0
0.59411 0.176883 0
0.619013 0.18204 0
0.640696 0.188052 0
0.659022 0.194781 0
0.674403 0.202152 0
0.687327 0.210605 0
0.69752 0.219242 0
0.705379 0.22829 0
0.710597 0.237705 0
0.714427 0.2477 0
0.715938 0.257694 0
0.715816 0.267933 0
0.714366 0.278752 0
0.711482 0.289097 0
0.707088 0.299351 0.0211643
0 0.217624 0
0 0.218448 0
0 0.224079 0
0 0.229252 0
0.0170596 0.233097 0
0.0522469 0.235187 0
0.0910811 0.23595 0
0.127932 0.23534 0
0.167803 0.233631 0
0.211734 0.231022 0
0.262867 0.226322 0
0.314778 0.222217 0
0.365576 0.218097 0
0.413474 0.214374 0
0.458564 0.212009 0
0.500679 0.211246 0
0.539132 0.212085 0
0.573648 0.214313 0
0.604898 0.218036 0
0.632166 0.222797 0
0.656016 0.22855 0
0.676692 0.235157 0
0.694331 0.242435 0
0.70956 0.250675 0
0.721782 0.259113 0
0.732128 0.267948 0
0.740108 0.277195 0
0.74638 0.287175 0
0.750195 0.296986 0
0.752575 0.30692 0
0.753887 0.317342 0
0.753155 0.327428 0
0.751873 0.337209 0.0122072
0 0.250965 0
0 0.252201 0
0 0.259144 0
0 0.265766 0
0.0175326 0.271015 0
0.0522469 0.274403 0
0.0907912 0.276188 0
0.12697 0.276692 0
0.16611 0.276051 0
0.209339 0.274296 0
0.25565 0.271717 0
0.308873 0.26772 0
0.361425 0.264454 0
0.411994 0.261112 0
0.459663 0.258442 0
0.503639 0.257145 0
0.544274 0.257343 0
0.58114 0.259236 0
0.614603 0.262486 0
0.643687 0.266758 0
0.669505 0.272038 0
0.692363 0.278218 0
0.712383 0.285359 0
0.729549 0.293324 0
0.743984 0.301488 0
0.756268 0.310018 0
0.766217 0.319158 0
0.774777 0.32871 0
0.780682 0.338338 0
0.785351 0.347936 0
0.788922 0.357961 0
0.790494 0.367575 0
0.791348 0.377142 0.00555428
0 0.285664 0
0 0.287282 0
0 0.295811 0
0 0.303624 0
0.0206912 0.310063 0
0.055375 0.314824 0
0.093492 0.3178 0
0.128603 0.31931 0
0.166629 0.319677 0
0.20914 0.318914 0
0.255024 0.317494 0
0.303746 0.315129 0
0.357504 0.311513 0
0.410086 0.309056 0
0.459754 0.30692 0
0.505974 0.305531 0
0.548608 0.305272 0
0.587839 0.306813 0
0.622782 0.309422 0
0.654185 0.313207 0
0.681956 0.318044 0
0.706294 0.323857 0
0.728542 0.33077 0
0.747204 0.338125 0
0.763821 0.345876 0
0.777661 0.354177 0
0.789731 0.362936 0
0.799786 0.372107 0
0.807935 0.381201 0
0.814313 0.390494 0
0.819699 0.400061 0
0.823529 0.409094 0
0.826154 0.41825 0.00155642
0 0.321736 0
0 0.323613 0
0 0.333898 0
0 0.342916 0
0.0271763 0.350454 0
0.0615854 0.356283 0
0.0990921 0.36054 0
0.133043 0.36321 0
0.170047 0.364416 0
0.212146 0.364797 0
0.257298 0.36408 0
0.30518 0.362783 0
0.354788 0.360128 0
0.408103 0.357626 0
0.459617 0.356115 0
0.507897 0.355093 0
0.552758 0.355093 0
0.593439 0.35613 0
0.630304 0.35816 0
0.663279 0.361486 0
0.69279 0.365911 0
0.719203 0.371328 0
0.74255 0.377783 0
0.763165 0.384482 0
0.781048 0.391852 0
0.796628 0.399649 0
0.810498 0.408286 0
0.822065 0.416693 0
0.831525 0.425361 0
0.84007 0.434379 0
0.846677 0.442985 0
0.851926 0.451438 0
0.856428 0.460136 0.000518807
0 0.359213 0
0 0.361318 0
0 0.372808 0
0.00721752 0.383429 0
0.038117 0.391943 0
0.0722667 0.39852 0
0.108324 0.403983 0
0.140902 0.407797 0
0.177295 0.410117 0
0.217929 0.411017 0
0.262455 0.41088 0
0.309453 0.4103 0
0.358206 0.409415 0
0.408194 0.406668 0
0.460548 0.405295 0
0.510506 0.405158 0
0.556741 0.405173 0
0.598947 0.406058 0
0.637171 0.407935 0
0.671595 0.410864 0
0.703029 0.414862 0
0.730755 0.419974 0
0.755291 0.42562 0
0.777066 0.431922 0
0.796613 0.438621 0
0.813809 0.446326 0
0.828702 0.453834 0
0.841169 0.461784 0
0.852369 0.469734 0
0.862165 0.478233 0
0.870192 0.486183 0
0.876799 0.494331 0
0.882353 0.502129 0.00440986
0 0.397681 0
0 0.400031 0
0 0.412711 0
0.0217441 0.424186 0
0.0529488 0.433997 0
0.0874647 0.441886 0
0.120287 0.447913 0
0.151369 0.452461 0
0.18703 0.455589 0
0.227237 0.457328 0
0.270985 0.457893 0
0.317128 0.457771 9.15541e-05
0.365133 0.457282 0
0.413733 0.456886 0
0.463874 0.454109 0.0113832
0.514076 0.454276 0
0.561212 0.454643 0
0.604501 0.455634 0
0.644007 0.45745 0
0.679698 0.460136 0
0.712077 0.464149 0
0.740978 0.468467 0
0.766827 0.473457 0
0.789685 0.479164 0
0.810346 0.485634 0
0.828611 0.492424 0
0.844236 0.499489 0
0.858167 0.506691 0
0.870771 0.514351 0
0.881132 0.521798 0
0.890318 0.529107 0
0.898344 0.536812 0
0.904921 0.54377 0.0149233
0 0.437201 0
0 0.439384 0
0.0125734 0.453193 0
0.0402686 0.465599 0
0.0717327 0.476127 0
0.104814 0.484764 0
0.134859 0.491661 0
0.165301 0.496849 0
0.200595 0.500542 0.00451667
0.240101 0.502922 0.00949111
0.283085 0.504204 0.0135195
0.328588 0.504631 0.0154879
0.375631 0.50457 0.0145571
0.423713 0.504829 0.0103304
0.471031 0.504952 0.00187686
0.519448 0.502159 0.0252537
0.566567 0.50309 0
0.610513 0.504295 0
0.651148 0.506279 0
0.687861 0.508843 0
0.721004 0.512016 0
0.750439 0.516045 0
0.777188 0.520607 0
0.801465 0.526085 0
0.822766 0.531685 0
0.841413 0.537789 0
0.858091 0.544213 0
0.873304 0.550912 0
0.88629 0.557916 0
0.897887 0.564523 0
0.907851 0.571466 0
0.916594 0.578134 0.00248722
0.923903 0.584543 0.0319524
0.00808728 0.476936 0
0.0114595 0.479606 0
0.034699 0.493874 0
0.0628977 0.507073 0
0.094667 0.518212 0.00141909
0.123873 0.527398 0.00564584
0.151431 0.534783 0.0106661
0.182284 0.540612 0.0158541
0.217319 0.544884 0.021088
0.256214 0.547768 0.0260777
0.298604 0.549676 0.030396
0.343526 0.550744 0.0333562
0.389761 0.551049 0.0336156
0.436591 0.551141 0.0307012
0.483192 0.551293 0.0239719
0.528283 0.551141 0.0269627
0.574441 0.549386 0.0409705
0.618631 0.551064 0.0080415
0.65919 0.553109 0
0.696056 0.555505 0
0.729458 0.55848 0
0.759838 0.561959 0
0.787259 0.566354 0
0.811887 0.571252 0
0.833661 0.576379 0
0.853315 0.58175 0
0.870771 0.587732 0
0.886259 0.59382 0
0.90013 0.599863 0
0.912154 0.606012 0
0.92285 0.612512 0.00225834
0.93228 0.618326 0.0285496
0.940414 0.624369 0.0580758
0.0330968 0.516838 0.0155947
0.0368811 0.519554 0.0157778
0.0610208 0.534646 0.0165408
0.089662 0.548531 0.0186465
0.117647 0.559853 0.0218204
0.143755 0.569543 0.0257877
0.170687 0.57731 0.0303502
0.201892 0.583597 0.035462
0.237003 0.588373 0.0407111
0.275731 0.591714 0.0457771
0.317235 0.593805 0.0501259
0.361013 0.594934 0.0530098
0.40618 0.595453 0.0538186
0.45214 0.595605 0.0517128
0.497414 0.595956 0.0467689
0.541817 0.596536 0.0383307
0.584726 0.596292 0.0571145
0.627787 0.595697 0.0599222
0.667979 0.597574 0.0285344
0.705013 0.599893 0.00205997
0.738918 0.602655 0
0.769543 0.606363 0
0.796887 0.610117 0
0.821546 0.614313 0
0.843946 0.618891 0
0.863996 0.623926 0
0.88188 0.62948 0
0.897917 0.634714 0
0.91191 0.640116 0
0.92459 0.646036 0.0132906
0.935927 0.651423 0.037644
0.94551 0.65687 0.0645762
0.954131 0.66244 0.0941939
0.0612802 0.55642 0.0400092
0.065156 0.559258 0.0400092
0.0900282 0.574884 0.0406806
0.115953 0.588983 0.0426337
0.14081 0.600961 0.0456092
0.165255 0.61091 0.049134
0.193179 0.618921 0.0535286
0.224735 0.625238 0.0581521
0.25951 0.63006 0.0629892
0.297444 0.633494 0.0676738
0.338399 0.635676 0.0717479
0.381231 0.637034 0.0746929
0.425284 0.637751 0.0760204
0.470115 0.638086 0.0747082
0.514565 0.638743 0.0709544
0.557809 0.639246 0.0639353
0.599252 0.640269 0.0546273
0.639338 0.638788 0.0924849
0.67863 0.639582 0.0808118
0.71516 0.641855 0.0517586
0.748699 0.644785 0.0287175
0.778988 0.647898 0.011368
0.806622 0.651316 0
0.831357 0.655085 0
0.853941 0.659541 0
0.873976 0.663966 0
0.892164 0.668635 0.0059205
0.908125 0.673518 0.020264
0.922698 0.678798 0.0385595
0.935347 0.683619 0.0610666
0.946303 0.688533 0.0867475
0.956161 0.693767 0.113054
0.964904 0.698451 0.13669
0.09308 0.59585 0.0681468
0.0962692 0.598337 0.067628
0.117952 0.61416 0.067689
0.140764 0.628458 0.0691234
0.163409 0.640681 0.0714885
0.188937 0.650538 0.0750286
0.217319 0.658595 0.0788586
0.249317 0.664775 0.0835279
0.284077 0.669642 0.0879225
0.32195 0.673075 0.0919814
0.361913 0.675395 0.0955215
0.404044 0.676738 0.0979782
0.447364 0.677852 0.0995346
0.490867 0.678294 0.0986038
0.533593 0.678721 0.0955673
0.575296 0.67921 0.0898451
0.61529 0.680064 0.0817578
0.653178 0.680476 0.0910658
0.690867 0.679347 0.125902
0.726528 0.681468 0.105104
0.759014 0.68394 0.08336
0.789197 0.686564 0.0648356
0.816266 0.689784 0.0525673
0.84126 0.693645 0.0471351
0.863279 0.697444 0.0467994
0.883253 0.70132 0.0522927
0.901015 0.70544 0.0627298
0.917052 0.71017 0.0793774
0.931472 0.71458 0.0986801
0.943877 0.719097 0.120195
0.955154 0.723903 0.141329
0.964752 0.728176 0.162982
0.973053 0.732403 0.183368
0.121813 0.634043 0.0972763
0.12491 0.636988 0.0971695
0.144152 0.652811 0.0969558
0.164691 0.666972 0.0973831
0.188067 0.678691 0.0991226
0.214527 0.688396 0.101869
0.243809 0.696254 0.104921
0.275944 0.702358 0.108309
0.310628 0.707073 0.111894
0.348241 0.710643 0.115267
0.387976 0.713039 0.118181
0.42884 0.714458 0.120226
0.470878 0.715084 0.120912
0.51284 0.71548 0.119829
0.554086 0.715938 0.117586
0.594415 0.716487 0.113527
0.633387 0.717647 0.108278
0.669886 0.718807 0.101579
0.704417 0.718334 0.129397
0.738796 0.717769 0.149676
0.770489 0.720195 0.1337
0.800061 0.723064 0.120745
0.826368 0.725902 0.112367
0.850278 0.72903 0.108293
0.87216 0.732372 0.109941
0.891478 0.73608 0.116762
0.909239 0.740185 0.12784
0.924681 0.744045 0.141726
0.938659 0.74789 0.158129
0.950973 0.7523 0.17644
0.961776 0.756344 0.195529
0.971252 0.760327 0.214572
0.979599 0.764508 0.234073
0.147997 0.670909 0.12401
0.150591 0.673808 0.123903
0.168673 0.689494 0.123033
0.190677 0.703471 0.123415
0.215473 0.71516 0.124605
0.242374 0.724636 0.126406
0.272129 0.732158 0.128832
0.304433 0.738125 0.131533
0.339208 0.742519 0.134478
0.37612 0.745632 0.136934
0.414786 0.747707 0.139178
0.454826 0.749035 0.140887
0.49543 0.749798 0.141802
0.536126 0.750256 0.141512
0.576226 0.750805 0.140032
0.614908 0.751247 0.13724
0.652079 0.751995 0.133761
0.687282 0.753079 0.130022
0.720165 0.753674 0.139742
0.75198 0.75288 0.170123
0.782681 0.753735 0.177981
0.810834 0.756176 0.169314
0.836347 0.758862 0.164477
0.859586 0.761624 0.163973
0.880812 0.76492 0.167468
0.899428 0.768185 0.175296
0.916304 0.771649 0.185916
0.931426 0.775189 0.199725
0.944961 0.779095 0.215839
0.956497 0.782727 0.23299
0.966949 0.786252 0.250751
0.976165 0.790097 0.26981
0.983932 0.793698 0.2878
0.173022 0.706752 0.152132
0.17586 0.709407 0.151827
0.194888 0.724422 0.150179
0.217624 0.738003 0.149508
0.243168 0.749355 0.150057
0.271153 0.758358 0.151492
0.301518 0.765347 0.153277
0.333791 0.770871 0.15523
0.3682 0.775082 0.157488
0.40473 0.778042 0.159777
0.442725 0.77998 0.161624
0.481849 0.781353 0.163226
0.521172 0.782025 0.163882
0.560586 0.782315 0.164202
0.599023 0.782605 0.163531
0.636133 0.782895 0.162188
0.671611 0.783383 0.160571
0.705409 0.784329 0.15938
0.737316 0.785809 0.159197
0.766766 0.785428 0.186969
0.795224 0.784558 0.215183
0.822065 0.786221 0.214755
0.846372 0.788769 0.213382
0.869062 0.791547 0.216007
0.888975 0.794385 0.221775
0.906859 0.797284 0.230869
0.922728 0.800443 0.242924
0.937377 0.803784 0.25713
0.949813 0.807141 0.273625
0.960967 0.810513 0.290761
0.971099 0.814038 0.309285
0.979492 0.817273 0.327596
0.986801 0.820569 0.345861
0.198886 0.740291 0.181201
0.202045 0.743038 0.180758
0.222354 0.757839 0.178485
0.246067 0.770932 0.177264
0.272358 0.781552 0.177096
0.300649 0.789837 0.177661
0.331014 0.796521 0.178866
0.363851 0.80177 0.180896
0.398184 0.805432 0.182483
0.434089 0.808042 0.183978
0.471458 0.80972 0.185763
0.509468 0.810681 0.187167
0.547631 0.811063 0.188052
0.585397 0.811124 0.188922
0.622385 0.811215 0.189456
0.658289 0.811719 0.190082
0.692241 0.812268 0.190631
0.724132 0.812924 0.191699
0.754345 0.813809 0.19353
0.782101 0.81413 0.21117
0.808423 0.813687 0.239307
0.834012 0.81384 0.260182
0.856809 0.816007 0.262348
0.87776 0.818296 0.267292
0.896757 0.820768 0.275959
0.913939 0.823819 0.287251
0.928954 0.826658 0.301137
0.942351 0.829511 0.31664
0.954055 0.832609 0.333532
0.964599 0.835752 0.351827
0.973648 0.838819 0.370291
0.981598 0.841917 0.389136
0.988602 0.845075 0.407431
0.226017 0.772473 0.210834
0.229114 0.774975 0.210117
0.249683 0.78883 0.206851
0.274495 0.801114 0.20531
0.301503 0.811246 0.20473
0.33051 0.819028 0.204715
0.361303 0.82501 0.205478
0.393942 0.829648 0.206577
0.428367 0.832898 0.20824
0.464042 0.834974 0.209766
0.500664 0.836149 0.211475
0.537926 0.836683 0.213489
0.575326 0.837217 0.215335
0.611749 0.837308 0.216968
0.646922 0.837232 0.218692
0.681117 0.837125 0.220768
0.713359 0.837476 0.223392
0.743603 0.838148 0.226963
0.772015 0.839353 0.232303
0.798215 0.840024 0.243427
0.822507 0.839475 0.271473
0.845426 0.839002 0.299229
0.867094 0.840162 0.312551
0.886824 0.842603 0.321248
0.904479 0.844816 0.332219
0.920119 0.847242 0.34551
0.934096 0.849836 0.361257
0.946624 0.852888 0.378592
0.957687 0.855619 0.396612
0.967132 0.858381 0.415641
0.975494 0.861433 0.434775
0.982757 0.864134 0.453849
0.988891 0.866941 0.472114
0.253178 0.801938 0.240223
0.256413 0.804471 0.239948
0.278157 0.817899 0.236591
0.303349 0.829435 0.233967
0.331121 0.838651 0.232792
0.360647 0.845609 0.232517
0.39237 0.851133 0.233265
0.425315 0.854871 0.23447
0.459678 0.857466 0.236042
0.495323 0.859098 0.238025
0.531319 0.859953 0.240375
0.567407 0.860182 0.242618
0.602975 0.860105 0.245335
0.638193 0.859876 0.248249
0.672007 0.859785 0.251575
0.704326 0.86009 0.255985
0.734447 0.860258 0.261006
0.762982 0.860685 0.26688
0.789685 0.861418 0.274678
0.814099 0.862531 0.284337
0.83682 0.862394 0.311604
0.857557 0.861967 0.339757
0.877333 0.861646 0.366049
0.895445 0.863706 0.377234
0.911543 0.865919 0.391333
0.926375 0.868421 0.407111
0.93901 0.870832 0.424292
0.950118 0.87332 0.442939
0.960128 0.875959 0.461967
0.96907 0.878843 0.481636
0.976638 0.881498 0.501213
0.983383 0.884367 0.520287
0.988815 0.886946 0.538735
0.280232 0.82974 0.270039
0.283726 0.83209 0.269322
0.305898 0.844266 0.265171
0.332204 0.854994 0.262821
0.361044 0.863233 0.261509
0.391485 0.869307 0.261585
0.423499 0.873854 0.262547
0.457206 0.876921 0.264103
0.491722 0.878813 0.265995
