luts/Cliff-LogC4.cube
TITLE "Generated by Resolve"
LUT_3D_SIZE 33
0 0 0
0 0 0
0.00178531 0 0
0.0274662 0 0
0.0617075 0 0
0.10222 0 0
0.147539 0 0
0.194354 0 0
0.24242 0 0
0.287221 0 0
0.325383 0 0
0.355886 0 0
0.377691 0 0
0.392493 0 0
0.401511 0 0
0.405371 0 0
0.406149 0 0
0.404761 0 0
0.397665 0 0
0.388403 0 0
0.378149 0.00122072 0
0.367773 0.0089723 0
0.358038 0.0165103 0.00985733
0.349203 0.0229496 0.0206149
0.341878 0.028687 0.0293736
0.335714 0.032929 0.0365911
0.331151 0.0365911 0.0421149
0.327626 0.039292 0.0464637
0.325048 0.0413214 0.0497139
0.323018 0.0426795 0.0519265
0.321447 0.0437324 0.053666
0.320363 0.0445563 0.0549783
0.31957 0.0451514 0.0559396
0 0 0
0 0 0
0 0 0
0.0252842 0 0
0.0604715 0 0
0.100618 0 0
0.145861 0 0
0.195056 0 0
0.243656 0 0
0.287861 0 0
0.325353 0 0
0.355856 0 0
0.377661 0 0
0.392462 0 0
0.401465 0 0
0.405325 0 0
0.406119 0 0
0.404715 0 0
0.39762 0 0
0.388388 0 0
0.378119 0.00122072 0
0.367758 0.00898756 0
0.358007 0.0165255 0.00987259
0.349187 0.0229496 0.0206302
0.341848 0.0287022 0.0293736
0.335698 0.0329442 0.0365911
0.331136 0.0365911 0.0421149
0.327596 0.0393072 0.0464637
0.325032 0.0413214 0.0497139
0.322988 0.0426795 0.0519265
0.321431 0.0437324 0.053666
0.320348 0.0445563 0.0549783
0.319554 0.0451667 0.0559396
0 0 0
0 0 0
0 0 0
0.0201724 0 0
0.0538491 0 0
0.0956893 0 0
0.144839 0 0
0.197391 0 0
0.249653 0 0
0.296941 0 0
0.335378 0 0
0.36231 0 0
0.377615 0 0
0.392416 0 0
0.401404 0 0
0.405249 0 0
0.406058 0 0
0.404654 0 0
0.397574 0 0
0.388342 0 0
0.378073 0.00123598 0
0.367712 0.00900282 0
0.357977 0.0165408 0.00987259
0.349157 0.0229648 0.0206302
0.341817 0.0287022 0.0293736
0.335683 0.0329595 0.0365911
0.331121 0.0365911 0.0421149
0.327581 0.0393072 0.0464637
0.325017 0.0413367 0.0497139
0.322972 0.0426947 0.0519265
0.321416 0.0437476 0.053666
0.320333 0.0445716 0.0549783
0.319539 0.0451667 0.0559396
0 0.0188144 0
0 0.0179904 0
0 0.0157168 0
0.0188144 0.0122683 0
0.0535439 0.00860609 0
0.0948959 0.00573739 0
0.144762 0.00352483 0
0.199878 0.00222782 0
0.255711 0.00244144 0
0.307973 0.00444038 0
0.351812 0.00721752 0
0.384848 0.00720226 0
0.404654 0.00283818 0
0.407126 0 0
0.401312 0 0
0.405173 0 0
0.405966 0 0
0.404578 0 0
0.397513 0 0
0.388281 0 0
0.378012 0.00125124 0
0.367666 0.00901808 0
0.357946 0.016556 0.00987259
0.349126 0.0229801 0.0206302
0.341787 0.0287175 0.0293736
0.335637 0.0329595 0.0365911
0.33109 0.0366064 0.0421149
0.32755 0.0393225 0.046479
0.324987 0.0413367 0.0496986
0.322942 0.04271 0.0519417
0.32137 0.0437629 0.053666
0.320287 0.0445869 0.0549783
0.319493 0.045182 0.0559396
0 0.0459449 0
0 0.0450904 0
0 0.043183 0
0.0105745 0.040528 0
0.0497292 0.0356451 0
0.0931716 0.0303044 0
0.141482 0.0270695 0
0.197192 0.0261387 0
0.25716 0.0273136 0
0.315419 0.0305943 0
0.369589 0.028397 0
0.41355 0.024506 0
0.443244 0.019028 0
0.455863 0.0115206 0
0.448798 0.00250248 0
0.417624 0 0
0.405829 0 0
0.404456 0 0
0.397406 0 0
0.38822 0 0
0.377935 0.00129702 0
0.36759 0.0090486 0
0.35787 0.0165713 0.00988785
0.34905 0.0229953 0.0206455
0.341741 0.028748 0.0293889
0.335592 0.03299 0.0365911
0.331044 0.0366217 0.0421302
0.327504 0.0393378 0.046479
0.324941 0.0413519 0.0496986
0.322911 0.0427253 0.0519417
0.32134 0.0437781 0.053666
0.320256 0.0446021 0.0549783
0.319463 0.0451972 0.0559396
0 0.0771038 0
0 0.0764172 0
0 0.0752422 0
0.00195315 0.0735332 0
0.0392157 0.0705882 0
0.0875257 0.0646525 0
0.136431 0.0586252 0
0.191821 0.0560006 0
0.25391 0.057145 0
0.320668 0.055314 0
0.382956 0.0525826 0
0.436622 0.0488441 0
0.478309 0.0435187 0
0.506752 0.0361486 0
0.518135 0.0257115 0
0.506523 0.0117189 0
0.4636 0 0
0.404273 0 0
0.397269 0 0
0.388113 0 0
0.377829 0.00132753 0
0.367498 0.00907912 0
0.357794 0.0166018 0.00988785
0.348989 0.0230259 0.0206455
0.341665 0.0287785 0.0293889
0.335515 0.0330053 0.0365911
0.330983 0.0366369 0.0421302
0.327443 0.0393683 0.046479
0.324895 0.0413825 0.0496986
0.32285 0.0427405 0.0519417
0.321279 0.0437934 0.053666
0.320195 0.0446174 0.0549783
0.319402 0.0452125 0.0559396
0 0.11249 0
0 0.11284 0
0 0.112734 0
0 0.112581 0
0.0302434 0.111513 0
0.0758068 0.108476 0
0.129061 0.101244 0
0.185687 0.0945449 0
0.251606 0.0903334 0
0.321828 0.0869917 0
0.390478 0.084062 0
0.452186 0.0798657 0
0.504128 0.0747997 0
0.544488 0.0679332 0
0.572519 0.0583505 0
0.583581 0.0536507 0
0.57438 0.0453346 0
0.533104 0.0306859 0
0.445274 0.00337224 0
0.387976 0 0
0.377676 0.00138857 0
0.367361 0.00914015 0
0.357671 0.0166476 0.0099031
0.348867 0.0230716 0.0206607
0.341558 0.028809 0.0294041
0.335424 0.033051 0.0366064
0.330892 0.0366674 0.0421302
0.327352 0.0393988 0.046479
0.324819 0.041413 0.0496986
0.322759 0.0427863 0.0519417
0.321187 0.0438239 0.053666
0.320104 0.0446479 0.0549783
0.31931 0.0452583 0.0559396
0 0.153201 0
0 0.154299 0
0 0.155703 0
0 0.157275 0
0.0229038 0.15816 0
0.0674449 0.15729 0
0.118318 0.153796 0
0.181231 0.146822 0
0.250706 0.137575 0
0.322789 0.129747 0
0.394583 0.123812 0
0.462943 0.118639 0
0.52282 0.113466 0
0.571191 0.110689 0
0.608057 0.110613 0
0.633631 0.109483 0
0.646738 0.106126 0
0.644968 0.0989548 0
0.619089 0.0847486 0
0.551522 0.0608377 0
0.426368 0.0157168 0
0.367163 0.00920119 0
0.357488 0.0167086 0.00991836
0.348714 0.0231174 0.020676
0.341421 0.0288701 0.0294194
0.335286 0.0330968 0.0366064
0.330755 0.0366979 0.0421607
0.32723 0.0394446 0.046479
0.324712 0.0414435 0.0496834
0.322637 0.0428321 0.051957
0.32108 0.0438697 0.053666
0.319997 0.0446937 0.0549783
0.319203 0.045304 0.0559396
0 0.198947 0
0 0.201236 0
0 0.203922 0
0 0.207462 0
0.0184176 0.210742 0
0.0621042 0.21207 0
0.112337 0.21062 0
0.169039 0.207126 0
0.241093 0.2 0
0.319738 0.190616 0
0.396704 0.181689 0
0.469078 0.175509 0
0.533516 0.172305 0
0.588327 0.171527 0
0.633722 0.171939 0
0.669764 0.17258 0
0.695903 0.171328 0
0.712718 0.167483 0
0.717098 0.159762 0
0.70518 0.146899 0
0.672221 0.12903 0
0.607553 0.105776 0
0.495338 0.0584421 0
0.354818 0.0246891 0.0202029
0.341222 0.0289464 0.0294347
0.335103 0.0331579 0.0366217
0.330587 0.036759 0.0421759
0.327062 0.0395056 0.0464942
0.32459 0.0415045 0.0496681
0.322469 0.0428931 0.0519722
0.320912 0.0439307 0.0536812
0.319829 0.0447547 0.0549935
0.319036 0.0453498 0.0559548
0 0.249958 0
0 0.252979 0
0 0.257237 0
0 0.263005 0
0.0182345 0.26836 0
0.0612345 0.271916 0
0.111513 0.273243 0
0.165408 0.271946 0
0.230961 0.26836 0
0.309804 0.261509 0
0.392844 0.254353 0
0.470298 0.247456 0
0.540093 0.243473 0
0.601175 0.242298 0
0.653162 0.242985 0
0.696056 0.244282 0
0.731182 0.245319 0
0.75877 0.244175 0
0.777508 0.240665 0
0.786587 0.233829 0
0.785809 0.223728 0
0.774334 0.210071 0
0.752163 0.193774 0
0.719982 0.175906 0
0.677378 0.157351 0.0192416
0.630213 0.132921 0.0276493
0.577646 0.107286 0.0311437
0.522469 0.0861219 0.0367437
0.470527 0.0711528 0.0428931
0.429892 0.0622263 0.047425
0.398795 0.0565957 0.0507668
0.376165 0.0532082 0.0532387
0.359808 0.0511482 0.0547799
0 0.305501 0
0 0.310002 0
0 0.315755 0
0 0.323308 0
0.0254673 0.330922 0
0.0675822 0.336355 0
0.116228 0.340154 0
0.16788 0.341466 0
0.231388 0.340124 0
0.30396 0.337026 0
0.387289 0.331273 0
0.470176 0.326467 0
0.545312 0.322637 0
0.611246 0.321096 0
0.668025 0.321828 0
0.716289 0.32372 0
0.75697 0.325841 0
0.79147 0.327474 0
0.817746 0.327123 0
0.837415 0.324773 0
0.849638 0.320012 0
0.855283 0.312917 0
0.855802 0.304402 0
0.851759 0.294926 0
0.844297 0.284962 0.0189822
0.835935 0.275944 0.0382696
0.827253 0.267994 0.0523232
0.81854 0.26096 0.0631418
0.8112 0.255634 0.0708629
0.805035 0.251072 0.0753948
0.800092 0.248051 0.0795453
0.796139 0.245472 0.0826123
0.793378 0.243503 0.0843214
0 0.365637 0
0 0.370871 0
0 0.378042 0
0.0083772 0.387335 0
0.0419013 0.396689 0
0.0843214 0.404547 0
0.128618 0.410574 0
0.177981 0.413611 0
0.239506 0.414267 0
0.310658 0.413352 0
0.386725 0.411185 0
0.470329 0.406882 0
0.549355 0.405005 0
0.619394 0.404395 0
0.679744 0.404974 0
0.73164 0.407446 0
0.776135 0.410498 0
0.814267 0.413291 0
0.845624 0.415671 0
0.870008 0.416022 0
0.88893 0.414984 0
0.901915 0.412467 0
0.910704 0.40856 0
0.915831 0.403937 0.00144961
0.918379 0.399084 0.0280919
0.919402 0.39443 0.0500954
0.919738 0.390738 0.0676738
0.919142 0.387289 0.0814984
0.918517 0.384466 0.0908064
0.917861 0.382269 0.0979629
0.917067 0.380652 0.102617
0.916533 0.3794 0.106172
0.916152 0.378454 0.108736
0 0.428809 0
0 0.435172 0
0.0110933 0.443458 0
0.0360723 0.454047 0
0.0698863 0.464775 0
0.109392 0.473884 0
0.148775 0.481544 0
0.197101 0.486717 0.000198367
0.256779 0.489311 0.00694286
0.32549 0.489265 0.010132
0.400076 0.488823 0.00682078
0.476463 0.487236 0.0116732
0.555245 0.48539 0
0.627192 0.486168 0
0.689952 0.488045 0
0.744213 0.490944 0
0.790402 0.494224 0
0.830411 0.498116 0
0.86421 0.501808 0
0.891249 0.504036 0
0.912474 0.505043 0
0.928985 0.505287 0
0.94139 0.504417 0
0.950164 0.502846 0.0229496
0.956405 0.500832 0.0499733
0.960678 0.49897 0.0727398
0.963836 0.497246 0.0919661
0.965805 0.49575 0.105089
0.967208 0.494469 0.114748
0.968017 0.493523 0.1205
0.968612 0.492775 0.125338
0.969085 0.492195 0.128862
0.969406 0.491753 0.131365
0.0220188 0.49395 0.000366217
0.0322728 0.500542 0.000549325
0.0486152 0.509422 0.0016022
0.0742962 0.520958 0.00381476
0.106844 0.532479 0.00784314
0.139712 0.542977 0.0130922
0.177203 0.551598 0.0197147
0.224628 0.557565 0.026566
0.282963 0.561349 0.0336614
0.349889 0.56289 0.0384222
0.421469 0.562631 0.0373846
0.494682 0.563027 0.0287633
0.56701 0.561273 0.055024
0.637629 0.562661 0.00979629
0.700557 0.56524 0
0.755062 0.568826 0
0.80235 0.573083 0
0.842847 0.5776 0
0.877012 0.581689 0
0.905013 0.585092 0
0.927459 0.587564 0
0.945373 0.589441 0.00753796
0.958618 0.590021 0.0419165
0.969055 0.590265 0.0732738
0.976547 0.590112 0.101137
0.982086 0.589715 0.121035
0.985809 0.589319 0.135714
0.98883 0.588815 0.1458
0.990753 0.588373 0.153765
0.992264 0.587961 0.158709
0.993317 0.58764 0.162783
0.994064 0.587396 0.165759
0.994598 0.587213 0.16788
0.067216 0.558465 0.0368963
0.0788739 0.565682 0.0374762
0.0955367 0.575021 0.0380865
0.118456 0.586786 0.0401465
0.144289 0.598672 0.0432288
0.173983 0.60943 0.0478523
0.211887 0.618112 0.0533913
0.259861 0.624811 0.0603647
0.316594 0.629221 0.0669871
0.380774 0.630976 0.0715496
0.449836 0.631693 0.0721904
0.520043 0.631861 0.0656138
0.587564 0.633173 0.0528115
0.652628 0.631724 0.0935836
0.71371 0.635111 0.0459602
0.767361 0.639078 0.0121462
0.813443 0.64332 0
0.853239 0.648127 0
0.887098 0.652689 0.000366217
0.914916 0.656764 0.0229648
0.937255 0.66006 0.0544747
0.955001 0.662821 0.0912642
0.968368 0.664408 0.122484
0.978531 0.665736 0.148836
0.986313 0.666529 0.168841
0.991714 0.666667 0.183764
0.996033 0.666896 0.195239
0.998962 0.667048 0.204517
1 0.667109 0.21062
1 0.66714 0.215503
1 0.667155 0.21912
1 0.66717 0.221744
1 0.667155 0.223438
0.116564 0.621271 0.0798352
0.125826 0.628138 0.0798657
0.139727 0.637858 0.0805829
0.158434 0.649485 0.0822766
0.182956 0.660853 0.0848859
0.213626 0.670848 0.0881666
0.252842 0.6795 0.0931716
0.300145 0.686198 0.0986191
0.355657 0.690501 0.103792
0.417685 0.692348 0.107271
0.483528 0.693401 0.107988
0.550042 0.693782 0.103655
0.61355 0.69427 0.0934462
0.672908 0.695537 0.106462
0.730449 0.695903 0.126055
0.781079 0.69984 0.0993057
0.825574 0.704601 0.084123
0.863478 0.709484 0.0851148
0.895903 0.714199 0.101518
0.922255 0.718654 0.127337
0.943282 0.722362 0.156252
0.959655 0.725231 0.184482
0.972473 0.727733 0.209628
0.981918 0.72929 0.230549
0.989212 0.730678 0.24802
0.99469 0.731655 0.261494
0.998245 0.732067 0.271992
1 0.732555 0.279576
1 0.732937 0.28574
1 0.733181 0.290059
1 0.733349 0.292851
1 0.733471 0.295171
1 0.733532 0.296803
0.158434 0.680095 0.121111
0.16701 0.686732 0.120867
0.180316 0.69575 0.120699
0.200259 0.706493 0.121553
0.22591 0.717006 0.123323
0.25771 0.726375 0.125628
0.297047 0.734356 0.129137
0.343999 0.740414 0.132937
0.397955 0.744274 0.136751
0.457191 0.746059 0.139025
0.51986 0.747097 0.139635
0.582666 0.747463 0.13724
0.642496 0.74789 0.131548
0.698207 0.749462 0.124926
0.748898 0.749325 0.16846
0.796628 0.751705 0.172
0.838071 0.756344 0.167712
0.87335 0.761151 0.174823
0.903349 0.765835 0.193088
0.927657 0.770397 0.218418
0.946914 0.774258 0.246067
0.961868 0.77734 0.272892
0.973404 0.779721 0.296727
0.982086 0.781933 0.317266
0.98851 0.783429 0.333776
0.993225 0.784634 0.346761
0.996857 0.785565 0.356588
0.999313 0.786267 0.364492
1 0.78677 0.369802
1 0.787106 0.374029
1 0.787289 0.377066
1 0.787396 0.379278
1 0.787442 0.380728
0.19971 0.733471 0.160372
0.209339 0.739666 0.159762
0.224186 0.748104 0.159274
0.244968 0.757778 0.159548
0.271427 0.766995 0.16054
0.30341 0.774899 0.161501
0.342596 0.781735 0.163912
0.388678 0.786999 0.166705
0.441032 0.790219 0.169421
0.497581 0.791791 0.171389
0.557 0.792432 0.172427
0.61593 0.792752 0.171954
0.672435 0.793271 0.170443
0.723903 0.794308 0.169451
0.770275 0.794553 0.19266
0.813169 0.79469 0.233326
0.850965 0.798917 0.236774
0.883299 0.803449 0.25069
0.910246 0.808011 0.273198
0.932418 0.812436 0.301869
0.949706 0.816358 0.331289
0.962966 0.819547 0.359274
0.972976 0.822217 0.3841
0.980728 0.824414 0.404685
0.986313 0.826139 0.421424
0.990311 0.827451 0.434455
0.993332 0.82855 0.444389
0.995544 0.829328 0.452125
0.997223 0.829908 0.457389
0.998215 0.830274 0.461555
0.998886 0.830427 0.464454
0.999466 0.83061 0.466621
0.999893 0.830762 0.467903
0.242191 0.780331 0.198734
0.252811 0.786236 0.197681
0.268788 0.793774 0.197116
0.28983 0.801709 0.196765
0.316228 0.809461 0.19675
0.348623 0.816297 0.197436
0.387411 0.821927 0.199008
0.432227 0.825986 0.200793
0.482887 0.828351 0.203052
0.537377 0.829404 0.205646
0.593927 0.829755 0.207858
0.64918 0.829587 0.209796
0.701656 0.82974 0.212467
0.74963 0.830854 0.216968
0.792309 0.832013 0.231373
0.829786 0.83064 0.273701
0.864012 0.833173 0.301289
0.893385 0.837537 0.321248
0.917266 0.841917 0.348653
0.936568 0.84596 0.381094
0.951766 0.849867 0.413611
0.9635 0.853437 0.443793
0.972137 0.856107 0.469551
0.978561 0.858244 0.490349
0.983383 0.860166 0.507301
0.98703 0.861662 0.520272
0.98941 0.862577 0.529931
0.991485 0.863401 0.537148
0.992737 0.864073 0.542794
0.993759 0.864515 0.546822
0.994553 0.864866 0.549386
0.995071 0.86511 0.551507
0.995407 0.865263 0.552926
0.284153 0.8206 0.234592
0.295659 0.825589 0.23328
0.311925 0.831693 0.232059
0.333074 0.838422 0.231495
0.359487 0.844816 0.23154
0.391974 0.850248 0.232105
0.430304 0.854322 0.233402
0.474342 0.857145 0.235477
0.523751 0.858763 0.238499
0.576028 0.85919 0.241871
0.62887 0.859144 0.245991
0.68069 0.858747 0.251026
0.729137 0.858991 0.257969
0.773373 0.85977 0.267399
0.812558 0.86099 0.280674
0.846296 0.860319 0.322362
0.876448 0.859983 0.36257
0.902632 0.864134 0.388388
0.923964 0.868391 0.42034
0.940414 0.872358 0.455817
0.953811 0.876234 0.491035
0.963836 0.879774 0.522011
0.971633 0.882811 0.548226
0.977249 0.885023 0.569314
0.981399 0.887022 0.585748
0.984176 0.88838 0.59826
0.986358 0.889586 0.607675
0.988037 0.890471 0.614847
0.989319 0.891127 0.61976
0.99025 0.8916 0.623682
0.990799 0.891966 0.626596
0.991226 0.892149 0.628504
0.99147 0.892256 0.62948
0.324117 0.853223 0.266224
0.336721 0.857755 0.26569
0.352911 0.862577 0.264591
0.374151 0.867811 0.264408
0.400626 0.872496 0.264408
0.433112 0.87657 0.265538
0.470863 0.879744 0.267552
0.51426 0.881315 0.270451
0.56144 0.881987 0.274174
0.611337 0.882048 0.27953
0.661204 0.881651 0.285924
0.709255 0.881239 0.294209
0.754131 0.881376 0.305364
0.794781 0.882063 0.319707
0.830701 0.883268 0.338216
0.861326 0.883009 0.376852
0.887617 0.882445 0.418341
0.91046 0.884581 0.451514
0.929534 0.888747 0.486046
0.944488 0.892973 0.523445
0.9561 0.896925 0.559915
0.964782 0.900481 0.59115
0.971481 0.903502 0.616922
0.976501 0.905928 0.637278
0.980209 0.908049 0.653361
0.982925 0.909697 0.665324
0.984848 0.910704 0.673899
0.986297 0.911635 0.680507
0.987457 0.912291 0.685496
0.988235 0.912779 0.689067
0.988861 0.913161 0.691264
0.989258 0.91342 0.693172
0.989487 0.913573 0.694362
0.362203 0.879103 0.295796
0.374609 0.882399 0.295094
0.391577 0.886275 0.295094
0.412528 0.890028 0.295094
0.438804 0.893416 0.295842
0.470512 0.896254 0.29723
0.508003 0.898253 0.300175
0.549859 0.899504 0.304067
0.595392 0.899596 0.309743
0.642573 0.899229 0.316625
0.689021 0.898619 0.32578
0.73402 0.898253 0.337652
0.775525 0.898314 0.352758
0.813169 0.899046 0.371832
0.845792 0.900069 0.394293
0.873625 0.900267 0.4309
0.897612 0.899886 0.473732
0.917723 0.900664 0.509148
0.934493 0.904494 0.544015
0.947936 0.908614 0.581277
0.958251 0.912612 0.617365
0.9664 0.916579 0.648661
0.972427 0.919631 0.673472
0.976776 0.922164 0.692851
0.980392 0.924315 0.707729
0.982712 0.925872 0.718761
0.98468 0.927169 0.727047
0.986023 0.928145 0.73341
0.986954 0.928908 0.737804
0.987488 0.929274 0.740978
0.987991 0.929641 0.743374
0.988357 0.929915 0.745113
0.988571 0.930083 0.746136
0.397177 0.898436 0.322393
0.40943 0.900862 0.322042
0.425788 0.903624 0.322301
0.446799 0.906416 0.322911
0.47248 0.909026 0.324437
0.50399 0.910994 0.326802
0.540185 0.9122 0.330587
0.580835 0.912566 0.335607
0.624201 0.912551 0.342626
0.66891 0.912032 0.352056
0.712581 0.911116 0.3635
0.754681 0.910796 0.378744
0.793408 0.911025 0.39736
0.827985 0.911681 0.419425
0.858335 0.912612 0.445182
0.883909 0.91342 0.480949
0.905531 0.913207 0.523629
0.923766 0.913298 0.562768
0.938979 0.916396 0.591775
0.951247 0.920684 0.628428
0.96083 0.924804 0.662882
0.968093 0.928725 0.693263
0.973816 0.932021 0.717556
0.978073 0.934691 0.736019
0.981476 0.936904 0.750149
0.983673 0.938476 0.760342
0.985428 0.939803 0.768109
0.986725 0.94078 0.773922
0.987549 0.941543 0.777981
0.98822 0.942077 0.781064
0.988586 0.942336 0.783154
0.988922 0.94255 0.78471
0.989136 0.942702 0.785687
0.427054 0.912322 0.345129
0.439399 0.914076 0.345357
0.455848 0.916365 0.346197
0.476234 0.918379 0.347539
0.50161 0.920119 0.349279
0.532082 0.921309 0.352514
0.567224 0.922042 0.357229
0.606317 0.92221 0.363836
0.647745 0.921813 0.372534
0.690059 0.921141 0.383337
0.732036 0.920516 0.397772
0.771649 0.920241 0.415229
0.807568 0.920134 0.436088
0.840085 0.920897 0.461219
0.868391 0.922301 0.48896
0.892378 0.923171 0.523949
0.911971 0.92311 0.565133
0.928634 0.923659 0.6038
0.942641 0.925658 0.632197
0.954025 0.92958 0.665095
0.963073 0.933867 0.6981
0.970108 0.937942 0.727367
0.975433 0.941329 0.750774
0.979751 0.944198 0.768475
0.98262 0.946334 0.781582
0.985061 0.948119 0.79147
0.986648 0.949355 0.798627
0.987884 0.950332 0.804059
0.988876 0.951095 0.807797
0.989441 0.95169 0.810758
0.989914 0.952087 0.812863
0.990326 0.952392 0.814115
0.990509 0.95256 0.815
0.452415 0.922133 0.364492
0.464637 0.923781 0.365255
0.480308 0.925231 0.366155
0.500526 0.926894 0.3682
0.525185 0.928176 0.370626
0.555108 0.928985 0.374716
0.589181 0.929427 0.380194
0.626902 0.929183 0.387594
0.666651 0.928573 0.39765
0.707469 0.927886 0.410651
0.74725 0.927306 0.426642
0.784314 0.926772 0.44593
0.818723 0.927062 0.469352
0.849531 0.927932 0.495628
0.875975 0.929259 0.524773
0.898604 0.930373 0.558068
0.917342 0.93077 0.598672
0.93283 0.931426 0.636194
0.945785 0.933028 0.666148
0.956634 0.936477 0.693278
0.965255 0.940856 0.724773
0.972045 0.944839 0.75259
0.977249 0.948333 0.775051
0.981186 0.951247 0.792111
0.984283 0.953597 0.804898
0.986603 0.955352 0.814511
0.988205 0.956649 0.821317
0.989471 0.957687 0.826246
0.990417 0.95845 0.829969
0.991135 0.958999 0.83241
0.991623 0.959411 0.834363
0.991958 0.959701 0.835767
0.992065 0.959869 0.836606
0.47248 0.929198 0.380545
0.484443 0.930495 0.381521
0.499947 0.931594 0.382467
0.519875 0.932815 0.384833
0.544335 0.933852 0.388144
0.573129 0.934493 0.392584
0.606455 0.934432 0.3991
0.642741 0.934066 0.407584
0.681514 0.933455 0.418555
0.720729 0.932738 0.4327
0.758816 0.932021 0.45005
0.794446 0.931716 0.470832
0.827222 0.932158 0.495552
0.856641 0.932937 0.522835
0.881971 0.934386 0.552361
0.903639 0.935866 0.584955
0.92137 0.936324 0.624659
0.936263 0.937087 0.660761
0.948363 0.938582 0.691859
0.95874 0.941588 0.714229
0.967056 0.945907 0.744472
0.973617 0.949935 0.770825
0.978821 0.953582 0.792721
0.982925 0.956634 0.809461
0.985763 0.958938 0.821942
0.988113 0.960784 0.831113
0.989715 0.96199 0.837461
0.991012 0.963012 0.842206
0.99176 0.96379 0.845884
0.992462 0.964355 0.84828
0.992935 0.964767 0.850141
0.993271 0.965057 0.851484
0.993423 0.965209 0.852247
0.488396 0.934005 0.392935
0.500298 0.935134 0.393927
0.51548 0.936034 0.395499
0.534874 0.937255 0.398337
0.558724 0.937881 0.402106
0.58706 0.938155 0.406943
0.619379 0.937987 0.413886
0.654932 0.937575 0.423117
0.692515 0.93695 0.43508
0.730495 0.936156 0.450004
0.767361 0.935592 0.468391
0.802045 0.935393 0.490333
0.83357 0.935729 0.515755
0.861906 0.936599 0.543496
0.886534 0.93817 0.573938
0.90753 0.940078 0.605295
0.924498 0.940459 0.643946
0.938766 0.941344 0.679393
0.950561 0.942718 0.710506
0.960616 0.945785 0.731548
0.968475 0.94966 0.758679
0.97499 0.953689 0.784176
0.980224 0.957549 0.805768
0.984146 0.960525 0.822217
0.987045 0.962798 0.833875
0.989303 0.964645 0.842725
0.991028 0.966033 0.849271
0.992065 0.966903 0.853925
0.992996 0.967681 0.85716
0.993652 0.968246 0.859648
0.994125 0.968658 0.861448
0.994476 0.968963 0.86273
0.994629 0.969116 0.863447
0.50042 0.937453 0.402518
0.512078 0.93843 0.403967
0.527443 0.939422 0.405997
0.546288 0.940154 0.408667
0.569589 0.940597 0.412665
0.597726 0.940917 0.41828
0.629664 0.940658 0.425467
0.664439 0.940261 0.435309
0.700999 0.939559 0.448051
