luts/Cliff-SLog3.cube
TITLE "Generated by Resolve"
LUT_3D_SIZE 5
0 0 0.00285344
0.119829 0 0
0.373831 0 0
0.363561 0.0128481 0
0.200092 0.090013 0.0767681
0 0.0904097 0
0.0992294 0.0799573 0
0.460456 0.0698558 0
0.603204 0.114046 0
0.532891 0.18851 0.0513924
0 0.385412 0
0.0984512 0.42533 0
0.487511 0.42974 0
0.826139 0.466667 0
0.901701 0.521263 0.00531014
0.22742 0.779049 0.211261
0.34229 0.823026 0.207462
0.658106 0.836423 0.222187
0.918059 0.845075 0.343755
0.989914 0.865263 0.472099
0.428351 0.935378 0.427634
0.572183 0.94844 0.44419
0.818662 0.94493 0.550454
0.957366 0.955001 0.76286
0.996033 0.972808 0.858305
0 0 0.131838
0.114855 0 0.121889
0.436774 0 0
0.469398 0 0
0.323964 0.0646525 0.0576944
0 0.0899214 0.0955673
0.0872053 0.0881361 0.0947585
0.525154 0.0632486 0
0.703502 0.120714 0
0.669352 0.184558 0.0445869
0 0.406897 0.0427253
0.0718242 0.452827 0.051133
0.508141 0.448524 0.0392309
0.884779 0.475044 0
0.965896 0.528557 0.0813458
0.192508 0.807477 0.291493
0.310536 0.85037 0.285328
0.647776 0.854658 0.304295
0.92285 0.855161 0.437949
0.993561 0.874601 0.561456
0.393866 0.954787 0.517739
0.55407 0.96257 0.542092
0.817411 0.95256 0.645167
0.959991 0.963897 0.816999
0.99913 0.981155 0.897276
0 0 0.375036
0.0741741 0 0.431968
0.395132 0 0.321202
0.542779 0 0.114
0.45391 0.0339971 0.127962
0 0.0746319 0.42826
0.075639 0.0763409 0.50811
0.525933 0.0451209 0.42829
0.80647 0.016434 0.235203
0.824155 0.0982071 0.226658
0 0.415137 0.359228
0.0381628 0.467033 0.396963
0.506416 0.470314 0.387869
0.930083 0.499763 0.367117
1 0.553063 0.431022
0.149416 0.832227 0.531716
0.251942 0.875227 0.534752
0.617838 0.874571 0.547112
0.916854 0.869017 0.64538
0.989731 0.889815 0.726757
0.396338 0.967437 0.708415
0.549966 0.97348 0.727062
0.819821 0.963058 0.793759
0.966491 0.977768 0.894514
1 0.994202 0.950088
0 0 0.389776
0.0496376 0 0.504112
0.283085 0 0.524254
0.467277 0.0110323 0.382605
0.440406 0.0827192 0.293217
0 0.0781567 0.551186
0.0848859 0.085359 0.697139
0.444434 0.0675822 0.746792
0.763012 0.110399 0.660197
0.827832 0.182162 0.588479
0.0238193 0.41352 0.66099
0.102373 0.464042 0.767773
0.499825 0.482109 0.845457
0.930465 0.507881 0.822873
1 0.560189 0.80032
0.202319 0.838102 0.785306
0.29778 0.876371 0.818296
0.61622 0.88333 0.824491
0.906447 0.886061 0.843412
0.981003 0.908049 0.872282
0.460288 0.966506 0.870298
0.6103 0.970932 0.881819
0.842832 0.971267 0.908385
0.975525 0.990112 0.960235
1 1 0.991257
0.000579843 0.000946059 0.250172
0.0486305 0.00257877 0.391745
0.219806 0.00218204 0.503258
0.390616 0.0435187 0.418631
0.381262 0.114443 0.334676
0.0339666 0.0915236 0.476097
0.101488 0.101854 0.673411
0.39585 0.100908 0.794324
0.721202 0.133608 0.75938
0.800916 0.198459 0.712993
0.0916609 0.417258 0.724727
0.160678 0.469551 0.853193
0.513939 0.498894 0.949203
0.919493 0.523354 0.956405
1 0.570947 0.945129
0.257832 0.838315 0.876493
0.350561 0.874632 0.916167
0.648814 0.883757 0.925017
0.906386 0.895079 0.927596
0.979126 0.917556 0.93547
0.514504 0.962997 0.930541
0.656809 0.968322 0.938582
0.865568 0.974151 0.953536
0.982132 0.997482 0.986999
1 1 1
