luts/Cliff-DLog.cube
TITLE "Generated by Resolve"
LUT_3D_SIZE 9
0 0 0.000244144
0.0358587 0 0
0.115511 0 0
0.256016 0 0
0.416724 0.0312963 0
0.582437 0.0894484 0
0.722957 0.255238 0
0.834211 0.425025 0
0.894179 0.52639 0
0 0.0307164 0
0.0324559 0.0265049 0
0.113466 0.0227817 0
0.26183 0.0347448 0
0.444892 0.0615854 0
0.604456 0.122835 0
0.736721 0.277928 0
0.841459 0.438804 0
0.899184 0.536004 0
0 0.0955978 0
0.0257267 0.0956741 0
0.109651 0.0906386 0
0.261891 0.0894331 0
0.465812 0.104723 0
0.628946 0.170871 0
0.755245 0.311925 0
0.852277 0.459876 0
0.905943 0.550454 0
0 0.225986 0
0.0396124 0.232273 0
0.112581 0.235019 0
0.263447 0.231052 0
0.488365 0.232395 0
0.668711 0.286168 0
0.792279 0.395911 0
0.876387 0.513726 0
0.922301 0.588296 0.0169833
0.105837 0.440635 0
0.139483 0.446448 0
0.188281 0.451835 0
0.309117 0.456123 0
0.515099 0.459388 0
0.714305 0.487343 0
0.84123 0.549432 0
0.914992 0.620752 0
0.951965 0.668742 0.087541
0.344289 0.680735 0.0977493
0.366461 0.68217 0.0996262
0.398642 0.683513 0.101686
0.477409 0.685679 0.103441
0.615579 0.689876 0.0896162
0.773358 0.699794 0.0995956
0.888853 0.727367 0.100511
0.951431 0.760037 0.189609
0.978332 0.783429 0.261845
0.639185 0.841718 0.223957
0.647761 0.841733 0.224598
0.660914 0.841672 0.225376
0.694682 0.842069 0.228199
0.76228 0.843931 0.238483
0.850965 0.845914 0.312474
0.927764 0.857862 0.378042
0.969299 0.872892 0.463218
0.98674 0.884092 0.52546
0.82417 0.916075 0.432547
0.826932 0.916197 0.434882
0.831464 0.916365 0.438544
0.843412 0.916732 0.448676
0.870527 0.91841 0.476143
0.911482 0.919509 0.553491
0.952041 0.926238 0.643595
0.977539 0.937179 0.715267
0.989059 0.945006 0.758206
0.89604 0.94667 0.622736
0.897261 0.946822 0.62475
0.899367 0.947066 0.627558
0.90518 0.947692 0.636576
0.918975 0.949447 0.659358
0.942199 0.951659 0.716091
0.96791 0.95729 0.783001
0.986923 0.966293 0.829023
0.995911 0.971939 0.853712
0 0 0.0657664
0.0317082 0 0.0633249
0.12105 0 0.0393683
0.283711 0 0
0.461769 0.00489815 0
0.616602 0.0902876 0
0.722377 0.254337 0
0.833906 0.424491 0
0.893935 0.52604 0
0 0.0277867 0.0479744
0.0247654 0.0268101 0.0439765
0.124575 0.0187991 0.0183413
0.29514 0.015259 0
0.489265 0.0400549 0
0.634379 0.122759 0
0.7364 0.277241 0
0.841199 0.438285 0
0.899016 0.535653 0
0 0.0984665 0.00856031
0.0147402 0.0999924 0.00856031
0.10695 0.094667 0.00381476
0.289433 0.0802014 0
0.502068 0.0944991 0
0.651545 0.170779 0
0.754864 0.311177 0
0.852033 0.459403 0
0.905791 0.550118 0
0 0.231281 0
0.0307622 0.238087 0
0.107485 0.240742 0
0.266514 0.235035 0
0.501305 0.233356 0
0.671641 0.285664 0
0.79205 0.395346 0
0.87631 0.513436 0
0.922179 0.588022 0.0168154
0.104936 0.440146 0
0.138781 0.445991 0
0.187625 0.451423 0
0.308629 0.455741 0
0.514885 0.459007 0
0.714183 0.486976 0
0.841154 0.549142 0
0.914977 0.620584 0
0.951949 0.66862 0.0873732
0.343755 0.680583 0.0976425
0.365972 0.682048 0.0995193
0.398199 0.683375 0.10161
0.477119 0.685603 0.10341
0.615412 0.689754 0.0895705
0.773281 0.699687 0.0994583
0.888823 0.72726 0.100343
0.951415 0.75996 0.189471
0.978317 0.783352 0.261707
0.638972 0.841688 0.223896
0.647593 0.841718 0.224537
0.660731 0.841627 0.22533
0.69453 0.842023 0.228138
0.762203 0.843915 0.238422
0.850919 0.845884 0.312383
0.927749 0.857832 0.377935
0.969314 0.872877 0.463127
0.986725 0.884062 0.525383
0.824094 0.91606 0.432456
0.826886 0.916182 0.434791
0.831403 0.91635 0.438468
0.843351 0.916716 0.4486
0.870481 0.918395 0.476066
0.911467 0.919509 0.553414
0.952041 0.926238 0.643534
0.977539 0.937163 0.715221
0.989059 0.944991 0.758175
0.89601 0.946654 0.622675
0.897231 0.946807 0.624674
0.899321 0.947051 0.627482
0.90515 0.947677 0.636515
0.918944 0.949447 0.659312
0.942184 0.951659 0.71606
0.96791 0.95729 0.783001
0.986908 0.966293 0.829023
0.995911 0.971939 0.853712
0 0 0.14609
0.0239719 0 0.153704
0.109163 0 0.14226
0.288426 0 0.0567788
0.497368 0 0
0.669108 0.0975662 0
0.796002 0.255909 0
0.844083 0.424063 0
0.893614 0.525444 0
0 0.0203861 0.147265
0.0205386 0.0202182 0.153094
0.113191 0.0147402 0.138064
0.313787 0 0.040177
0.521172 0.0400092 0
0.68983 0.128557 0
0.805066 0.278752 0
0.847532 0.437736 0
0.898726 0.535073 0
0 0.0939956 0.10634
0.00895705 0.0981003 0.107912
0.0962997 0.0968948 0.101442
0.298528 0.0888685 0.0415351
0.538369 0.101961 0
0.709773 0.175036 0
0.816052 0.313176 0
0.852125 0.458671 0
0.905547 0.549584 0
0 0.239612 0.0364538
0.0115053 0.248341 0.0404212
0.0928511 0.252125 0.0445716
0.27219 0.24361 0.0352178
0.539162 0.237705 0
0.731746 0.289998 0
0.832883 0.397604 0
0.876127 0.512901 0
0.921996 0.587579 0.016556
0.0866102 0.459541 0.0131533
0.1243 0.465965 0.0179141
0.174029 0.471458 0.024567
0.302693 0.473503 0.0330968
0.527718 0.470298 0.00645457
0.732525 0.491524 0
0.841001 0.548653 0
0.914961 0.62031 0
0.951919 0.668406 0.0871443
0.342901 0.680354 0.0974594
0.365148 0.681804 0.0993668
0.397467 0.683162 0.101457
0.476631 0.685466 0.10338
0.615106 0.689555 0.0894789
0.773144 0.699489 0.0992447
0.888762 0.727092 0.100023
0.951385 0.759823 0.189212
0.978302 0.783246 0.261479
0.638636 0.841642 0.223804
0.647379 0.841672 0.22446
0.66041 0.841581 0.225269
0.694286 0.841978 0.228046
0.762066 0.843885 0.238315
0.850828 0.845838 0.312215
0.927733 0.857771 0.377783
0.969314 0.872847 0.462989
0.986725 0.884031 0.525231
0.823987 0.916045 0.432319
0.826795 0.916167 0.434638
0.831296 0.916335 0.438331
0.843259 0.916701 0.448447
0.87042 0.918364 0.475929
0.911437 0.919493 0.553277
0.952026 0.926207 0.643442
0.977539 0.937148 0.715145
0.989059 0.944976 0.758099
0.895964 0.946639 0.622553
0.8972 0.946792 0.624552
0.899275 0.947036 0.627375
0.905104 0.947677 0.636454
0.918898 0.949432 0.659236
0.942168 0.951644 0.715969
0.96791 0.95729 0.782986
0.986908 0.966293 0.829007
0.995911 0.971939 0.853712
0 0 0.261097
0.00900282 0 0.286
0.0843519 0 0.291646
0.248188 0 0.257206
0.49337 0 0.136187
0.719219 0.0250248 0
0.858671 0.267811 0.0624857
0.946838 0.434623 0.101061
0.980774 0.535393 0.138277
0 0.0039826 0.296376
0.010132 0.00389105 0.325017
0.0924849 0.000396735 0.329564
0.279744 0 0.283742
0.544976 0 0.13817
0.739879 0.0905623 0.0183871
0.869062 0.290288 0.0599069
0.950591 0.448692 0.100511
0.982361 0.544701 0.139223
0 0.0784161 0.283131
0.00674449 0.0827649 0.30695
0.087541 0.0828412 0.316716
0.288914 0.0724041 0.280964
0.577951 0.0387579 0.123964
0.753506 0.181598 0.0589761
0.881254 0.323568 0.0546731
0.955139 0.469718 0.099855
0.984756 0.55935 0.141176
0 0.232319 0.217166
0.00332647 0.244419 0.226017
0.0708324 0.252445 0.229648
0.262272 0.248051 0.215167
0.565286 0.245624 0.12343
0.779385 0.298375 0.0368963
0.90135 0.407462 0.0415656
0.964492 0.524636 0.103716
0.989807 0.598032 0.149325
0.0413062 0.481254 0.157656
0.0845502 0.489372 0.158816
0.140642 0.496864 0.160571
0.28307 0.499855 0.164019
0.54551 0.488899 0.14435
0.784619 0.505272 0.0302739
0.913085 0.56408 0.0577859
0.972015 0.632532 0.134554
0.992721 0.678126 0.179187
0.308309 0.72018 0.180468
0.332067 0.721248 0.181796
0.367239 0.721752 0.183185
0.455177 0.720424 0.184771
0.615076 0.716884 0.176654
0.791897 0.717708 0.183444
0.91017 0.738491 0.176608
0.958923 0.763012 0.208331
0.978241 0.782895 0.260792
0.637583 0.841489 0.223545
0.646616 0.841505 0.224155
0.659495 0.841413 0.225086
0.693538 0.841794 0.227802
0.761669 0.843778 0.238041
0.850584 0.845701 0.311742
0.927657 0.857633 0.377325
0.969314 0.87274 0.462577
0.986694 0.883925 0.524804
0.823636 0.915984 0.431891
0.826535 0.916091 0.43418
0.830976 0.916274 0.437903
0.842985 0.91664 0.448035
0.870222 0.918318 0.475532
0.91133 0.919432 0.552926
0.951995 0.926146 0.643137
0.977508 0.937102 0.714916
0.989044 0.94493 0.757916
0.895796 0.946609 0.622202
0.897078 0.946746 0.624201
0.899107 0.947005 0.627054
0.904967 0.947631 0.636179
0.918791 0.949386 0.659022
0.942107 0.951614 0.71574
0.96788 0.95729 0.78294
0.986908 0.966293 0.828992
0.995911 0.971939 0.853712
0 0 0.363073
0 0 0.395636
0.0527352 0 0.430777
0.1906 0 0.414252
0.396719 0 0.363561
0.700816 0.0136568 0.347951
0.91281 0.195651 0.340276
0.98262 0.440131 0.394934
1 0.550622 0.424781
0 0 0.385321
0 0 0.429648
0.0607309 0 0.469566
0.21915 0 0.46949
0.474678 0 0.433967
0.738964 0.0553902 0.371313
0.924498 0.226978 0.344823
0.978317 0.462623 0.404105
1 0.55967 0.425544
0 0.0486763 0.439109
0 0.0525521 0.493126
0.071458 0.0538949 0.533181
0.251072 0.0483558 0.535698
0.528267 0.054963 0.479133
0.775418 0.119814 0.388235
0.937789 0.272099 0.348409
0.979004 0.487434 0.409262
1 0.574075 0.426825
0 0.207095 0.443915
0.00648508 0.219837 0.483345
0.0716564 0.228351 0.513619
0.246723 0.229816 0.530861
0.556298 0.228412 0.483726
0.815808 0.265721 0.387823
0.933776 0.407187 0.376928
0.987671 0.538872 0.409155
1 0.611582 0.43154
0.0252079 0.474144 0.417456
0.0585184 0.484504 0.424704
0.109743 0.495155 0.430823
0.243824 0.505409 0.431815
0.532967 0.495399 0.409766
0.795743 0.513817 0.369406
0.931197 0.574411 0.382803
0.993637 0.644404 0.420264
1 0.692134 0.455451
0.237659 0.744839 0.416815
0.261021 0.746975 0.415702
0.302525 0.747814 0.415106
0.406027 0.745998 0.414466
0.592737 0.736629 0.409689
0.793729 0.732067 0.423682
0.92311 0.753231 0.449638
0.980774 0.783734 0.505348
1 0.806195 0.547265
0.59794 0.878279 0.475227
0.608759 0.877668 0.47631
0.624796 0.876493 0.477806
0.666728 0.874189 0.482673
0.747539 0.871168 0.496147
0.848234 0.870954 0.536645
0.928145 0.876875 0.606577
0.970474 0.890944 0.66009
0.98764 0.901289 0.693889
0.822553 0.915816 0.430808
0.825574 0.915908 0.432898
0.830014 0.916106 0.436637
0.842252 0.916548 0.446891
0.869642 0.918135 0.474342
0.911025 0.91928 0.551827
0.951919 0.925978 0.642313
0.977462 0.936934 0.714244
0.989013 0.944778 0.757336
0.895323 0.946487 0.62118
0.896651 0.946624 0.623148
0.898619 0.946899 0.626169
0.90454 0.947524 0.635203
0.918456 0.949264 0.658289
0.941924 0.951507 0.715038
0.967834 0.957259 0.782818
0.986877 0.966278 0.828931
0.995911 0.971939 0.853712
0 0 0.395285
0 0 0.395285
0.015671 0 0.469368
0.135668 0 0.503059
0.300465 0 0.454597
0.525704 0 0.464164
0.869627 0.199649 0.611627
1 0.407248 0.642588
1 0.524895 0.647105
0 0 0.3953
0 0 0.398489
0.0194095 0 0.472328
0.137957 0 0.502831
0.30132 0 0.454093
0.627375 0.0157626 0.560449
0.887984 0.231556 0.627695
1 0.424567 0.644953
1 0.536416 0.647654
0 0 0.426917
0 0 0.447166
0.0319371 0 0.535164
0.173632 0 0.594293
0.42681 7.62951e-05 0.612238
0.70457 0.0872969 0.63389
0.908644 0.277668 0.644984
1 0.450431 0.64715
1 0.553338 0.648005
0 0.157809 0.548989
0 0.168978 0.608911
0.06392 0.181704 0.679957
0.228046 0.18822 0.73283
0.520699 0.190814 0.727428
0.7776 0.249516 0.698528
0.935668 0.384955 0.662257
1 0.515465 0.649104
1 0.597696 0.649256
0.0271763 0.44181 0.627649
0.0610361 0.456489 0.652811
0.112795 0.469673 0.677302
0.24596 0.483192 0.706569
0.514824 0.481819 0.711589
0.783856 0.503365 0.681468
0.939986 0.56463 0.649775
1 0.639002 0.64686
1 0.704067 0.670726
0.231739 0.738094 0.667735
0.254368 0.74081 0.669337
0.289418 0.743648 0.670863
0.378317 0.74638 0.669993
0.55433 0.743694 0.661082
0.775311 0.738399 0.655512
0.91165 0.760662 0.663035
0.971313 0.792874 0.692058
0.993271 0.816617 0.717113
0.561913 0.889586 0.702541
0.572976 0.889235 0.702647
0.588861 0.888594 0.70277
0.631205 0.887221 0.703761
0.722438 0.881895 0.711406
0.835065 0.880888 0.728527
0.91989 0.888685 0.769436
0.964614 0.904555 0.803464
0.982467 0.915938 0.827222
0.809354 0.942275 0.792142
0.812696 0.942077 0.792996
0.817929 0.942107 0.794751
0.83238 0.942168 0.799512
0.863462 0.942977 0.811444
0.910201 0.947066 0.835111
0.95346 0.954757 0.87306
0.981064 0.965438 0.903212
0.993957 0.973404 0.92018
0.901411 0.967422 0.859205
0.902861 0.967559 0.860059
0.90515 0.967803 0.861433
0.911269 0.968383 0.864973
0.926055 0.970382 0.874983
0.951339 0.975494 0.894636
0.978637 0.983627 0.92256
0.996979 0.991028 0.946715
1 0.996277 0.957473
0 0 0.348898
0 0 0.348913
0 0 0.348913
0.0799268 0 0.491295
0.235065 0 0.496162
0.362615 0 0.433112
0.674372 0.0571145 0.602228
0.967239 0.354147 0.800427
1 0.500053 0.817395
0 0 0.348928
0 0 0.348928
0 0 0.348943
0.0819409 0 0.492302
0.235843 0 0.495918
0.362829 0 0.43299
0.753796 0.103166 0.680064
0.975067 0.376776 0.808026
1 0.51339 0.818341
0 0 0.348989
0 0 0.348989
0 0 0.351522
0.085359 0 0.49366
0.237095 0 0.495521
0.363165 0 0.432792
0.82472 0.170214 0.750652
0.984283 0.409735 0.817136
1 0.533669 0.819989
0 0.0513008 0.490684
0 0.0530861 0.493278
0.00967422 0.0581979 0.555764
0.160113 0.0692454 0.725246
0.424887 0.0842756 0.77023
0.707759 0.158633 0.795773
0.903975 0.317662 0.828824
0.995941 0.489052 0.82739
1 0.584573 0.820401
0.0210575 0.360159 0.648325
0.0359045 0.379736 0.696559
0.0899367 0.410239 0.769894
0.232258 0.436362 0.837293
0.500618 0.444038 0.865217
0.772702 0.467994 0.85919
0.923552 0.54229 0.842939
0.991608 0.629892 0.822232
1 0.685756 0.815503
0.215106 0.718181 0.808423
0.240177 0.72253 0.814588
0.277256 0.727611 0.821164
0.371374 0.733333 0.829892
0.551095 0.733196 0.831678
0.761929 0.733928 0.82594
0.901823 0.758618 0.816419
0.968826 0.791669 0.816464
0.993362 0.816724 0.823545
0.558999 0.887221 0.834485
0.570336 0.887053 0.834226
0.587152 0.886824 0.834043
0.630488 0.885664 0.833432
0.714748 0.884474 0.833265
0.822568 0.886992 0.838956
0.914565 0.895369 0.855955
0.960678 0.91162 0.874357
0.979248 0.923796 0.889296
0.810941 0.947356 0.876997
0.814237 0.947448 0.877546
0.81915 0.947677 0.878462
0.832334 0.948211 0.880766
0.862394 0.950164 0.887495
0.910948 0.954162 0.902632
0.956176 0.963684 0.923125
0.98381 0.974105 0.944915
0.996704 0.982086 0.95697
0.906859 0.975692 0.922728
0.908248 0.975875 0.923262
0.910521 0.976135 0.924147
0.916793 0.976654 0.926558
0.931777 0.978561 0.932982
0.957229 0.983749 0.945998
0.98468 0.992798 0.963867
1 1 0.981308
1 1 0.989212
0 0 0.2701
0 0 0.2701
0 0 0.2701
0.0204929 0 0.361044
0.18117 0 0.478325
0.309316 0 0.442557
0.3673 0.0262913 0.377554
0.810742 0.173342 0.738643
0.99678 0.407126 0.887861
0 0 0.27013
0 0 0.27013
0 0 0.27013
0.0228122 0 0.366018
0.181964 0 0.47834
0.309514 0 0.442435
0.36733 0.0263218 0.377493
0.860044 0.213428 0.788159
1 0.42739 0.894453
0 0 0.270176
0 0 0.270176
0 0 0.270191
0.0266423 0 0.373327
0.183246 0 0.478355
0.30985 0 0.442267
0.367407 0.0263676 0.377401
0.910475 0.27071 0.839323
1 0.457176 0.902129
0 0 0.270344
0 0 0.270329
0 0 0.270344
0.0374762 0 0.392462
0.186816 0 0.478492
0.310826 0 0.441718
0.769818 0.153033 0.783764
0.97258 0.396139 0.902373
1 0.528969 0.912123
0.0484474 0.276387 0.646174
0.0485542 0.277211 0.646555
0.0487068 0.278508 0.64715
0.173297 0.334737 0.847898
0.464561 0.357656 0.918608
0.750729 0.395102 0.929854
0.916976 0.485451 0.92874
0.989746 0.588632 0.920562
1 0.659663 0.90634
0.155917 0.663783 0.829557
0.185351 0.679805 0.853254
0.230274 0.694484 0.874907
0.338994 0.71017 0.900465
0.537377 0.71487 0.912505
0.756634 0.719432 0.910582
0.897658 0.745037 0.903548
0.960418 0.784192 0.895109
0.985 0.812345 0.892622
0.538323 0.882795 0.901503
0.551461 0.882795 0.901427
0.57145 0.882612 0.90135
0.619776 0.882002 0.900328
0.710994 0.881514 0.898695
0.822385 0.885313 0.899931
0.910124 0.897032 0.907149
0.95935 0.91368 0.914641
0.975998 0.927016 0.924208
0.812222 0.947555 0.918807
0.815412 0.947646 0.919066
0.820813 0.947814 0.919524
0.834913 0.948806 0.92108
0.86569 0.951156 0.925505
0.911742 0.957259 0.935103
0.956786 0.967224 0.950195
0.985092 0.978439 0.96524
0.998215 0.986358 0.974655
0.912123 0.977554 0.949828
0.913359 0.977813 0.950271
0.915541 0.978164 0.950927
0.921431 0.979187 0.952804
0.935683 0.981842 0.957519
0.960113 0.987991 0.967453
0.987549 0.997024 0.981842
1 1 0.995926
1 1 1
0 0 0.226596
0 0 0.226596
0 0 0.226596
0 0 0.226596
0.149966 0 0.45153
0.283345 0.00677501 0.435798
0.343618 0.0374609 0.376028
0.3458 0.0755932 0.325002
0.891966 0.257847 0.814893
0 0 0.226596
0 0 0.226596
0 0 0.226596
0 0 0.226596
0.150744 0 0.451713
0.283497 0.00682078 0.435706
0.343633 0.0374914 0.375982
0.345785 0.0756085 0.324971
0.924315 0.292058 0.848081
0 0 0.226596
0 0 0.226596
0 0 0.226596
0 0 0.226596
0.152026 0 0.452003
0.283742 0.00691234 0.435569
0.343664 0.0375372 0.375906
0.355184 0.0758526 0.333181
0.959655 0.340642 0.884184
0 0 0.226596
0 0 0.226596
0 0 0.226596
0 0 0.226596
0.15581 0 0.453071
0.28452 0.00714122 0.435126
0.343725 0.0376745 0.375677
0.887541 0.258015 0.848951
1 0.448829 0.931868
0.0466621 0.163775 0.552178
0.0468299 0.164645 0.553445
0.0471199 0.166522 0.55552
0.0817884 0.189761 0.697902
0.398795 0.229526 0.889448
0.707881 0.28542 0.923903
0.900771 0.407431 0.946944
0.98822 0.538735 0.951156
1 0.62092 0.94493
0.135149 0.593881 0.774395
0.135225 0.59411 0.774487
0.158495 0.633494 0.837385
0.287953 0.680842 0.913664
0.513512 0.693828 0.940444
0.749325 0.700771 0.941695
0.896651 0.729442 0.935164
0.961105 0.770108 0.927825
0.984115 0.802213 0.92137
0.502235 0.877928 0.926986
0.518227 0.87808 0.92723
0.541619 0.878172 0.927214
0.598245 0.877974 0.926253
0.700771 0.877928 0.924132
0.819104 0.882017 0.923415
0.908949 0.894667 0.927657
0.956405 0.912474 0.933333
0.977005 0.925216 0.938796
0.806516 0.946761 0.935775
0.810498 0.946883 0.93608
0.816159 0.947005 0.936385
0.831586 0.948074 0.937743
0.864408 0.950744 0.94107
0.912108 0.957397 0.94876
0.956359 0.968277 0.961196
0.985336 0.979889 0.973999
0.998581 0.98793 0.982193
0.912459 0.97792 0.961303
0.913848 0.97818 0.961639
0.916152 0.978561 0.962203
0.922194 0.979568 0.963699
0.936996 0.982498 0.967865
0.961593 0.988968 0.976654
0.988403 0.998734 0.989364
1 1 1
1 1 1
