luts/Cliff-CLog.cube
TITLE "Generated by Resolve"
LUT_3D_SIZE 33
0 0 0
0 0 0
0.0138552 0 0
0.0564279 0 0
0.0971084 0 0
0.135134 0 0
0.169635 0 0
0.202167 0 0
0.23241 0 0
0.259846 0 0
0.284138 0 0
0.305303 0 0
0.323415 0 0
0.339376 0 0
0.35227 0 0
0.362203 0 0
0.369558 0 0
0.374441 0 0
0.376883 0 0
0.377981 0.000183108 0
0.376715 0.000381476 0
0.373587 0.00047303 0
0.368185 0.00047303 0
0.360586 0.000503548 0
0.350835 0.00047303 0
0.339635 0.000244144 0
0.324163 0.00488289 0
0.303807 0.014847 0
0.280186 0.0259251 0
0.2533 0.0381933 0.0111543
0.22295 0.0522316 0.0324102
0.188464 0.0677958 0.0549477
0.154757 0.0831311 0.0756847
0 0 0
0 0 0
0.0149691 0 0
0.0575113 0 0
0.0980087 0 0
0.135851 0 0
0.17023 0 0
0.20264 0 0
0.232792 0 0
0.260151 0 0
0.284367 0 0
0.305486 0 0
0.323568 0 0
0.339483 0 0
0.352331 0 0
0.362249 0 0
0.369589 0 0
0.374456 0 0
0.376898 0 0
0.377981 0.000183108 0
0.376699 0.000381476 0
0.373587 0.00047303 0
0.36817 0.00047303 0
0.360571 0.000503548 0
0.35082 0.00047303 0
0.33962 0.000244144 0
0.324132 0.00488289 0
0.303792 0.014847 0
0.280171 0.0259251 0
0.253285 0.0382086 0.0111849
0.222919 0.0522469 0.0324254
0.188449 0.0678111 0.054963
0.154757 0.0831311 0.0756847
0 0.0135042 0
0 0.0127413 0
0.00756847 0.00781262 0
0.0504311 0.00370794 0
0.0915389 0.00106813 0
0.133104 0 0
0.173068 0 0
0.210681 0 0
0.245319 0 0
0.276524 0 0
0.304097 0 0
0.327977 0.0011902 0
0.34815 0.00289921 0
0.364691 0.00436408 0
0.377401 0.00576791 0
0.38616 0.00679026 0
0.391455 0.00628672 0
0.392477 0.00459297 0
0.388983 0.0027924 0
0.380514 0.00077821 0
0.376699 0.000381476 0
0.373571 0.000457771 0
0.368154 0.00047303 0
0.360555 0.000503548 0
0.350805 0.00047303 0
0.339605 0.000244144 0
0.324117 0.00489815 0
0.303777 0.014847 0
0.280156 0.0259403 0
0.253254 0.0382086 0.0111849
0.222904 0.0522469 0.0324407
0.188434 0.0678111 0.0549783
0.154757 0.0831311 0.0756847
0 0.0489052 0
0 0.0482185 0
0 0.0439002 0
0.0458381 0.0385748 0
0.0899672 0.03299 0
0.129976 0.0298009 0
0.170016 0.028397 0
0.209354 0.0283513 0
0.24712 0.0293431 0
0.282185 0.0310216 0
0.314672 0.033463 0
0.344335 0.0345922 0
0.371389 0.0336309 0
0.394522 0.0324102 0
0.414252 0.0310369 0
0.429923 0.0292821 0
0.441794 0.0272068 0
0.449577 0.0247807 0
0.452415 0.021973 0
0.450355 0.018677 0
0.44271 0.0151369 0
0.429313 0.0114443 0
0.40882 0.00750744 0
0.380606 0.00347906 0
0.35079 0.00047303 0
0.33959 0.000244144 0
0.324102 0.00489815 0
0.303777 0.0148623 0
0.280125 0.0259403 0
0.253239 0.0382239 0.0112154
0.222889 0.0522621 0.0324559
0.188418 0.0678264 0.0549935
0.154757 0.0831311 0.0756847
0 0.0806897 0
0 0.080354 0
0 0.0777295 0
0.0363928 0.0746319 0
0.084184 0.069276 0
0.125551 0.0636149 0
0.164889 0.0603494 0
0.204227 0.0594492 0
0.243061 0.0603494 0
0.281895 0.0611429 0
0.319356 0.0603342 0
0.353765 0.0594797 0
0.385183 0.0584726 0
0.413046 0.0573129 0
0.437934 0.0558938 0
0.459312 0.0542306 0
0.477089 0.0522927 0
0.491234 0.0500801 0
0.502052 0.047425 0
0.508614 0.0442359 0
0.510567 0.0405737 0
0.507256 0.0361791 0
0.49778 0.0311284 0
0.480095 0.024979 0
0.452277 0.0181277 0
0.41239 0.0137942 0
0.359945 0.0127413 0
0.303761 0.0148775 0
0.28011 0.0259556 0
0.253223 0.0382239 0.0112154
0.222873 0.0522774 0.0324712
0.188388 0.0678264 0.0550088
0.154757 0.0831311 0.0756847
0 0.11165 0
0 0.111192 0
0 0.11133 0
0.0296025 0.110002 0
0.0744793 0.107057 0
0.119265 0.101396 0
0.160357 0.0955978 0
0.199725 0.0923934 0
0.240635 0.0903487 0
0.281804 0.0888685 0
0.320958 0.0875105 0
0.358053 0.0863813 0
0.392386 0.0853742 0
0.42385 0.0840467 0
0.452293 0.0826276 0
0.477424 0.080705 0
0.499931 0.0788739 0
0.518853 0.0768292 0
0.53434 0.074342 0
0.546731 0.0714122 0
0.555413 0.0680247 0
0.560311 0.0641642 0
0.560067 0.061799 0
0.553796 0.0608682 0
0.541024 0.0593423 0
0.518975 0.0568704 0
0.484596 0.0532235 0
0.431708 0.0483101 0
0.359014 0.0440375 0
0.269505 0.0419013 0.0100252
0.222843 0.0522774 0.0324865
0.188357 0.0678416 0.055024
0.154757 0.0831311 0.0756847
0 0.141558 0
0 0.141604 0
0 0.144183 0
0.0249485 0.144991 0
0.0688334 0.143221 0
0.11133 0.140169 0
0.15555 0.134829 0
0.199252 0.129061 0
0.241215 0.124285 0
0.282246 0.120546 0
0.322347 0.11754 0
0.361273 0.115114 0
0.397406 0.113024 0
0.431235 0.111254 0
0.461982 0.109499 0
0.490501 0.10782 0
0.515648 0.105989 0
0.53814 0.104189 0
0.557427 0.102007 0
0.573938 0.100038 0
0.586191 0.100984 0
0.594965 0.101823 0
0.599832 0.102235 0
0.601007 0.10251 0
0.597971 0.10251 0
0.588327 0.10161 0
0.571267 0.0996567 0
0.543801 0.0968338 0
0.50103 0.0926528 0
0.435874 0.0872663 0
0.336187 0.0796216 0.0234226
0.214038 0.0740826 0.0557259
0.154757 0.0831311 0.0756847
0 0.171511 0
0 0.172061 0
0 0.176974 0
0.0218967 0.179477 0
0.0652781 0.179217 0
0.107652 0.177249 0
0.147875 0.174289 0
0.193423 0.169055 0
0.239628 0.163806 0
0.284047 0.157671 0
0.325017 0.152728 0
0.364462 0.149004 0
0.402014 0.145769 0
0.437263 0.142962 0
0.470634 0.140673 0
0.500694 0.138521 0
0.528435 0.137148 0
0.552285 0.137209 0
0.573617 0.138048 0
0.592065 0.138811 0
0.607538 0.140078 0
0.620279 0.141375 0
0.630091 0.142458 0
0.636027 0.143252 0
0.638666 0.143954 0
0.636927 0.144183 0
0.630121 0.143847 0
0.616312 0.14284 0
0.593042 0.140536 0
0.556649 0.137179 0
0.500298 0.13283 0
0.41181 0.126955 0.0396582
0.279896 0.115984 0.0830854
0 0.201511 0
0 0.202747 0
0 0.209796 0
0.0209659 0.214099 0
0.0636149 0.215137 0
0.106004 0.214206 0
0.144564 0.212222 0
0.185992 0.209354 0
0.232258 0.20444 0
0.277958 0.199619 0
0.322103 0.194232 0
0.364492 0.189441 0
0.403983 0.185153 0
0.44065 0.181857 0
0.475349 0.179675 0
0.506691 0.178058 0
0.535866 0.177508 0
0.561898 0.17731 0
0.585657 0.178042 0
0.606302 0.178882 0
0.624887 0.180331 0
0.640177 0.181643 0
0.653254 0.183337 0
0.663355 0.184985 0
0.670604 0.186389 0
0.67393 0.187182 0
0.673625 0.187915 0
0.668208 0.188128 0
0.656809 0.18793 0
0.636744 0.18645 0
0.60444 0.184421 0
0.553292 0.181476 0.0125277
0.476341 0.175784 0.0651102
0 0.231373 0
0 0.233539 0
0 0.242985 0
0.021912 0.248615 0
0.0642405 0.251133 0
0.105898 0.251392 0
0.143435 0.250294 0
0.184085 0.248188 0
0.225788 0.245441 0
0.271977 0.240604 0
0.317662 0.236347 0
0.361532 0.23212 0
0.402762 0.227787 0
0.44152 0.224384 0
0.477699 0.22182 0
0.510933 0.219974 0
0.542046 0.219196 0
0.569986 0.218769 0
0.595621 0.219333 0
0.618372 0.220066 0
0.638956 0.221592 0
0.656962 0.223011 0
0.672435 0.225116 0
0.68571 0.227192 0
0.695872 0.228885 0
0.703716 0.230777 0
0.707942 0.232486 0
0.708644 0.233814 0
0.704906 0.234592 0
0.694881 0.234989 0
0.676783 0.234821 0
0.647303 0.234485 0
0.601633 0.231312 0.0426642
0 0.261692 0
0 0.264775 0
0 0.276555 0
0.0250706 0.283452 0
0.0667277 0.287083 0
0.108095 0.288579 0
0.14461 0.288533 0
0.183856 0.287098 0
0.224796 0.284886 0
0.267124 0.282185 0
0.313451 0.278004 0
0.35848 0.274556 0
0.401175 0.270863 0
0.441871 0.267674 0
0.479454 0.264759 0
0.514717 0.263035 0
0.547082 0.261707 0
0.576776 0.261173 0
0.604013 0.261723 0
0.628489 0.262394 0
0.651133 0.263844 0
0.670893 0.265339 0
0.688594 0.267552 0
0.704326 0.269902 0
0.717159 0.272023 0
0.727825 0.27454 0
0.735775 0.27689 0
0.740688 0.278782 0
0.742245 0.280797 0
0.739284 0.282597 0
0.730724 0.284138 0
0.714412 0.285481 0
0.687892 0.284901 0.0254826
0 0.292103 0
0 0.297139 0
0 0.310567 0
0.0308385 0.318486 0
0.0721752 0.323156 0
0.111864 0.325536 0
0.147417 0.32636 0
0.186023 0.325948 0
0.226688 0.324758 0
0.267857 0.322835 0
0.309941 0.31986 0
0.355962 0.316304 0
0.399954 0.313649 0
0.44184 0.31075 0
0.481254 0.308431 0
0.517784 0.306355 0
0.551247 0.304967 0
0.582498 0.304692 0
0.611109 0.304662 0
0.637568 0.305669 0
0.661326 0.306798 0
0.683131 0.308766 0
0.702602 0.310582 0
0.719982 0.313176 0
0.735042 0.31548 0
0.748455 0.318288 0
0.75935 0.321157 0
0.767315 0.323751 0
0.773007 0.32665 0
0.775235 0.329519 0
0.7729 0.332082 0
0.765393 0.33492 0
0.750637 0.33608 0.0127565
0 0.32314 0
0 0.329686 0
0 0.344976 0
0.039704 0.353918 0
0.0807202 0.35964 0
0.118471 0.363088 0
0.153048 0.364599 0
0.190478 0.364797 0
0.230137 0.36405 0
0.27097 0.362722 0
0.312688 0.361425 0
0.354528 0.358312 0
0.39884 0.355383 0
0.442008 0.353567 0
0.482353 0.351476 0
0.520226 0.349676 0
0.555657 0.34873 0
0.587793 0.348058 0
0.618143 0.348287 0
0.645487 0.34876 0
0.671077 0.350179 0
0.693843 0.351766 0
0.715023 0.354055 0
0.733837 0.356405 0
0.750896 0.359274 0
0.765866 0.362051 0
0.779004 0.365332 0
0.789578 0.368322 0
0.798245 0.371862 0
0.804181 0.375509 0
0.806897 0.378805 0
0.805692 0.38291 0
0.798917 0.385245 0.004654
0 0.354498 0
0 0.3635 0
0.0121157 0.380102 0
0.0515602 0.389517 0
0.0916915 0.39585 0
0.126802 0.4 0
0.160586 0.402426 0
0.19762 0.403586 0
0.236332 0.403555 0
0.276478 0.402655 0
0.317174 0.401434 0
0.358648 0.400458 0
0.399786 0.397269 0
0.442939 0.39527 0
0.484367 0.394125 0
0.522927 0.392737 0
0.559197 0.391608 0
0.592874 0.391516 0
0.624002 0.391409 0
0.652934 0.392309 0
0.679103 0.393332 0
0.70309 0.394949 0
0.725719 0.397086 0
0.745846 0.399619 0
0.764248 0.402457 0
0.780758 0.405371 0
0.795514 0.408896 0
0.808652 0.412253 0
0.819669 0.416052 0
0.828519 0.420249 0
0.834623 0.424231 0
0.83798 0.429084 0
0.836973 0.432425 0.000564584
0 0.386221 0
0 0.397803 0
0.0273289 0.415213 0
0.0668193 0.425544 0
0.105318 0.432578 0
0.137499 0.437293 0
0.170764 0.440208 0
0.20679 0.441779 0
0.2448 0.442298 0
0.284459 0.442374 0
0.324636 0.441474 0
0.364691 0.440482 0
0.405112 0.439887 0
0.445823 0.436225 0.00495918
0.487114 0.435355 0
0.526619 0.434913 0
0.563378 0.434211 0
0.597604 0.433829 0
0.630014 0.434241 0
0.659205 0.434836 0
0.68687 0.43624 0
0.711955 0.43772 0
0.735164 0.43978 0
0.756558 0.442344 0
0.77615 0.444907 0
0.794247 0.448218 0
0.810285 0.451377 0
0.82504 0.455238 0
0.837583 0.458991 0
0.848814 0.463432 0
0.857588 0.467857 0
0.8645 0.473167 0
0.867475 0.476997 0.00180056
0 0.418418 0
0.00170901 0.432944 0
0.0462806 0.451347 0
0.0856336 0.461524 0
0.12015 0.468986 0
0.150591 0.474281 0
0.18352 0.477882 0
0.218799 0.479896 0.000686656
0.25594 0.480812 0.0043946
0.294621 0.480903 0.00675975
0.334295 0.480934 0.00764477
0.373922 0.480247 0.00561532
0.413108 0.479545 0.000656138
0.451774 0.478737 0
0.491844 0.475776 0.0152285
0.530953 0.475425 0
0.568338 0.475578 0
0.60322 0.475486 0
0.635462 0.475792 0
0.666072 0.476799 0
0.693996 0.477836 0
0.720287 0.479667 0
0.744076 0.481514 0
0.766445 0.484016 0
0.786954 0.486671 0
0.805707 0.48954 0
0.823377 0.493187 0
0.838849 0.496757 0
0.853376 0.500999 0
0.865782 0.50518 0
0.877043 0.510185 0
0.886381 0.515221 0
0.892363 0.519692 0.00810254
0 0.451026 0
0.0227359 0.468666 0
0.0682841 0.487053 0
0.10544 0.49781 0
0.136385 0.505318 0
0.165896 0.510735 0.00361639
0.198291 0.514534 0.00852979
0.233082 0.517113 0.0131838
0.269764 0.518791 0.0174105
0.307637 0.519219 0.0200809
0.345983 0.519158 0.0211185
0.385138 0.519158 0.020325
0.42356 0.5187 0.0166934
0.461463 0.518318 0.0104219
0.498878 0.517494 0.0165408
0.537438 0.515068 0.027039
0.574304 0.515175 0
0.609354 0.515846 0
0.64213 0.516228 0
0.67277 0.517143 0
0.701167 0.518502 0
0.727642 0.519936 0
0.75256 0.522179 0
0.775509 0.524269 0
0.796857 0.527199 0
0.816342 0.530022 0
0.834409 0.533165 0
0.851362 0.537102 0
0.866499 0.541009 0
0.880827 0.545647 0
0.893477 0.550301 0
0.90486 0.555673 0
0.912779 0.560128 0.0204471
0.0115206 0.483375 0
0.0476539 0.505364 0
0.093904 0.523568 0.00384527
0.126238 0.533913 0.0087892
0.154055 0.541619 0.01355
0.183734 0.54728 0.0184176
0.215763 0.551278 0.0231632
0.249973 0.553887 0.0275578
0.285512 0.555535 0.0314336
0.322881 0.55671 0.0346532
0.360601 0.556893 0.0360113
0.398413 0.556741 0.0355535
0.436377 0.55668 0.0332952
0.473655 0.556527 0.0283818
0.509896 0.55639 0.0209964
0.545571 0.555169 0.0386816
0.581933 0.553628 0.0404974
0.616556 0.554116 0.0133059
0.649516 0.555215 0
0.680095 0.556085 0
0.709041 0.557641 0
0.735759 0.55906 0
0.760388 0.560891 0
0.784146 0.563333 0
0.805722 0.56582 0
0.826307 0.568917 0
0.844877 0.572152 0
0.862226 0.57557 0
0.878492 0.579751 0
0.893507 0.583841 0
0.907668 0.588663 0
0.920424 0.594049 0.00161746
0.929808 0.598444 0.0401617
0.0326238 0.516274 0.0151675
0.0763867 0.542046 0.0170443
0.118685 0.559625 0.0215763
0.146471 0.569802 0.0258946
0.173816 0.577249 0.0303807
0.203693 0.58294 0.0353094
0.235843 0.587182 0.0401007
0.269322 0.590005 0.044419
0.304402 0.591745 0.0481422
0.340444 0.592706 0.0508736
0.377447 0.593484 0.052903
0.414313 0.593469 0.0526894
0.450965 0.593286 0.0506905
0.487465 0.593545 0.0469673
0.522774 0.59353 0.0408026
0.557 0.593622 0.0346838
0.591196 0.591882 0.0641184
0.625162 0.591379 0.0559701
0.657603 0.592294 0.0298772
0.688396 0.593484 0.00662242
0.716655 0.594827 0
0.743893 0.596735 0
0.768887 0.59852 0
0.79234 0.600717 0
0.814542 0.603265 0
0.834989 0.605875 0
0.854459 0.609293 0
0.872312 0.612665 0
0.888991 0.616403 0
0.905196 0.620783 0
0.919814 0.625177 0
0.93344 0.630213 0.0290684
0.944442 0.634882 0.0667124
0.0597086 0.551965 0.0355383
0.107439 0.579461 0.0373083
0.143053 0.596048 0.0415808
0.169024 0.605554 0.0456703
0.19675 0.612696 0.0499275
0.226261 0.618143 0.0542763
0.257664 0.62208 0.0585184
0.291066 0.625025 0.0630503
0.325399 0.626902 0.066453
0.36054 0.627909 0.0690776
0.396109 0.628428 0.0706798
0.432258 0.629007 0.0712139
0.467826 0.628962 0.0695964
0.502785 0.628885 0.0661936
0.537499 0.629267 0.0610819
0.570825 0.62945 0.0538796
0.602655 0.629175 0.0612802
0.635508 0.627466 0.0925154
0.666987 0.628046 0.073518
0.697459 0.62948 0.0488289
0.725719 0.630686 0.0265965
0.752071 0.632197 0.0083772
0.77731 0.634363 0
0.800626 0.636454 0
0.822705 0.638819 0
0.843641 0.641749 0
0.863142 0.644511 0
0.881529 0.648035 0
0.89868 0.651514 0
0.914931 0.655436 0.00680552
0.930617 0.660182 0.0312352
0.945068 0.665049 0.0653391
0.956191 0.669291 0.102098
0.0928969 0.590051 0.0577096
0.136385 0.616968 0.0598459
0.167514 0.631739 0.0635843
0.193957 0.640558 0.0671702
0.221912 0.647608 0.071519
0.251408 0.652537 0.0757153
0.282399 0.656229 0.0795605
0.314702 0.658885 0.0834211
0.347936 0.660685 0.0865644
0.382345 0.66215 0.0893263
0.416831 0.662684 0.0905013
0.451621 0.662791 0.0905013
0.486397 0.663249 0.0895247
0.520363 0.663249 0.0867933
0.55378 0.663264 0.0821546
0.586267 0.663905 0.0760815
0.617304 0.664332 0.0684215
0.647471 0.6636 0.0918288
0.678096 0.662028 0.114427
0.707134 0.663279 0.0929427
0.735439 0.664988 0.070985
0.761517 0.666545 0.0521859
0.786282 0.668299 0.0369268
0.809552 0.670542 0.0257572
0.831342 0.672724 0.0178683
0.852003 0.675532 0.0153964
0.871778 0.678325 0.0161288
0.889952 0.681437 0.0223392
0.907698 0.685084 0.0340124
0.923812 0.688792 0.0523079
0.939178 0.692912 0.0779278
0.953902 0.697597 0.111116
0.965927 0.702113 0.141451
0.124758 0.628626 0.0821241
0.163867 0.654017 0.0841688
0.195285 0.667384 0.0877089
0.221881 0.675166 0.0910811
0.249516 0.681178 0.0942855
0.278569 0.685771 0.0975357
0.309148 0.689586 0.101076
0.340688 0.69192 0.104067
0.37322 0.693477 0.106462
0.406271 0.69453 0.108156
0.439933 0.695537 0.109636
0.473274 0.695811 0.10959
0.506569 0.695781 0.108415
0.539467 0.696178 0.106264
0.571496 0.696223 0.102342
0.602365 0.696513 0.0973526
0.632929 0.697337 0.0915236
0.661433 0.697688 0.0936751
0.690288 0.696666 0.121386
0.718685 0.695857 0.132052
0.745464 0.697185 0.115221
0.771389 0.699031 0.099733
0.795605 0.700755 0.0855879
0.818448 0.702693 0.0742351
0.840269 0.70518 0.0676585
0.860502 0.7075 0.0649882
0.87985 0.710399 0.0677195
0.898085 0.713176 0.0753185
0.915099 0.716457 0.0890974
0.931426 0.720226 0.107729
0.946899 0.724453 0.1308
0.961624 0.728847 0.157885
0.973129 0.732769 0.18378
0.155337 0.667948 0.106508
0.194812 0.690593 0.108202
0.226062 0.701717 0.110933
0.252506 0.708751 0.11342
0.280064 0.714183 0.11606
0.308537 0.718196 0.118776
0.338125 0.721263 0.121202
0.368643 0.723491 0.123415
0.400397 0.725307 0.125536
0.432151 0.726177 0.12665
0.464485 0.726528 0.12723
0.496773 0.727184 0.127489
0.528496 0.727352 0.126513
0.55993 0.727398 0.124727
0.590753 0.727916 0.122271
0.620493 0.728099 0.118486
0.649577 0.728634 0.114199
0.677165 0.729442 0.109712
0.703761 0.729061 0.126925
0.730724 0.728206 0.15198
0.756817 0.728405 0.153872
0.781628 0.729809 0.141939
0.805341 0.73167 0.132494
0.827588 0.733425 0.124712
0.8486 0.735637 0.120867
0.868681 0.738064 0.120806
0.887297 0.740627 0.124453
0.905379 0.743633 0.132479
0.922087 0.746563 0.144793
0.937957 0.749874 0.160784
0.952926 0.753719 0.181216
0.967834 0.758328 0.206348
0.979202 0.762142 0.23006
0.188357 0.706874 0.129152
0.228885 0.725902 0.130816
0.259937 0.735592 0.132799
0.286137 0.741344 0.134951
0.312627 0.745907 0.137011
0.340352 0.749325 0.138964
0.36939 0.752209 0.141192
0.398901 0.753994 0.143114
0.429267 0.75523 0.144411
0.459922 0.75642 0.145861
0.490837 0.756878 0.146426
0.52137 0.757076 0.146227
0.552041 0.757443 0.1458
0.582071 0.757397 0.14435
0.611109 0.757549 0.142657
0.640009 0.758129 0.14049
0.667567 0.758511 0.137713
0.694255 0.759441 0.13518
0.719524 0.759823 0.138476
0.744198 0.758862 0.162539
0.769024 0.758022 0.185962
0.792828 0.759121 0.181399
0.815457 0.760693 0.174762
0.837232 0.762692 0.170871
0.857328 0.764569 0.169558
0.876585 0.766827 0.170977
0.894682 0.769253 0.176364
0.911788 0.771893 0.184955
0.928084 0.774777 0.197131
0.943847 0.778241 0.213397
0.958328 0.781781 0.232914
0.972122 0.785763 0.256992
0.983291 0.789349 0.279789
0.226261 0.745052 0.153399
0.266163 0.760159 0.154467
0.296574 0.76788 0.156146
0.321691 0.772625 0.157458
0.347707 0.776501 0.159228
0.374838 0.779538 0.160998
0.402564 0.781659 0.162478
0.430823 0.783322 0.163943
0.459831 0.784482 0.165225
0.489097 0.784985 0.166018
0.518349 0.785428 0.166659
0.547951 0.785809 0.167056
0.576776 0.785901 0.16672
0.605463 0.786236 0.166323
0.633188 0.786206 0.165316
0.660273 0.786267 0.163943
0.686564 0.786908 0.163272
0.71194 0.78735 0.162463
0.736294 0.788098 0.162051
0.759579 0.788006 0.180346
0.782269 0.787106 0.202945
0.804807 0.78677 0.220706
0.826322 0.788174 0.216693
0.846647 0.789853 0.215244
0.866529 0.791897 0.21677
0.884688 0.793942 0.220722
0.902052 0.796185 0.227405
0.918349 0.798795 0.237919
0.933791 0.80145 0.25069
0.948562 0.80444 0.267124
0.962646 0.807996 0.287465
0.975906 0.812039 0.311574
0.986557 0.815244 0.333791
0.267918 0.78146 0.178973
0.306508 0.792828 0.17966
0.335744 0.799039 0.180789
0.360571 0.803037 0.182223
0.385412 0.805859 0.183215
0.410742 0.808133 0.18436
0.437613 0.809888 0.185748
0.464805 0.811215 0.186969
0.492393 0.811933 0.187945
0.520394 0.812665 0.188952
0.548074 0.812772 0.189609
0.57586 0.812604 0.190234
0.603601 0.812818 0.190753
0.630365 0.812818 0.190997
0.656596 0.812924 0.191379
0.682307 0.813291 0.19173
0.707027 0.813458 0.191959
0.730968 0.814115 0.193072
0.753811 0.814603 0.194491
0.775402 0.814893 0.204364
0.796796 0.814542 0.226917
0.817472 0.813748 0.249027
0.83801 0.814221 0.260456
0.85713 0.815686 0.261723
0.875273 0.817304 0.265385
0.892866 0.819394 0.271901
0.909209 0.821485 0.280903
0.924559 0.823835 0.2925
0.939361 0.826612 0.307622
0.953124 0.829374 0.325048
0.966247 0.832471 0.345678
0.978469 0.836194 0.370123
0.988327 0.839429 0.392691
0.313115 0.815793 0.206394
0.349722 0.823987 0.206348
0.377722 0.82855 0.20708
0.401343 0.831693 0.208194
0.425208 0.833753 0.209247
0.45008 0.835508 0.210361
0.475273 0.836622 0.211536
0.500786 0.837293 0.212741
0.527337 0.837903 0.214359
0.553719 0.838041 0.215335
0.57998 0.838026 0.21651
0.606363 0.838209 0.217731
0.631922 0.83798 0.218921
0.657465 0.838041 0.220371
0.681804 0.837964 0.221897
0.705577 0.838026 0.223758
0.728862 0.83856 0.226261
0.751125 0.838911 0.228977
0.772564 0.839704 0.232944
0.792935 0.840269 0.237629
0.812085 0.839658 0.259556
0.831418 0.8392 0.282002
0.849836 0.83856 0.30399
0.867811 0.839628 0.311452
0.884871 0.841505 0.318303
0.900877 0.843198 0.326848
0.915984 0.845106 0.338308
0.930526 0.84741 0.351949
0.943923 0.849851 0.368643
0.956771 0.852567 0.387442
0.969146 0.855772 0.409735
0.980377 0.85919 0.434821
0.988983 0.862181 0.457313
0.361608 0.84741 0.234882
0.396582 0.853284 0.235401
0.423468 0.856336 0.236484
0.445731 0.858244 0.237385
0.468269 0.859571 0.238514
0.492134 0.860746 0.240162
0.515938 0.861326 0.241581
0.54052 0.861784 0.243153
0.564965 0.861845 0.244694
