luts/Cliff-CLog.cube
TITLE "Generated by Resolve"
LUT_3D_SIZE 9
0 0 0
0.0971084 0 0
0.23241 0 0
0.323415 0 0
0.369558 0 0
0.376715 0.000381476 0
0.350835 0.00047303 0
0.280186 0.0259251 0
0.154757 0.0831311 0.0756847
0 0.0806897 0
0.084184 0.069276 0
0.243061 0.0603494 0
0.385183 0.0584726 0
0.477089 0.0522927 0
0.510567 0.0405737 0
0.452277 0.0181277 0
0.28011 0.0259556 0
0.154757 0.0831311 0.0756847
0 0.201511 0
0.0636149 0.215137 0
0.232258 0.20444 0
0.403983 0.185153 0
0.535866 0.177508 0
0.624887 0.180331 0
0.670604 0.186389 0
0.656809 0.18793 0
0.476341 0.175784 0.0651102
0 0.32314 0
0.0807202 0.35964 0
0.230137 0.36405 0
0.39884 0.355383 0
0.555657 0.34873 0
0.671077 0.350179 0
0.750896 0.359274 0
0.798245 0.371862 0
0.798917 0.385245 0.004654
0 0.451026 0
0.136385 0.505318 0
0.269764 0.518791 0.0174105
0.42356 0.5187 0.0166934
0.574304 0.515175 0
0.701167 0.518502 0
0.796857 0.527199 0
0.866499 0.541009 0
0.912779 0.560128 0.0204471
0.0928969 0.590051 0.0577096
0.221912 0.647608 0.071519
0.347936 0.660685 0.0865644
0.486397 0.663249 0.0895247
0.617304 0.664332 0.0684215
0.735439 0.664988 0.070985
0.831342 0.672724 0.0178683
0.907698 0.685084 0.0340124
0.965927 0.702113 0.141451
0.226261 0.745052 0.153399
0.347707 0.776501 0.159228
0.459831 0.784482 0.165225
0.576776 0.785901 0.16672
0.686564 0.786908 0.163272
0.782269 0.787106 0.202945
0.866529 0.791897 0.21677
0.933791 0.80145 0.25069
0.986557 0.815244 0.333791
0.415442 0.876127 0.267765
0.51577 0.883024 0.273396
0.60531 0.883879 0.281895
0.694484 0.88307 0.29485
0.775814 0.883253 0.315953
0.845716 0.884962 0.356603
0.904082 0.884443 0.443595
0.952468 0.892409 0.50988
0.988357 0.904128 0.600641
0.654047 0.94641 0.454734
0.713527 0.945006 0.476249
0.7664 0.944274 0.503075
0.819104 0.943999 0.539925
0.86746 0.94522 0.5879
0.909194 0.94844 0.644968
0.943236 0.95198 0.719295
0.971862 0.958938 0.791852
0.995911 0.971939 0.853712
0 0 0.133379
0.0837415 0 0.133257
0.252979 0 0.0642863
0.374395 0 0
0.446052 0 0
0.47219 0 0
0.464607 0 0
0.408667 0 0
0.289052 0.0552834 0.057496
0 0.0733501 0.0792859
0.0670787 0.068574 0.0789349
0.278477 0.0454719 0.0217594
0.443153 0.0327459 0
0.545449 0.0263828 0
0.583276 0.0193179 0
0.527352 0 0
0.391302 0 0
0.269062 0.0607309 0.0594186
0 0.206073 0
0.0451972 0.221378 0
0.234043 0.207797 0
0.429496 0.184436 0
0.576333 0.175402 0
0.673594 0.177966 0
0.726192 0.182864 0
0.721691 0.181659 0
0.555734 0.161303 0.0420844
0 0.32079 0
0.0741283 0.356161 0
0.226444 0.361166 0
0.396979 0.352483 0
0.554406 0.345434 0
0.669856 0.346899 0
0.749706 0.356008 0
0.796414 0.368429 0
0.79556 0.381643 0.00502022
0 0.449592 0
0.13138 0.502861 0
0.266209 0.516991 0.0164492
0.421118 0.517052 0.016144
0.573007 0.513436 0
0.700404 0.516716 0
0.796139 0.52546 0
0.86595 0.539208 0
0.911955 0.558404 0.0199435
0.0863203 0.584924 0.0570535
0.217273 0.645869 0.0702983
0.344686 0.659815 0.0859236
0.484215 0.662394 0.0890974
0.616205 0.663417 0.0679484
0.734737 0.664088 0.0701152
0.831006 0.671839 0.0166323
0.907439 0.68423 0.0326238
0.965713 0.701305 0.140383
0.219806 0.741421 0.152926
0.343771 0.775723 0.158648
0.456977 0.783978 0.164813
0.575158 0.785428 0.166354
0.685481 0.786511 0.16286
0.781781 0.786664 0.202319
0.866194 0.791485 0.216037
0.933639 0.801053 0.249805
0.986511 0.814893 0.332937
0.409979 0.875212 0.267308
0.512291 0.88275 0.272847
0.603159 0.88368 0.2813
0.693172 0.882902 0.294255
0.775174 0.883162 0.315389
0.84538 0.884764 0.355749
0.903914 0.884291 0.443091
0.952392 0.892226 0.509117
0.988373 0.90396 0.600015
0.651316 0.946365 0.453727
0.711681 0.945083 0.475639
0.76527 0.944289 0.502403
0.818463 0.943984 0.539437
0.86717 0.94522 0.587533
0.909041 0.948425 0.644694
0.94316 0.95198 0.719112
0.971817 0.958923 0.79176
0.995911 0.971939 0.853712
0 0 0.255009
0.0579995 0 0.286168
0.221851 0 0.247547
0.361868 0 0.16791
0.453712 0 0.0631113
0.498894 0 0
0.505867 0 0
0.468345 0 0
0.360571 0.0373846 0.070161
0 0.0529335 0.26598
0.0538491 0.0489509 0.304326
0.261082 0.0229648 0.269062
0.45658 0 0.171649
0.576516 0 0.0395361
0.617472 0 0
0.551705 0 0
0.465049 0 0
0.355734 0.0382391 0.0674296
0 0.199451 0.17644
0.0195926 0.221408 0.195468
0.222599 0.212497 0.188968
0.456886 0.192233 0.127337
0.628367 0.18558 0.0572671
0.736858 0.188922 0.0187533
0.796902 0.194018 0.0182803
0.806821 0.178897 0.0327764
0.669367 0.114427 0.0607004
0 0.341939 0.101366
0.020676 0.385122 0.105074
0.20145 0.393637 0.113634
0.418631 0.374472 0.0975509
0.618784 0.357855 0
0.756619 0.355215 0
0.849073 0.363272 0
0.907515 0.375631 0.0061799
0.926894 0.385885 0.134691
0 0.471046 0.046479
0.102464 0.527871 0.0542916
0.243061 0.543999 0.0704356
0.41735 0.539635 0.0720378
0.591623 0.529458 0.0451667
0.736278 0.527382 0
0.840467 0.532845 0
0.916289 0.545357 0
0.968078 0.563058 0.0719005
0.0801556 0.579995 0.0566415
0.210544 0.643229 0.0685588
0.3402 0.658579 0.0850385
0.481102 0.661128 0.0885023
0.614237 0.662226 0.0673533
0.73373 0.662806 0.0688945
0.830442 0.670558 0.0149691
0.906996 0.682979 0.0310063
0.965377 0.70013 0.138857
0.210208 0.735973 0.152407
0.337438 0.774304 0.157794
0.452811 0.783276 0.164233
0.57261 0.784817 0.165896
0.684138 0.785855 0.162341
0.780957 0.786084 0.201373
0.865644 0.790921 0.214969
0.933394 0.800458 0.248524
0.986358 0.814404 0.33167
0.402243 0.873976 0.266651
0.507561 0.882612 0.272312
0.599908 0.883421 0.280491
0.691249 0.882643 0.293385
0.774227 0.883009 0.314549
0.8448 0.884504 0.354482
0.90367 0.884092 0.442176
0.952255 0.891951 0.508003
0.988373 0.903716 0.599084
0.646815 0.946441 0.452369
0.709087 0.945312 0.474647
0.763607 0.944305 0.501411
0.817502 0.943969 0.538888
0.866743 0.945235 0.58703
0.908797 0.948394 0.644327
0.943053 0.951965 0.718837
0.971756 0.958892 0.791638
0.995911 0.971939 0.853712
0 0 0.336034
0.0324102 0 0.388006
0.18555 0 0.37348
0.32224 0 0.315847
0.424567 0 0.239689
0.487694 0 0.160189
0.509346 0 0.0957961
0.486748 0 0.0726177
0.395102 0.0355688 0.112093
0 0.0262913 0.389731
0.0359197 0.0216526 0.453925
0.222644 0 0.443015
0.399161 0 0.379583
0.519066 0 0.286687
0.558099 0 0.179858
0.509697 0 0.0875868
0.486229 0 0.0670939
0.393881 0.0353399 0.109163
0 0.181186 0.345068
0.0153964 0.199161 0.406241
0.206821 0.19443 0.433341
0.445457 0.168841 0.400015
0.647349 0.139956 0.322332
0.773602 0.10251 0.252674
0.841932 0.0741283 0.201862
0.8495 0.0491493 0.163699
0.671138 0.0363775 0.124849
0 0.333883 0.285206
0.00317388 0.37557 0.315755
0.165927 0.394202 0.326635
0.404974 0.376501 0.311925
0.627237 0.362234 0.26656
0.775051 0.363348 0.24625
0.872145 0.373892 0.252247
0.933776 0.387411 0.281224
0.963943 0.38909 0.317128
0 0.484092 0.247517
0.02916 0.54432 0.253666
0.192142 0.56939 0.255573
0.395254 0.562524 0.253925
0.602289 0.544579 0.241886
0.768719 0.538018 0.194949
0.880781 0.542306 0.200458
0.959564 0.554864 0.24567
1 0.573281 0.319417
0.0191958 0.622492 0.219455
0.151446 0.68835 0.217823
0.287877 0.707378 0.221592
0.451408 0.704768 0.224338
0.615595 0.695979 0.215641
0.758724 0.688273 0.224094
0.870909 0.690883 0.206363
0.953185 0.699657 0.242527
1 0.715251 0.322576
0.195285 0.725856 0.152087
0.326482 0.771679 0.156268
0.445792 0.781918 0.163088
0.568292 0.783917 0.16524
0.681682 0.784772 0.161395
0.779782 0.785336 0.199969
0.864775 0.789914 0.213107
0.932998 0.799466 0.246311
0.986206 0.813519 0.329549
0.388006 0.871199 0.265736
0.498695 0.881804 0.270893
0.594186 0.882979 0.279072
0.687922 0.882216 0.29189
0.772488 0.882536 0.312886
0.843793 0.884062 0.35227
0.903151 0.883619 0.440345
0.952026 0.891493 0.506081
0.988373 0.903288 0.597482
0.639277 0.946685 0.450156
0.704479 0.945388 0.472587
0.760678 0.944335 0.499718
0.815869 0.943969 0.537728
0.86598 0.945251 0.58613
0.9084 0.948348 0.643687
0.94287 0.951934 0.718379
0.971649 0.958862 0.791409
0.995911 0.971939 0.853712
0 0 0.382315
0.00453193 0 0.434699
0.147646 0 0.458503
0.281773 0 0.413062
0.385138 0 0.354833
0.456764 0 0.284779
0.49308 0 0.218204
0.484825 0 0.170321
0.409094 0.0424048 0.161242
0 0 0.422217
0.00920119 0 0.482277
0.165347 0 0.501793
0.308324 0 0.443442
0.398032 0 0.362737
0.458122 0 0.281407
0.493935 0 0.214588
0.485161 0 0.167315
0.408911 0.0420386 0.159533
0 0.15523 0.467918
0.00505074 0.167361 0.542077
0.189349 0.166552 0.609033
0.417517 0.142977 0.59234
0.608286 0.124224 0.54992
0.739315 0.124849 0.486686
0.814023 0.094789 0.422415
0.815015 0.0530251 0.340047
0.521218 0.0389105 0.182513
0 0.318013 0.434516
0 0.350484 0.492729
0.160052 0.373693 0.547906
0.38558 0.3617 0.553246
0.615824 0.346212 0.524514
0.790158 0.335515 0.481163
0.903593 0.330007 0.453269
0.975509 0.330373 0.441093
1 0.328939 0.438087
0 0.477836 0.414923
0.0214847 0.528252 0.452171
0.164691 0.563195 0.474632
0.354284 0.565057 0.469688
0.585443 0.545586 0.454719
0.764096 0.540352 0.431342
0.880858 0.547326 0.435035
0.961608 0.562097 0.458122
1 0.581537 0.496483
0.0119631 0.628489 0.419043
0.0899672 0.690547 0.435813
0.224292 0.719738 0.43682
0.40209 0.720317 0.431159
0.593439 0.706813 0.424201
0.753765 0.695521 0.428916
0.874571 0.697139 0.426627
0.959182 0.706371 0.456962
1 0.72343 0.511727
0.0882582 0.76286 0.420829
0.210285 0.825422 0.417044
0.357961 0.836271 0.417655
0.512657 0.831128 0.420386
0.657465 0.821805 0.42504
0.778622 0.817334 0.436088
0.874434 0.813855 0.482506
0.947845 0.821149 0.520775
1 0.834867 0.586954
0.36173 0.865125 0.264714
0.482719 0.880201 0.268437
0.584497 0.882368 0.277104
0.68217 0.881453 0.289174
0.76936 0.881666 0.310369
0.842054 0.883299 0.348501
0.902296 0.882811 0.437095
0.951614 0.890669 0.502892
0.988342 0.902525 0.595087
0.624445 0.946685 0.44625
0.695811 0.945525 0.468971
0.755642 0.94432 0.496864
0.813184 0.943923 0.535393
0.864561 0.94519 0.584466
0.907713 0.948272 0.642588
0.942565 0.951904 0.717571
0.971481 0.958785 0.791012
0.995911 0.971939 0.853712
0 0 0.395789
0 0 0.408865
0.106477 0 0.501717
0.236637 0 0.478035
0.34345 0 0.428794
0.417884 0 0.374166
0.461402 0 0.308507
0.466682 0 0.248493
0.406714 0.0563516 0.209918
0 0 0.395834
0 0 0.412757
0.108446 0 0.501366
0.238117 0 0.476875
0.34461 0 0.427451
0.418753 0 0.372824
0.46215 0 0.307042
0.467155 0 0.247181
0.406912 0.0560159 0.209003
0 0.113832 0.534997
0 0.11577 0.565316
0.160555 0.120287 0.69955
0.373602 0.0992294 0.699626
0.55816 0.0790265 0.663264
0.676616 0.0675975 0.614542
0.732692 0.0744945 0.530694
0.673732 0.0291905 0.378378
0.407172 0.0555428 0.207675
0 0.293675 0.542504
0 0.305882 0.577401
0.14931 0.343175 0.69575
0.370108 0.335561 0.720607
0.597986 0.317525 0.708263
0.764981 0.313695 0.686366
0.880079 0.324041 0.650904
0.956649 0.32372 0.620066
0.989456 0.314092 0.580606
0 0.465095 0.540337
0.00846876 0.492622 0.577157
0.154742 0.543984 0.650065
0.345693 0.548913 0.668315
0.565789 0.535027 0.664118
0.751934 0.529229 0.644648
0.888151 0.53048 0.625147
0.982574 0.538125 0.618952
1 0.551385 0.625803
0.0322118 0.623789 0.558892
0.0735027 0.667964 0.594018
0.209323 0.710231 0.624002
0.374075 0.717449 0.624857
0.556405 0.710063 0.613977
0.736431 0.69723 0.608194
0.863859 0.699138 0.603204
0.950149 0.710399 0.618723
1 0.728923 0.649653
0.105531 0.764965 0.592981
0.185321 0.817441 0.616342
0.316182 0.839078 0.621118
0.46421 0.84007 0.616434
0.622812 0.830457 0.615991
0.759609 0.822293 0.620386
0.863584 0.819776 0.644846
0.941009 0.827665 0.667735
0.995361 0.842496 0.709911
0.234791 0.899397 0.625299
0.375555 0.924285 0.633295
0.498329 0.924819 0.637491
0.627512 0.917296 0.649256
0.739528 0.910262 0.667872
0.8271 0.908156 0.691707
0.894896 0.910323 0.726284
0.946822 0.915358 0.775235
0.986374 0.928649 0.820752
0.585779 0.95494 0.488197
0.673457 0.952453 0.513924
0.74316 0.949828 0.543389
0.806973 0.948409 0.582254
0.861997 0.949218 0.630533
0.907042 0.952209 0.684977
0.943297 0.956725 0.750515
0.972595 0.963317 0.820157
0.997497 0.976745 0.876997
0 0 0.372946
0 0 0.372946
0.0588083 0 0.492348
0.186511 0 0.507912
0.293828 0 0.475364
0.37348 0 0.427436
0.421027 0 0.374044
0.433906 0.0196536 0.309621
0.389105 0.0752575 0.252049
0 0 0.373449
0 0 0.373449
0.0605478 0 0.493507
0.18764 0 0.507729
0.294697 0 0.474891
0.374151 0 0.426886
0.421546 0 0.373495
0.434348 0.0194553 0.308995
0.389349 0.0750439 0.251606
0 0.0318608 0.48127
0 0.0295872 0.477714
0.0937514 0.0257267 0.64445
0.264256 0.00671397 0.660197
0.397513 0 0.609354
0.454139 0 0.511711
0.422278 0 0.372702
0.434974 0.0191958 0.30808
0.389731 0.0747234 0.250965
0 0.250675 0.605341
0 0.249577 0.605188
0.119966 0.289357 0.768627
0.342061 0.287846 0.81976
0.567987 0.272068 0.818723
0.738155 0.263844 0.802441
0.850217 0.26453 0.780911
0.917784 0.276661 0.736431
0.930541 0.260365 0.656367
0.013611 0.441886 0.628855
0.0135195 0.441306 0.628763
0.133257 0.510704 0.758251
0.332662 0.523629 0.801816
0.553307 0.5131 0.808118
0.740841 0.504662 0.801694
0.872099 0.510536 0.791409
0.966873 0.525063 0.772931
1 0.53875 0.760601
0.0584573 0.613031 0.659495
0.05832 0.612757 0.659373
0.187579 0.691066 0.750957
0.360494 0.704829 0.771084
0.547005 0.699062 0.770626
0.7196 0.6907 0.76614
0.853452 0.6925 0.755337
0.952316 0.700557 0.749538
1 0.716594 0.755444
0.129091 0.760983 0.702434
0.147982 0.783383 0.720836
0.292332 0.830228 0.758251
0.44892 0.835187 0.760082
0.602106 0.830381 0.754925
0.736004 0.82565 0.752758
0.851743 0.822461 0.759152
0.93228 0.830961 0.769207
0.988373 0.846922 0.793271
0.231922 0.885313 0.750164
0.335088 0.917479 0.771756
0.479667 0.923445 0.777523
0.610605 0.919936 0.779446
0.720562 0.916747 0.785611
0.815579 0.913787 0.799756
0.888869 0.916091 0.818235
0.943526 0.922103 0.847623
0.984695 0.935851 0.877516
0.521614 0.973159 0.801572
0.646097 0.971054 0.81387
0.731792 0.969055 0.827405
0.803525 0.968383 0.844221
0.866453 0.968551 0.866133
0.915236 0.971939 0.889448
0.953277 0.978653 0.913863
0.983719 0.988052 0.940856
1 1 0.970703
0 0 0.30428
0 0 0.30428
0 0 0.33962
0.128481 0 0.486671
0.23505 0 0.485023
0.316701 0 0.451896
0.369894 0.00132753 0.404517
0.389181 0.0331579 0.34966
0.356878 0.0952316 0.2822
0 0 0.304921
0 0 0.304921
0 0 0.344686
0.129442 0 0.487221
0.235721 0 0.485039
0.317235 0 0.451804
0.370336 0.00117494 0.404364
0.389532 0.0330053 0.349508
0.357107 0.0951247 0.282048
0 0 0.305867
0 0 0.305867
0 0 0.351659
0.130846 0 0.487984
0.236713 0 0.4851
0.318013 0 0.451667
0.370962 0.000946059 0.40415
0.390036 0.0327916 0.349294
0.357458 0.0949722 0.281849
0.0202945 0.161883 0.584436
0.0201267 0.160464 0.583383
0.044419 0.170199 0.671687
0.273518 0.182528 0.836057
0.490272 0.167437 0.846662
0.65098 0.154986 0.828275
0.746899 0.145373 0.789776
0.765026 0.126497 0.702846
0.491493 0.104097 0.375311
0.0478218 0.397971 0.680003
0.047715 0.397314 0.679881
0.0775769 0.431235 0.762356
0.298726 0.475242 0.882795
0.529915 0.470497 0.904311
0.723156 0.463539 0.905608
0.861555 0.465599 0.901717
0.957351 0.47454 0.893462
1 0.493767 0.869245
0.0919509 0.591897 0.730541
0.0918441 0.591577 0.730434
0.13669 0.641978 0.804974
0.333715 0.68217 0.871489
0.534051 0.680751 0.882109
0.710369 0.674357 0.881895
0.845136 0.674495 0.878477
0.940948 0.686015 0.872114
1 0.706233 0.862501
0.160021 0.751644 0.781857
0.15993 0.751492 0.781796
0.240116 0.806394 0.841703
0.423362 0.82591 0.864149
0.590417 0.822965 0.862348
0.729427 0.819318 0.859174
0.84065 0.819959 0.859571
0.925597 0.828428 0.857511
0.990051 0.843763 0.863005
0.260395 0.880903 0.83183
0.260319 0.880842 0.831785
0.429206 0.917494 0.864576
0.591897 0.917159 0.866133
0.714733 0.914778 0.866926
0.808118 0.915618 0.871992
0.881422 0.919097 0.882155
0.940215 0.925856 0.896803
0.98294 0.94023 0.915938
0.448447 0.964523 0.872175
0.589456 0.970871 0.88397
0.72105 0.969528 0.893034
0.808362 0.970077 0.904082
0.871473 0.973297 0.918044
0.918929 0.978714 0.9337
0.957839 0.985367 0.95137
0.98822 0.995102 0.970077
1 1 0.992386
0 0 0.226596
0 0 0.226596
0 0 0.226596
0.0599374 0 0.38497
0.180362 0 0.456718
0.266896 0.00376898 0.443091
0.323842 0.0208133 0.405097
0.349172 0.052018 0.354177
0.325811 0.108675 0.290578
0 0 0.226596
0 0 0.226596
0 0 0.226596
0.0609598 0 0.386114
0.180774 0 0.456748
0.267048 0.00378424 0.443
0.323903 0.0208591 0.405035
0.349187 0.0520485 0.354131
0.32578 0.108705 0.290547
0 0 0.226596
0 0 0.226596
0 0 0.226596
0.0624094 0 0.387945
0.181369 0 0.456794
0.267277 0.0037995 0.442878
0.32398 0.0208896 0.404959
0.349187 0.0520943 0.35407
0.32575 0.108751 0.290501
0 0 0.226596
0 0 0.226596
0 0 0.226596
0.0647135 0 0.391241
0.182376 0 0.45687
0.267659 0.00384527 0.442679
0.324132 0.0209812 0.404807
0.349203 0.0521706 0.353964
0.325719 0.108827 0.290455
0.0703593 0.301488 0.656275
0.0703288 0.300633 0.655848
0.0701457 0.299306 0.655131
0.198856 0.355138 0.868315
0.468986 0.361624 0.935164
0.679911 0.354681 0.944106
0.824353 0.353887 0.940673
0.918822 0.355718 0.926482
0.968429 0.351736 0.886549
0.121798 0.548501 0.757839
0.121675 0.548119 0.757702
0.121447 0.547601 0.757427
0.252003 0.629511 0.904265
0.493599 0.642039 0.943313
0.690608 0.637751 0.948821
0.836194 0.638575 0.949203
0.939696 0.647654 0.946502
1 0.666255 0.938293
0.190723 0.731762 0.827329
0.190646 0.731594 0.827268
0.190524 0.73135 0.827176
0.349584 0.803632 0.92105
0.557885 0.808515 0.930724
0.715785 0.805982 0.928222
0.833127 0.807675 0.926055
0.919631 0.815717 0.924331
0.982895 0.834119 0.91989
0.291707 0.871611 0.887114
0.291615 0.87155 0.887083
0.291493 0.871443 0.887053
0.533196 0.910765 0.927657
0.695048 0.909957 0.925902
0.80116 0.911589 0.926375
0.877409 0.916762 0.930373
0.935637 0.925383 0.93753
0.981674 0.939941 0.946059
0.500206 0.961273 0.928634
0.500206 0.961273 0.928634
0.634302 0.968139 0.937774
0.797055 0.970214 0.945602
0.876143 0.975235 0.955352
0.92668 0.98233 0.966262
0.963439 0.991058 0.978668
0.992569 1 0.992584
1 1 1
