luts/Cliff-Log3G10.cube
TITLE "Generated by Resolve"
LUT_3D_SIZE 5
0 0 0.0108644
0.183108 0 0
0.408057 0.00662242 0
0.224445 0.051545 0.0313726
0.154757 0.0831311 0.0756847
0 0.143404 0
0.156085 0.138399 0
0.594965 0.125154 0
0.622797 0.194751 0
0.56495 0.212772 0.0497444
0.0631418 0.558831 0.0416266
0.170596 0.614496 0.0509194
0.707927 0.643442 0.0604868
0.935256 0.683162 0.0604257
0.96405 0.696406 0.134081
0.338079 0.879927 0.33228
0.338064 0.879927 0.332265
0.831495 0.913924 0.429999
0.972366 0.928878 0.67631
0.988952 0.937087 0.728084
0.419577 0.929259 0.419181
0.419577 0.929259 0.419181
0.854368 0.94464 0.573373
0.981155 0.963272 0.81413
0.995911 0.971939 0.853712
0 0 0.227481
0.176822 0 0.207477
0.476127 0 0
0.22446 0.051545 0.0313726
0.154757 0.0831311 0.0756847
0 0.140642 0.143755
0.146975 0.14403 0.137728
0.65098 0.122438 0
0.610788 0.187137 0
0.548455 0.205158 0.0528573
0.0624094 0.557885 0.041001
0.169085 0.613275 0.0502632
0.707683 0.642588 0.0594339
0.934905 0.682338 0.0590066
0.96379 0.695537 0.133181
0.337942 0.879835 0.332143
0.337942 0.87982 0.332128
0.831342 0.913863 0.429648
0.972351 0.928801 0.67602
0.988937 0.937026 0.727886
0.419577 0.929259 0.419181
0.419577 0.929259 0.419181
0.854292 0.94464 0.573281
0.981155 0.963272 0.814115
0.995911 0.971939 0.853712
0 0 0.398886
0.0912947 0 0.501228
0.418097 0 0.372595
0.454475 0.0117342 0.195529
0.409567 0.0435492 0.166445
0 0.0290837 0.489448
0.118135 0.0251164 0.635493
0.586725 0 0.528786
0.625559 0.0188907 0.267308
0.494469 0.0407111 0.183688
0.021973 0.600763 0.547936
0.0834058 0.657008 0.593225
0.718196 0.677913 0.587381
0.989792 0.705089 0.542931
1 0.71368 0.496254
0.336278 0.87866 0.330373
0.336278 0.87866 0.330373
0.829404 0.913054 0.426032
0.972183 0.927993 0.672557
0.988785 0.936263 0.724758
0.419577 0.929259 0.419181
0.419577 0.929259 0.419181
0.853483 0.944549 0.572198
0.981109 0.963256 0.814023
0.995911 0.971939 0.853712
0 0 0.249958
0.0354772 0 0.368841
0.292561 0 0.443412
0.358083 0.0720226 0.321019
0.337972 0.10515 0.28719
0 0 0.250401
0.0321813 0 0.363241
0.29247 0 0.443641
0.358328 0.0718853 0.32108
0.338109 0.105058 0.287175
0.100343 0.521126 0.738613
0.101289 0.525002 0.745388
0.708858 0.613397 0.933928
0.986206 0.648539 0.921096
1 0.666041 0.908782
0.348241 0.922469 0.884871
0.348196 0.922454 0.88481
0.825681 0.944793 0.915312
0.976013 0.967956 0.952193
0.993851 0.976516 0.961883
0.468696 0.963272 0.89778
0.46865 0.963272 0.897734
0.877775 0.974456 0.935119
1 1 0.985809
1 1 0.99765
0 0 0.226596
0.00900282 0 0.27985
0.27834 0.00575265 0.437934
0.344289 0.0795453 0.320317
0.323476 0.111971 0.287633
0 0 0.226596
0.00553903 0 0.269352
0.278035 0.00569162 0.438102
0.344305 0.0794995 0.320348
0.323476 0.111971 0.287633
0.0933852 0.430533 0.714122
0.09337 0.430442 0.714076
0.705745 0.521126 0.956893
0.992203 0.56286 0.950774
1 0.57995 0.945342
0.361532 0.917479 0.907652
0.361532 0.917464 0.907637
0.824125 0.942901 0.935271
0.975402 0.968505 0.964111
0.993393 0.977539 0.973007
0.500221 0.961273 0.928649
0.500221 0.961273 0.928649
0.885481 0.976211 0.956832
1 1 0.999176
1 1 1
