luts/Cliff-LogC4.cube
TITLE "Generated by Resolve"
LUT_3D_SIZE 9
0 0 0
0.0617075 0 0
0.24242 0 0
0.377691 0 0
0.406149 0 0
0.378149 0.00122072 0
0.341878 0.028687 0.0293736
0.325048 0.0413214 0.0497139
0.31957 0.0451514 0.0559396
0 0.0459449 0
0.0497292 0.0356451 0
0.25716 0.0273136 0
0.443244 0.019028 0
0.405829 0 0
0.377935 0.00129702 0
0.341741 0.028748 0.0293889
0.324941 0.0413519 0.0496986
0.319463 0.0451972 0.0559396
0 0.198947 0
0.0184176 0.210742 0
0.241093 0.2 0
0.533516 0.172305 0
0.695903 0.171328 0
0.672221 0.12903 0
0.341222 0.0289464 0.0294347
0.32459 0.0415045 0.0496681
0.319036 0.0453498 0.0559548
0 0.428809 0
0.0698863 0.464775 0
0.256779 0.489311 0.00694286
0.555245 0.48539 0
0.790402 0.494224 0
0.912474 0.505043 0
0.956405 0.500832 0.0499733
0.967208 0.494469 0.114748
0.969406 0.491753 0.131365
0.158434 0.680095 0.121111
0.22591 0.717006 0.123323
0.397955 0.744274 0.136751
0.642496 0.74789 0.131548
0.838071 0.756344 0.167712
0.946914 0.774258 0.246067
0.98851 0.783429 0.333776
1 0.78677 0.369802
1 0.787442 0.380728
0.324117 0.853223 0.266224
0.400626 0.872496 0.264408
0.56144 0.881987 0.274174
0.754131 0.881376 0.305364
0.887617 0.882445 0.418341
0.9561 0.896925 0.559915
0.980209 0.908049 0.653361
0.987457 0.912291 0.685496
0.989487 0.913573 0.694362
0.452415 0.922133 0.364492
0.525185 0.928176 0.370626
0.666651 0.928573 0.39765
0.818723 0.927062 0.469352
0.917342 0.93077 0.598672
0.965255 0.940856 0.724773
0.984283 0.953597 0.804898
0.990417 0.95845 0.829969
0.992065 0.959869 0.836606
0.509606 0.940139 0.409979
0.578256 0.942596 0.420859
0.707164 0.941146 0.457359
0.841794 0.94023 0.542641
0.928695 0.945663 0.669154
0.970642 0.954559 0.776684
0.988815 0.967712 0.849104
0.994675 0.972747 0.871458
0.996323 0.974227 0.877455
0.527779 0.944564 0.425055
0.593942 0.946288 0.437064
0.718883 0.944411 0.47631
0.848615 0.943908 0.564965
0.932296 0.950057 0.689311
0.972473 0.958373 0.790951
0.990478 0.971756 0.860792
0.996338 0.976837 0.882551
0.997879 0.978256 0.888243
0 0 0.0770733
0.057496 0 0.0741436
0.265949 0 0
0.426139 0 0
0.458534 0 0
0.413809 0 0
0.367834 0.0181582 0.0286564
0.346303 0.0349889 0.0522164
0.338994 0.0412451 0.0603189
0 0.0465858 0.057496
0.039353 0.0413062 0.0564736
0.294362 0.00700389 0
0.502251 0 0
0.458381 0 0
0.413687 0 0
0.367727 0.0181888 0.0286564
0.346227 0.0350042 0.0522011
0.338918 0.0412451 0.0602884
0 0.209247 0
0.00140383 0.22385 0.00325017
0.24715 0.210513 0.00154116
0.578866 0.178012 0
0.744213 0.177096 0
0.708431 0.135637 0
0.367391 0.0183108 0.028687
0.345953 0.0350652 0.0521859
0.338643 0.0413062 0.0602274
0 0.447517 0.0167697
0.0501564 0.485969 0.022034
0.244175 0.512612 0.0467384
0.572564 0.499916 0.0181125
0.819989 0.501076 0
0.932067 0.50927 0
0.96936 0.50428 0.116106
0.978134 0.497627 0.164675
0.97995 0.494835 0.17847
0.144793 0.69894 0.155138
0.209918 0.736584 0.154879
0.382071 0.763684 0.167193
0.641001 0.763607 0.171862
0.847059 0.76553 0.219059
0.952346 0.778378 0.294286
0.991318 0.786343 0.371603
1 0.78909 0.403113
1 0.789853 0.412818
0.313466 0.862043 0.285008
0.390616 0.880644 0.283955
0.554955 0.889418 0.297032
0.752392 0.887556 0.339971
0.888457 0.889784 0.475746
0.955642 0.901396 0.607919
0.979644 0.910979 0.681895
0.987091 0.914839 0.708583
0.988846 0.915953 0.715969
0.452125 0.922103 0.364492
0.525002 0.928176 0.370642
0.66659 0.928588 0.397665
0.818555 0.928054 0.477607
0.917922 0.934524 0.629023
0.965728 0.946365 0.767865
0.984817 0.956985 0.826703
0.990875 0.961166 0.846494
0.992508 0.962417 0.85185
0.509331 0.940124 0.409979
0.578088 0.942596 0.420844
0.707103 0.941146 0.457359
0.841794 0.94023 0.542657
0.929046 0.947753 0.684337
0.972107 0.960372 0.816449
0.990036 0.971496 0.868955
0.995727 0.97586 0.88629
0.997131 0.976989 0.890745
0.527504 0.944549 0.42504
0.593774 0.946288 0.437049
0.718837 0.944411 0.47631
0.848615 0.943908 0.564981
0.93257 0.95137 0.700206
0.974365 0.964446 0.829328
0.991836 0.97557 0.88011
0.997452 0.979934 0.896773
0.999054 0.981186 0.901198
0 0 0.245274
0.038819 0 0.273091
0.246403 0 0.219883
0.451194 0 0.0411841
0.506828 0 0
0.464317 0 0.00172427
0.410407 0.00860609 0.0545205
0.384878 0.0292821 0.0779736
0.376944 0.0356451 0.0851759
0 0.0436866 0.258595
0.028748 0.0411536 0.291356
0.282124 0.00828565 0.249271
0.553079 0 0.0372473
0.506813 0 0
0.464302 0 0.00167849
0.410376 0.00860609 0.0544747
0.384848 0.0292821 0.0779431
0.376913 0.0356451 0.0851453
0 0.211093 0.184436
0 0.231174 0.200839
0.237903 0.226017 0.198917
0.620111 0.199496 0.0916457
0.797101 0.194842 0.0556497
0.782437 0.083711 0.0289158
0.410269 0.00862135 0.0543526
0.384741 0.0292973 0.077821
0.376806 0.0356603 0.0850385
0 0.466697 0.162768
0.0113832 0.509468 0.164843
0.218845 0.541802 0.173129
0.589075 0.518151 0.155291
0.854063 0.51252 0.0847639
0.95906 0.519356 0.189014
0.99115 0.514733 0.263752
0.997955 0.508278 0.291646
0.999359 0.505547 0.300191
0.0926223 0.727535 0.289372
0.167742 0.766003 0.286564
0.348013 0.793561 0.288487
0.632029 0.783902 0.29424
0.853056 0.776486 0.343236
0.957351 0.785855 0.407767
0.994217 0.792584 0.46511
1 0.794766 0.488151
1 0.795453 0.494865
0.251072 0.894423 0.434501
0.33933 0.910658 0.436194
0.522972 0.913054 0.451148
0.741909 0.902022 0.495094
0.886107 0.901045 0.592218
0.953826 0.908843 0.691081
0.978363 0.91722 0.740429
0.98584 0.920592 0.758526
0.987823 0.92166 0.763684
0.397513 0.952239 0.529595
0.483833 0.954528 0.540597
0.646586 0.94786 0.573419
0.813657 0.940719 0.642313
0.918547 0.946136 0.737606
0.966842 0.954513 0.828367
0.986114 0.963546 0.865324
0.992126 0.96701 0.878401
0.993606 0.968109 0.882231
0.467262 0.965133 0.570138
0.548012 0.964172 0.584176
0.694728 0.95671 0.623423
0.84065 0.952453 0.697871
0.932082 0.95967 0.789471
0.974838 0.969146 0.869825
0.992309 0.978134 0.90193
0.997818 0.981735 0.913375
0.999313 0.982712 0.916411
0.489265 0.968063 0.582818
0.567681 0.966354 0.597681
0.709163 0.959258 0.638453
0.848539 0.955627 0.713634
0.936172 0.963409 0.803677
0.977295 0.973205 0.881178
0.994522 0.982345 0.91194
0.999878 0.985855 0.922652
1 0.986725 0.925521
0 0 0.417411
0.0211643 0 0.484123
0.214801 0 0.47863
0.421424 0 0.341558
0.497841 0 0.192035
0.482292 0 0.143145
0.438621 0.0162966 0.145907
0.415717 0.0349432 0.150912
0.407919 0.0406653 0.152941
0 0.0584115 0.447288
0.0199741 0.0602121 0.523384
0.242481 0.0381323 0.547982
0.539254 0.00296025 0.442527
0.564141 0 0.225849
0.482292 0 0.14313
0.438605 0.0162966 0.145892
0.415717 0.0349432 0.150912
0.407904 0.0406653 0.152911
0 0.213642 0.427237
0.00250248 0.234607 0.495613
0.22121 0.237797 0.555138
0.620371 0.206455 0.501091
0.847211 0.164416 0.408453
0.851942 0.0801709 0.327932
0.475853 0.0146944 0.152956
0.415702 0.0349432 0.150866
0.407904 0.04065 0.152865
0 0.470985 0.406378
0.0107424 0.515999 0.439338
0.187304 0.556619 0.46508
0.576425 0.536873 0.446738
0.86067 0.534524 0.429206
0.966598 0.545205 0.466911
1 0.537865 0.492561
1 0.520928 0.493812
1 0.514641 0.493721
0.0773785 0.737743 0.499809
0.13373 0.77821 0.509728
0.298833 0.810834 0.509926
0.607523 0.799084 0.507668
0.84683 0.787106 0.538369
0.954025 0.796277 0.579171
0.990387 0.802762 0.612894
1 0.805203 0.626184
1 0.805585 0.629877
0.242954 0.903593 0.621912
0.318853 0.920806 0.627008
0.492271 0.926101 0.633661
0.728801 0.911971 0.663722
0.881697 0.911498 0.717525
0.951186 0.918379 0.784894
0.976486 0.926406 0.81474
0.984146 0.929717 0.82594
0.98616 0.930709 0.829007
0.398718 0.958862 0.697444
0.479026 0.96199 0.704479
0.635386 0.958053 0.722942
0.812314 0.949325 0.769833
0.920012 0.954574 0.829328
0.969116 0.963775 0.886259
0.988251 0.972091 0.909331
0.994079 0.975341 0.91783
0.995758 0.976303 0.920058
0.473732 0.97084 0.727169
0.549523 0.970748 0.735653
0.690532 0.966171 0.758679
0.843336 0.960571 0.808484
0.935836 0.968063 0.86627
0.978988 0.978698 0.915984
0.995911 0.986526 0.938003
1 0.9897 0.945251
1 0.99057 0.947295
0.497414 0.973449 0.736248
0.571435 0.972763 0.745068
0.7066 0.968414 0.769207
0.852567 0.963745 0.819669
0.94081 0.972 0.876677
0.982147 0.98291 0.923796
0.998398 0.990555 0.945556
1 0.993713 0.952758
1 0.994644 0.954772
0 0.0712749 0.528862
0.021973 0.0756542 0.622187
0.21181 0.0652323 0.708888
0.500282 0.0269322 0.657679
0.557443 0 0.458656
0.449851 0.0139467 0.273304
0.422004 0.0460975 0.243458
0.405264 0.0610361 0.235477
0.399771 0.0658427 0.233326
0 0.118257 0.553811
0.0233768 0.127581 0.646784
0.221622 0.124437 0.742641
0.548012 0.0883345 0.712596
0.701869 0.0632181 0.596216
0.449866 0.0139467 0.273289
0.422004 0.0460975 0.243458
0.405264 0.0610361 0.235477
0.399771 0.0658427 0.233326
0 0.247074 0.579492
0.0224765 0.269322 0.663569
0.21886 0.287648 0.767865
0.592065 0.2607 0.771069
0.837156 0.252461 0.725658
0.896651 0.218326 0.641688
0.775921 0.116716 0.477394
0.499077 0.0636301 0.280461
0.399771 0.0658274 0.23331
0.00793469 0.48423 0.600534
0.0443732 0.524742 0.660456
0.213336 0.569116 0.734066
0.559915 0.55964 0.749035
0.85272 0.554986 0.728099
0.981582 0.557763 0.715953
1 0.549767 0.716228
1 0.542184 0.716167
1 0.539101 0.716106
0.109102 0.737377 0.676066
0.157412 0.779995 0.710628
0.315877 0.813855 0.736004
0.588312 0.810956 0.729702
0.832593 0.800885 0.731945
0.942077 0.810941 0.745571
0.978637 0.818311 0.7608
0.989654 0.820966 0.766735
0.992721 0.821607 0.768475
0.262776 0.902083 0.769284
0.338766 0.920592 0.782208
0.512535 0.92639 0.788724
0.72398 0.920684 0.797696
0.878676 0.92018 0.827085
0.949905 0.928893 0.862806
0.975296 0.936873 0.880385
0.982879 0.939879 0.886854
0.98497 0.940841 0.888716
0.419837 0.957534 0.818402
0.504479 0.960891 0.824308
0.66009 0.958206 0.834287
0.817349 0.956817 0.857908
0.923796 0.962478 0.89572
0.972824 0.97319 0.92987
0.991592 0.981018 0.946426
0.997467 0.984146 0.952102
0.9991 0.984909 0.953674
0.497978 0.969436 0.835477
0.577157 0.969619 0.84123
0.71577 0.966842 0.853971
0.851194 0.967941 0.88188
0.941756 0.97586 0.920119
0.984344 0.987793 0.950347
1 0.994919 0.967559
1 0.997971 0.972671
1 0.998856 0.974197
0.522408 0.972107 0.840528
0.599084 0.971771 0.846311
0.732128 0.969268 0.860212
0.861051 0.97116 0.889128
0.946853 0.979614 0.926986
0.98764 0.991791 0.956176
1 0.99881 0.973327
1 1 0.978469
1 1 0.979904
0.016144 0.185428 0.60177
0.0346685 0.19588 0.669825
0.218875 0.216114 0.829648
0.547311 0.194491 0.850996
0.766995 0.168887 0.802747
0.719341 0.102846 0.622644
0.38143 0.0732586 0.293767
0.369162 0.0873579 0.280568
0.364446 0.0914015 0.276875
0.0191806 0.217517 0.617487
0.0376745 0.230198 0.68397
0.222217 0.256092 0.84062
0.559228 0.237461 0.867231
0.797482 0.21738 0.833402
0.819821 0.163516 0.72343
0.455192 0.0783093 0.346227
0.369162 0.0873579 0.280568
0.364446 0.0913863 0.276875
0.0289311 0.31426 0.651255
0.0461433 0.332738 0.71104
0.226001 0.374701 0.854963
0.573419 0.363775 0.890822
0.84268 0.352926 0.878889
0.941497 0.333715 0.846647
0.936736 0.29012 0.783566
0.901503 0.251408 0.728527
0.882322 0.235874 0.703624
0.0634623 0.514107 0.70106
0.0802472 0.542031 0.748363
0.244068 0.599786 0.852552
0.562325 0.599313 0.880308
0.841108 0.592523 0.877882
0.96611 0.600397 0.869383
1 0.598856 0.862242
1 0.5944 0.860273
1 0.59234 0.859617
0.155184 0.746303 0.776867
0.183368 0.778378 0.811902
0.344198 0.81912 0.857053
0.606806 0.818448 0.85893
0.826581 0.815198 0.856077
0.936584 0.824659 0.854688
0.976165 0.831006 0.856947
0.988296 0.833356 0.858686
0.991455 0.833844 0.859098
0.283085 0.894591 0.84686
0.356115 0.917601 0.867384
0.537942 0.926406 0.876799
0.741894 0.923705 0.879423
0.87953 0.929 0.893462
0.950515 0.93817 0.913283
0.975372 0.946212 0.923934
0.982849 0.949248 0.928237
0.984924 0.95021 0.929564
0.428031 0.952682 0.88394
0.52134 0.958801 0.891234
0.683009 0.958175 0.897597
0.83389 0.959838 0.911681
0.928969 0.969665 0.935851
0.977462 0.981109 0.957946
0.99527 0.988357 0.970886
1 0.991363 0.975143
1 0.992279 0.976318
0.504753 0.965972 0.894575
0.594476 0.968032 0.900023
0.737591 0.967163 0.908125
0.866682 0.971069 0.926467
0.947601 0.982406 0.952499
0.9888 0.994415 0.974487
1 1 0.987167
1 1 0.99115
1 1 0.992294
0.528191 0.96878 0.897414
0.61532 0.970108 0.902708
0.751919 0.96936 0.911177
0.875471 0.974014 0.930724
0.952865 0.985931 0.957259
0.99237 0.998169 0.979294
1 1 0.991775
1 1 0.995758
1 1 0.996811
0.0510719 0.27219 0.643717
0.0542153 0.276417 0.663676
0.225376 0.325872 0.871763
0.557244 0.319066 0.92047
0.814939 0.304875 0.910292
0.895079 0.269139 0.8589
0.824399 0.192554 0.734478
0.678386 0.143191 0.57229
0.577646 0.126238 0.47776
0.0546426 0.296376 0.655314
0.0577401 0.301549 0.675486
0.227787 0.354986 0.877226
0.561456 0.350027 0.926314
0.825055 0.338293 0.920302
0.919264 0.310521 0.883253
0.893065 0.247684 0.804028
0.826154 0.20502 0.716594
0.787839 0.187778 0.673167
0.0662699 0.372519 0.686259
0.0690471 0.379309 0.705547
0.234897 0.444343 0.887007
0.566644 0.444541 0.935058
0.840482 0.436973 0.936446
0.958312 0.426886 0.922988
0.986343 0.396704 0.899977
0.984482 0.375738 0.879545
0.981506 0.367178 0.871138
0.102876 0.542855 0.74284
0.106477 0.553628 0.76202
0.262242 0.628046 0.894133
0.566583 0.633509 0.927108
0.833753 0.628702 0.928313
0.959228 0.633783 0.925048
1 0.634684 0.920394
1 0.632258 0.918105
1 0.631189 0.917205
0.187945 0.755474 0.820523
0.198337 0.772427 0.840436
0.362127 0.824872 0.903822
0.621286 0.826261 0.907866
0.82945 0.825559 0.904646
0.931792 0.835172 0.904402
0.969497 0.843275 0.902922
0.981109 0.845701 0.902785
0.98436 0.846433 0.902876
0.30985 0.895903 0.882658
0.356817 0.913344 0.899367
0.552026 0.926894 0.913237
0.754452 0.925887 0.914122
0.885908 0.933028 0.923781
0.951827 0.94406 0.93724
0.975845 0.952255 0.945327
0.982895 0.955322 0.948577
0.984863 0.956268 0.949599
0.42446 0.947036 0.908492
0.520195 0.957076 0.919005
0.694667 0.958328 0.924636
0.844083 0.961776 0.93518
0.934691 0.973022 0.954299
0.980163 0.985245 0.972519
0.997787 0.992767 0.983017
1 0.995758 0.986496
1 0.996674 0.987594
0.495567 0.962203 0.918425
0.594232 0.966857 0.925124
0.748089 0.967376 0.931441
0.875944 0.973037 0.946151
0.95288 0.985763 0.967498
0.991913 0.998276 0.986267
1 1 0.996933
1 1 1
1 1 1
0.514427 0.965057 0.920211
0.612375 0.96875 0.92636
0.760159 0.969436 0.933364
0.882918 0.975525 0.948882
0.957351 0.988785 0.970932
0.995422 1 0.990188
1 1 1
1 1 1
1 1 1
0.0676432 0.308934 0.660777
0.0674754 0.308507 0.660456
0.228244 0.370153 0.883955
0.558343 0.369299 0.939513
0.824002 0.358816 0.938689
0.924773 0.334142 0.908553
0.912352 0.277333 0.843153
0.864439 0.233265 0.777447
0.83772 0.218296 0.744732
0.0712139 0.330404 0.671321
0.0711376 0.329961 0.671107
0.23093 0.395483 0.888045
0.560769 0.39585 0.943053
0.829602 0.386892 0.944305
0.93875 0.367849 0.92221
0.944976 0.321263 0.876616
0.920638 0.28542 0.834592
0.906508 0.271748 0.815229
0.0830854 0.398627 0.700252
0.0830243 0.398276 0.700114
0.238544 0.473899 0.896559
0.564981 0.478386 0.948577
0.838193 0.472343 0.953002
0.961151 0.465934 0.945113
0.996582 0.44239 0.929747
1 0.423957 0.918242
1 0.416617 0.913283
0.119677 0.55639 0.757702
0.119753 0.557366 0.759777
0.268788 0.64094 0.906447
0.568856 0.648829 0.941299
0.831037 0.644923 0.943664
0.956115 0.650584 0.940307
1 0.65005 0.938613
1 0.64892 0.935683
1 0.648066 0.935012
0.201495 0.759686 0.834928
0.205921 0.768215 0.84535
0.368399 0.827497 0.917891
0.62742 0.829786 0.923049
0.831098 0.830243 0.919615
0.931731 0.839765 0.919707
0.967544 0.848356 0.917494
0.979171 0.851118 0.917418
0.982223 0.851774 0.917281
0.321324 0.896727 0.894545
0.354253 0.910262 0.908034
0.556649 0.927352 0.92517
0.759441 0.926833 0.925048
0.888624 0.934707 0.933608
0.952407 0.946609 0.945769
0.975982 0.954849 0.952987
0.982818 0.957931 0.955886
0.984802 0.958877 0.956786
0.433616 0.946502 0.918059
0.515221 0.956054 0.927871
0.698512 0.958495 0.933547
0.847822 0.962524 0.942977
0.93695 0.974273 0.960494
0.981506 0.986923 0.977798
0.998917 0.994583 0.987274
1 0.997543 0.99057
1 0.998459 0.991623
0.48896 0.959869 0.925109
0.589792 0.966171 0.933196
0.751492 0.967544 0.93933
0.879454 0.973938 0.952987
0.955215 0.98706 0.972946
0.993225 0.999847 0.990524
1 1 1
1 1 1
1 1 1
0.505898 0.96257 0.926863
0.6065 0.968063 0.934218
0.76231 0.969406 0.940795
0.885557 0.97612 0.955108
0.959014 0.989593 0.975586
0.996185 1 0.993667
1 1 1
1 1 1
1 1 1
0.0728771 0.320119 0.665736
0.0728008 0.319677 0.665522
0.229343 0.383581 0.887083
0.55845 0.384375 0.944656
0.82565 0.374884 0.945815
0.931304 0.353155 0.920211
0.929793 0.301778 0.866224
0.89575 0.261952 0.814084
0.876143 0.246265 0.789776
0.076585 0.340871 0.676066
0.0765087 0.340444 0.675853
0.231876 0.407599 0.890929
0.560555 0.409674 0.947433
0.83032 0.401511 0.950515
0.943038 0.384741 0.932006
0.95613 0.342596 0.893034
0.939269 0.309819 0.858686
0.928954 0.296986 0.843229
0.0885939 0.407156 0.704784
0.0885328 0.406821 0.704662
0.239979 0.483223 0.89955
0.564172 0.488701 0.951919
0.837705 0.483452 0.957794
0.961425 0.477562 0.950729
0.999161 0.456184 0.93753
1 0.439017 0.927337
1 0.43212 0.923293
0.124529 0.560433 0.761975
0.124468 0.560281 0.761883
0.270405 0.644755 0.909606
0.569741 0.653513 0.94522
0.830167 0.650202 0.947631
0.955276 0.655909 0.944701
1 0.655528 0.942702
1 0.6542 0.940414
1 0.653437 0.939757
0.205676 0.761212 0.838987
0.208301 0.766735 0.846098
0.370153 0.828473 0.922057
0.629068 0.831144 0.927275
0.831662 0.831861 0.923919
0.93167 0.841489 0.923583
0.96733 0.849912 0.921645
0.978485 0.852628 0.920974
0.981598 0.853346 0.920821
0.325048 0.897063 0.897887
0.353201 0.909056 0.910155
0.557961 0.927474 0.928603
0.760784 0.92726 0.928389
0.88954 0.935302 0.936522
0.952819 0.946929 0.948348
0.977188 0.955245 0.955016
0.984085 0.958297 0.957717
0.985946 0.959289 0.958434
0.436835 0.946349 0.92079
0.512856 0.955749 0.930449
0.699535 0.958556 0.936172
0.849027 0.962753 0.94522
0.937652 0.974701 0.962371
0.981781 0.987457 0.979324
0.999207 0.994995 0.988495
1 0.998077 0.991821
1 0.999008 0.992859
0.489433 0.959381 0.927291
0.587655 0.966033 0.935332
0.752407 0.967605 0.941451
0.880537 0.974197 0.954971
0.955932 0.987442 0.974517
0.993698 1 0.991669
1 1 1
1 1 1
1 1 1
0.502922 0.961685 0.928664
0.604242 0.967727 0.93637
0.762737 0.969329 0.942901
0.886275 0.976333 0.956786
0.959564 0.989883 0.976837
0.996475 1 0.994751
1 1 1
1 1 1
1 1 1
