luts/Cliff-SLog.cube
TITLE "Generated by Resolve"
LUT_3D_SIZE 9
0 0 0
0.052781 0 0
0.159686 0 0
0.272602 0 0
0.352956 0 0
0.377951 0.000167849 0
0.35288 0.000488289 0
0.27393 0.0288548 0
0.154757 0.0831311 0.0756847
0 0.0395361 0
0.041062 0.0313573 0
0.157076 0.0235599 0
0.29836 0.0306249 0
0.42092 0.0359808 0
0.493599 0.0366674 0
0.512093 0.040589 0
0.468513 0.0840467 0
0.369116 0.140612 0.0785229
0 0.124788 0
0.0175784 0.126802 0
0.141573 0.117372 0
0.300038 0.105882 0
0.460853 0.103029 0
0.575616 0.104799 0
0.629572 0.1337 0
0.6365 0.174441 0
0.597299 0.228855 0.0434424
0 0.236591 0
0.00689708 0.253376 0
0.124636 0.258885 0
0.288624 0.249897 0
0.478325 0.237919 0
0.622873 0.245182 0
0.714321 0.271092 0
0.762509 0.310323 0
0.775555 0.360143 0.00823987
0 0.375372 0
0.0335241 0.407172 0
0.142779 0.426459 0
0.292241 0.430777 0
0.483452 0.426184 0
0.655634 0.430381 0
0.773312 0.449256 0
0.848524 0.48072 0
0.892531 0.520012 0.00819409
0.0447089 0.533516 0.0257877
0.11931 0.573907 0.030518
0.209064 0.600763 0.0442359
0.35053 0.612329 0.0607462
0.523445 0.614466 0.054139
0.688228 0.616358 0.0376287
0.815152 0.629801 0
0.901793 0.651041 0
0.959075 0.677791 0.111452
0.161624 0.691234 0.139818
0.22266 0.731319 0.138323
0.318761 0.756329 0.144656
0.453071 0.76701 0.152743
0.605188 0.769192 0.152255
0.742199 0.771817 0.161196
0.85481 0.777417 0.192309
0.934188 0.79147 0.23151
0.985946 0.809201 0.320317
0.279133 0.828656 0.268849
0.350683 0.860136 0.260853
0.453941 0.875883 0.262715
0.581292 0.879683 0.272206
0.708919 0.879072 0.289937
0.815869 0.880674 0.325185
0.896071 0.880995 0.42829
0.953185 0.89102 0.505623
0.988342 0.904326 0.601419
0.419577 0.929259 0.419181
0.508537 0.943801 0.424384
0.61706 0.946715 0.444327
0.726024 0.944823 0.481849
0.818509 0.943984 0.539467
0.888624 0.946548 0.614832
0.937819 0.951263 0.705623
0.971649 0.958862 0.791409
0.995911 0.971939 0.853712
0 0 0.0693217
0.0493629 0 0.0661326
0.170413 0 0.026978
0.304128 0 0
0.397726 0 0
0.437583 0 0
0.425116 0 0
0.354635 0.00875868 0
0.234714 0.0691081 0.0636149
0 0.0381781 0.052903
0.0321813 0.034287 0.0504311
0.178058 0.0159762 0.012604
0.339529 0.00759899 0
0.477546 0.00375372 0
0.557916 0.0158236 0
0.582956 0.0421454 0
0.556161 0.0819715 0
0.474037 0.132204 0.0547341
0 0.128923 0.0137484
0.00329595 0.13492 0.0144045
0.141817 0.124758 0.0116121
0.333562 0.102281 0
0.512093 0.0956588 0
0.632944 0.109285 0
0.697124 0.136767 0
0.716381 0.174533 0
0.694194 0.224552 0.0215305
0 0.247654 0
0 0.266606 0
0.114839 0.273274 0.0034638
0.297993 0.26038 0
0.512825 0.243427 0
0.671778 0.248676 0
0.77174 0.27425 0
0.827008 0.31249 0
0.848325 0.360632 0.00419623
0 0.391959 0
0.0157168 0.426108 0.00314336
0.129213 0.447333 0.0170138
0.286992 0.450217 0.0304265
0.498711 0.44004 0.00422675
0.688167 0.438712 0
0.814618 0.455451 0
0.893874 0.485878 0
0.940841 0.523919 0.0243076
0.026627 0.55404 0.0706951
0.102235 0.595728 0.0727092
0.192889 0.624475 0.084184
0.337301 0.635019 0.0987106
0.524041 0.632334 0.092256
0.70312 0.629221 0.0691691
0.83856 0.639521 0
0.928512 0.658869 0.0299992
0.98558 0.68423 0.154101
0.144411 0.71313 0.182666
0.203845 0.753063 0.178744
0.299062 0.778439 0.182391
0.436851 0.787442 0.189487
0.5991 0.785611 0.191913
0.746197 0.784649 0.195789
0.864012 0.786786 0.239384
0.944823 0.79913 0.284672
0.995621 0.815824 0.374182
0.252964 0.849012 0.317357
0.326482 0.878706 0.310643
0.433997 0.892989 0.313726
0.568154 0.893935 0.325689
0.70338 0.889754 0.347295
0.815274 0.888731 0.387137
0.896986 0.887922 0.486107
0.954131 0.897154 0.565179
0.989273 0.910384 0.653971
0.394858 0.944411 0.475166
0.490898 0.955947 0.484764
0.60705 0.956207 0.508263
0.72163 0.951919 0.547585
0.817197 0.949508 0.603387
0.888899 0.951537 0.672419
0.939483 0.957351 0.748898
0.973404 0.964523 0.827466
0.997818 0.977539 0.881178
0 0 0.165637
0.0400397 0 0.177127
0.157855 0 0.154467
0.305745 0 0.0741894
0.421561 0 0
0.480064 0 0
0.480049 0 0
0.421958 0 0
0.310079 0.0485084 0.0560922
0 0.0328222 0.171054
0.027985 0.0298619 0.184924
0.166354 0.0149996 0.162051
0.360754 0 0.0579232
0.515145 0 0
0.602914 0 0
0.638468 0.0259556 0
0.626688 0.0696727 0
0.566018 0.115114 0.048249
0 0.126375 0.123781
0.000396735 0.134737 0.131975
0.13167 0.130129 0.127108
0.344121 0.114046 0.0664378
0.54287 0.10811 0
0.674586 0.120546 0
0.747295 0.146075 0
0.776181 0.182086 0
0.767254 0.228504 0.0689097
0 0.251408 0.0804303
0 0.274815 0.0805829
0.0994583 0.284825 0.0873426
0.302739 0.26949 0.0767376
0.540825 0.249454 0
0.711757 0.254643 0
0.817319 0.280674 0
0.877089 0.319188 0
0.90338 0.366018 0.0906386
0 0.403525 0.0767224
0 0.439841 0.079057
0.11342 0.464225 0.0882887
0.279179 0.467216 0.0978866
0.510796 0.451408 0.0681468
0.716503 0.446525 0
0.848783 0.461936 0
0.930053 0.492088 0
0.977905 0.529946 0.129564
0.00888075 0.569558 0.140307
0.0831617 0.61294 0.13933
0.177035 0.643549 0.144244
0.323384 0.65449 0.153399
0.521614 0.647715 0.149981
0.714366 0.640314 0.138354
0.85745 0.647715 0.0862898
0.949142 0.665858 0.138674
1 0.690883 0.239078
0.119478 0.730465 0.251255
0.182406 0.770596 0.246067
0.278767 0.796368 0.246509
0.41976 0.804517 0.250797
0.590295 0.79913 0.254627
0.747417 0.795239 0.258579
0.869322 0.794614 0.311818
0.950973 0.805859 0.361913
1 0.822324 0.448463
0.221485 0.865248 0.386969
0.300832 0.893614 0.383062
0.413291 0.906401 0.387198
0.554391 0.905058 0.400275
0.696254 0.898161 0.424323
0.812604 0.895476 0.466133
0.895857 0.894789 0.553429
0.953201 0.903029 0.630167
0.988907 0.916487 0.708339
0.369116 0.956405 0.54377
0.473655 0.965652 0.55697
0.597635 0.963653 0.581857
0.718013 0.957671 0.619684
0.816693 0.954223 0.670253
0.889769 0.956283 0.729854
0.941268 0.962905 0.792401
0.975158 0.970001 0.860822
0.999985 0.983139 0.906691
0 0 0.26746
0.0286412 0 0.299641
0.13695 0 0.291173
0.280003 0 0.241123
0.414481 0 0.138491
0.490669 0 0.024567
0.507973 0 0
0.467643 0 0.000427253
0.36611 0.0366827 0.0744945
0 0.0259861 0.303532
0.0224155 0.0240635 0.342473
0.14844 0.0120699 0.336889
0.332265 0 0.283558
0.517403 0 0.167727
0.63299 0 0.0264591
0.684657 0 0
0.685954 0.00645457 0
0.643626 0.0646525 0.0646677
0 0.119677 0.268666
0.00349432 0.128267 0.304692
0.126192 0.125353 0.319036
0.338964 0.106844 0.282383
0.574151 0.0531014 0.167529
0.719249 0.0427863 0.0507668
0.795087 0.0993515 0.0339361
0.831312 0.150271 0.0695048
0.834073 0.204181 0.145602
0 0.248585 0.218982
0 0.273091 0.237934
0.084947 0.287678 0.247776
0.294163 0.27657 0.236301
0.552132 0.2607 0.171481
0.735454 0.268315 0.121157
0.84651 0.294987 0.119631
0.91014 0.332784 0.166201
0.941726 0.378637 0.236866
0 0.407416 0.199664
0 0.447242 0.204288
0.076585 0.475837 0.207141
0.262806 0.480629 0.209918
0.515526 0.46096 0.193744
0.736278 0.454002 0.116213
0.872786 0.469917 0.122576
0.954726 0.500221 0.186511
1 0.538476 0.27042
0 0.58027 0.244816
0.0419013 0.625528 0.244968
0.148913 0.657496 0.246998
0.303731 0.669749 0.24976
0.514519 0.66067 0.246525
0.720348 0.649378 0.243763
0.86978 0.654871 0.224308
0.962005 0.672099 0.272053
1 0.697658 0.352361
0.0727703 0.743343 0.347478
0.143267 0.784085 0.345052
0.249897 0.810056 0.344549
0.397879 0.817792 0.345541
0.578317 0.8103 0.34905
0.74432 0.803281 0.356558
0.86981 0.801068 0.408515
0.952453 0.811887 0.458549
1 0.828733 0.535698
0.197009 0.876585 0.478645
0.265187 0.905653 0.47599
0.388434 0.916991 0.481956
0.538109 0.913664 0.495079
0.68716 0.904982 0.518685
0.808194 0.900969 0.556619
0.893523 0.901503 0.6262
0.951476 0.908888 0.696773
0.987945 0.92282 0.761608
0.370794 0.962188 0.625223
0.465095 0.972137 0.636515
0.59028 0.969726 0.657862
0.715923 0.962341 0.691325
0.817288 0.958648 0.734676
0.891524 0.960769 0.784283
0.943389 0.967727 0.835218
0.977508 0.975769 0.890211
1 0.988647 0.92961
0 0 0.34902
0.018967 0 0.400366
0.113497 0 0.410819
0.245289 0 0.371771
0.374792 0 0.304158
0.470253 0 0.209674
0.507073 0 0.129137
0.484215 0 0.0964218
0.399847 0.0364233 0.122911
0 0.0213169 0.411353
0.018967 0.0202945 0.475242
0.130663 0.0111696 0.494545
0.30222 0 0.46006
0.480598 0 0.392508
0.618845 0 0.295644
0.693599 0 0.210986
0.716167 0 0.162402
0.690715 0.0415808 0.1691
0 0.112993 0.408362
0.00859083 0.121935 0.474998
0.121538 0.12079 0.512642
0.318471 0.102998 0.498604
0.542611 0.0939345 0.439796
0.718212 0.0688029 0.352132
0.820874 0.0570993 0.284886
0.873106 0.0894179 0.253651
0.889311 0.153994 0.263294
0 0.243275 0.374701
0 0.267353 0.426017
0.0922103 0.281392 0.46389
0.284077 0.274571 0.472389
0.54905 0.258534 0.430274
0.766033 0.24033 0.358007
0.893996 0.246906 0.314504
0.966476 0.281056 0.311955
0.998489 0.342855 0.351232
0 0.406668 0.352667
0 0.446128 0.381933
0.0789044 0.475547 0.401999
0.240253 0.486534 0.404532
0.505165 0.469123 0.386862
0.738216 0.464759 0.349538
0.879561 0.483207 0.352102
0.964218 0.514214 0.382864
1 0.552056 0.430182
0 0.584115 0.385168
0.0359655 0.630182 0.398932
0.121843 0.664332 0.405646
0.26482 0.681056 0.400763
0.49633 0.670863 0.395911
0.717662 0.656611 0.392264
0.873075 0.661357 0.385977
0.966125 0.67953 0.424521
1 0.705608 0.48423
0.0809339 0.749355 0.471458
0.13164 0.79057 0.476905
0.220569 0.818555 0.477256
0.364096 0.828656 0.473793
0.55967 0.819379 0.476265
0.735973 0.809796 0.482795
0.865293 0.806714 0.523873
0.950027 0.817929 0.565499
0.999863 0.835462 0.627237
0.202838 0.882033 0.583993
0.268681 0.909804 0.589044
0.373693 0.923171 0.592645
0.518761 0.921477 0.6
0.67718 0.911101 0.620203
0.802579 0.906035 0.650996
0.891035 0.908125 0.697749
0.949767 0.914931 0.75938
0.986801 0.929335 0.810925
0.382208 0.965011 0.706142
0.478279 0.973541 0.717754
0.59617 0.972366 0.73312
0.716121 0.967041 0.758053
0.819257 0.963043 0.793332
0.894377 0.965118 0.832837
0.945983 0.972351 0.87335
0.980606 0.98172 0.916121
1 0.994171 0.949981
0 0 0.392004
0.012726 0 0.456382
0.0930037 0 0.483803
0.207935 0 0.464836
0.332128 0 0.411215
0.427588 0 0.341466
0.480735 0 0.260624
0.476646 0 0.202152
0.410101 0.0476387 0.182269
0 0.0208591 0.472053
0.0196536 0.0209659 0.555398
0.117357 0.0145113 0.597299
0.27071 0 0.588602
0.445655 0 0.542214
0.582208 0 0.478477
0.672953 0.0087129 0.399771
0.714199 0.0223545 0.335286
0.706844 0.0667735 0.298955
0 0.110033 0.506874
0.0179904 0.119631 0.5944
0.121401 0.120745 0.65005
0.298589 0.107958 0.659175
0.516655 0.0910201 0.625498
0.687816 0.104051 0.573983
0.804349 0.12108 0.511193
0.87245 0.140581 0.464088
0.902434 0.184894 0.438575
0 0.239521 0.504219
0.00796521 0.263539 0.581674
0.105364 0.277806 0.64036
0.283009 0.274586 0.667262
0.531991 0.25771 0.652186
0.739269 0.264714 0.613001
0.879667 0.281956 0.567224
0.96527 0.309621 0.540612
1 0.352361 0.533104
0 0.405188 0.496635
0.009308 0.443763 0.551949
0.0957504 0.472084 0.596017
0.251362 0.483101 0.621195
0.493156 0.472099 0.620584
0.732464 0.467262 0.590494
0.896086 0.475364 0.561349
0.99379 0.49955 0.555764
1 0.534783 0.568658
0.0120699 0.585733 0.523812
0.0534066 0.630701 0.558801
0.134707 0.663615 0.583078
0.271168 0.680873 0.592172
0.47216 0.678752 0.583673
0.704585 0.664057 0.572351
0.86508 0.669886 0.56466
0.959335 0.689586 0.585992
1 0.716304 0.620661
0.0983444 0.752712 0.59379
0.144762 0.792844 0.614145
0.229206 0.819562 0.624826
0.360769 0.831098 0.624994
0.533654 0.828244 0.618189
0.722545 0.815854 0.621958
0.857771 0.813062 0.644999
0.944671 0.824826 0.671992
0.995041 0.842878 0.715358
0.217151 0.885252 0.684688
0.281529 0.911528 0.697093
0.385367 0.92343 0.703441
0.521691 0.923552 0.707286
0.666545 0.917815 0.716487
0.797574 0.911208 0.739376
0.88867 0.914015 0.769543
0.948165 0.921218 0.816251
0.985779 0.935851 0.855177
0.401511 0.965911 0.778851
0.498711 0.973205 0.789807
0.614862 0.971939 0.801511
0.72755 0.968994 0.81857
0.823804 0.967605 0.843854
0.898161 0.969619 0.874983
0.949187 0.977066 0.906691
0.984039 0.987457 0.938842
1 0.999588 0.968109
0 0 0.38587
0.0105592 0 0.459327
0.0770886 0 0.503929
0.173693 0 0.507698
0.285512 0 0.474479
0.38114 0 0.418585
0.436835 0 0.351919
0.446296 0.01561 0.283619
0.397772 0.0679179 0.23769
0 0.0247959 0.480644
0.0248569 0.0259861 0.58439
0.109316 0.0222782 0.646021
0.242664 0.0119936 0.661418
0.405341 0.000289921 0.637171
0.546456 0.000381476 0.591577
0.639658 0.0285039 0.535454
0.692241 0.0661631 0.469215
0.701534 0.104112 0.414786
0 0.111513 0.554833
0.0321965 0.12195 0.659205
0.12604 0.125444 0.728405
0.284123 0.11809 0.755535
0.487648 0.104768 0.743282
0.663722 0.104707 0.712047
0.781231 0.133288 0.673899
0.857084 0.177554 0.625971
0.898802 0.218051 0.587106
0 0.239216 0.588296
0.031754 0.263523 0.682139
0.124392 0.279194 0.752041
0.288121 0.280415 0.79115
0.516503 0.268803 0.793301
0.723903 0.267399 0.775219
0.862043 0.29366 0.750088
0.952163 0.335271 0.717678
1 0.376883 0.695201
0 0.404913 0.604623
0.0388037 0.443214 0.678401
0.122683 0.471138 0.736492
0.272236 0.483314 0.774136
0.49546 0.476616 0.78529
0.721447 0.469917 0.775891
0.876493 0.488624 0.756893
0.977935 0.517601 0.737713
1 0.551537 0.729961
0.0431525 0.586938 0.637552
0.0809796 0.630991 0.689082
0.159335 0.663035 0.727611
0.291814 0.679606 0.749859
0.483009 0.67837 0.753704
0.693584 0.669276 0.747616
0.857877 0.674571 0.732967
0.963821 0.690822 0.728191
1 0.715419 0.736782
0.124468 0.754772 0.698054
0.167666 0.793881 0.730388
0.249317 0.819562 0.75108
0.376974 0.830472 0.758297
0.542138 0.828412 0.754253
0.708415 0.822873 0.749508
0.849851 0.82034 0.756405
0.93753 0.832685 0.769772
0.987976 0.851209 0.795453
0.240192 0.886885 0.771557
0.303807 0.911513 0.788937
0.406531 0.922713 0.797894
0.539162 0.922927 0.800397
0.675914 0.919234 0.803693
0.793378 0.91751 0.815
0.887007 0.919371 0.836027
0.947372 0.92784 0.865995
0.985061 0.942412 0.893874
0.428565 0.965499 0.840314
0.525231 0.97174 0.850095
0.638498 0.970947 0.858335
0.745983 0.969284 0.870268
0.834699 0.970382 0.88806
0.903029 0.974472 0.910552
0.953353 0.981933 0.935454
0.987625 0.992859 0.959396
1 1 0.983825
0 0 0.328206
0.012604 0 0.408164
0.0664073 0 0.470924
0.144854 0 0.499947
0.239933 0 0.490883
0.32871 0 0.451759
0.387137 0 0.396521
0.401785 0.0357061 0.334188
0.366644 0.0903792 0.275349
0 0.0328374 0.438422
0.0339055 0.0348058 0.564645
0.105989 0.0338903 0.648997
0.21912 0.0283818 0.687602
0.363882 0.020798 0.685679
0.502602 0.0208133 0.657221
0.603906 0.0372931 0.61561
0.66157 0.0792096 0.564584
0.680507 0.13228 0.504982
0.0083772 0.116793 0.554269
0.0506905 0.128008 0.677531
0.134844 0.13434 0.76173
0.274281 0.132036 0.804913
0.458854 0.123674 0.81091
0.633051 0.123766 0.795438
0.759869 0.14229 0.771893
0.84004 0.18085 0.742519
0.887236 0.238682 0.701961
0.020264 0.242054 0.627146
0.0610819 0.266911 0.735424
0.148028 0.284749 0.814679
0.297093 0.290578 0.862135
0.504509 0.28481 0.877485
0.704921 0.284474 0.872969
0.849546 0.303029 0.861845
0.942031 0.339467 0.84564
0.999893 0.391928 0.818723
0.039826 0.406332 0.673106
0.0753796 0.444739 0.759106
0.156756 0.473716 0.825498
0.298329 0.487892 0.869154
0.502678 0.485878 0.887236
0.713436 0.482338 0.887709
0.86949 0.494759 0.881636
0.968048 0.525154 0.870222
1 0.564248 0.853178
0.0838483 0.588495 0.719554
0.1178 0.63183 0.781979
0.194095 0.663569 0.828962
0.322072 0.680049 0.858015
0.502754 0.680552 0.867994
0.696941 0.674937 0.867124
0.85066 0.679271 0.86273
0.949172 0.70016 0.852445
1 0.72604 0.84593
0.159869 0.756191 0.779065
0.199252 0.794125 0.819287
0.279088 0.819242 0.846357
0.403967 0.829618 0.858045
0.561166 0.828244 0.857008
0.717266 0.824842 0.853651
0.844221 0.826947 0.853986
0.934096 0.838727 0.853895
0.988708 0.856352 0.862242
0.27155 0.887236 0.840772
0.334478 0.910719 0.861769
0.43621 0.921233 0.87187
0.563897 0.922026 0.873549
0.693049 0.919524 0.873869
0.802502 0.920195 0.879088
0.886244 0.925505 0.890944
0.947295 0.9346 0.908507
0.984756 0.949111 0.927245
0.462104 0.963897 0.890272
0.557717 0.96968 0.89865
0.665934 0.969818 0.90425
0.766918 0.969543 0.91223
0.849393 0.972045 0.924208
0.911971 0.978241 0.940429
0.95819 0.986999 0.959411
0.991455 0.997864 0.978347
1 1 0.997436
0 0 0.226596
0.0187381 0 0.306203
0.0604868 0 0.385641
0.121859 0 0.440238
0.198291 0 0.457145
0.274434 0.005066 0.439597
0.330373 0.0246433 0.39823
0.349615 0.059617 0.344442
0.323476 0.111971 0.287633
0.017258 0.04477 0.347204
0.0472419 0.0478676 0.494591
0.106188 0.0492256 0.606424
0.200351 0.0480354 0.671168
0.324346 0.0451972 0.693034
0.453864 0.0475013 0.683787
0.557916 0.0629435 0.655482
0.623774 0.0945144 0.615274
0.649561 0.145663 0.566506
0.0387579 0.12517 0.505211
0.0733501 0.137606 0.653513
0.14696 0.146548 0.757961
0.268208 0.149172 0.818662
0.431601 0.146105 0.842252
0.598596 0.148226 0.841947
0.730327 0.165194 0.830198
0.819287 0.198093 0.81091
0.872786 0.243534 0.785901
0.0614023 0.247059 0.623514
0.0958267 0.27335 0.750881
0.174762 0.293584 0.841703
0.309255 0.303655 0.898497
0.494942 0.303502 0.924392
0.684215 0.306401 0.931517
0.831128 0.323552 0.930053
0.930495 0.355306 0.922194
0.992889 0.397284 0.908888
0.0890822 0.409018 0.705562
0.119448 0.448402 0.804913
0.195468 0.478676 0.877958
0.327657 0.495369 0.925917
0.512734 0.497734 0.949111
0.706584 0.498466 0.956985
0.859037 0.510521 0.957931
0.961898 0.535531 0.953796
1 0.56994 0.945113
0.134157 0.589746 0.773053
0.162982 0.633646 0.844221
0.235752 0.6654 0.896147
0.35819 0.682353 0.928252
0.525628 0.684932 0.941421
0.703166 0.683467 0.944091
0.84773 0.689311 0.94258
0.944823 0.706188 0.937407
1 0.733837 0.928038
0.203677 0.756695 0.837568
0.239414 0.794598 0.883986
0.317311 0.818799 0.914076
0.438087 0.829068 0.927947
0.58645 0.82919 0.928603
0.731197 0.828229 0.925841
0.848219 0.832502 0.924224
0.929305 0.844358 0.923461
0.980453 0.864332 0.921904
0.310124 0.886427 0.893599
0.372534 0.909102 0.916625
0.472175 0.919249 0.92694
0.594324 0.920867 0.928267
0.714916 0.92018 0.927062
0.816281 0.922728 0.929
0.89305 0.929824 0.935164
0.948074 0.94078 0.944701
0.986007 0.95523 0.955795
0.500221 0.961273 0.928649
0.593408 0.967376 0.936202
0.695689 0.968704 0.940078
0.789502 0.96997 0.944991
0.865187 0.974121 0.953475
0.922576 0.981567 0.965148
0.964813 0.991455 0.979263
0.995575 1 0.994202
1 1 1
