luts/Cliff-CLog3.cube
TITLE "Generated by Resolve"
LUT_3D_SIZE 5
0 0 0
0.196429 0 0
0.373632 0 0
0.322683 0.00561532 0
0.154757 0.0831311 0.0756847
0 0.169223 0
0.187472 0.165881 0
0.546395 0.132525 0
0.602655 0.122179 0
0.154757 0.0831311 0.0756847
0.0080415 0.476844 0
0.242008 0.546166 0.0243229
0.60827 0.546273 0.0103761
0.843427 0.562448 0
0.915785 0.566415 0.0231327
0.235325 0.780056 0.210483
0.509529 0.837232 0.213001
0.748211 0.838834 0.228534
0.916777 0.845472 0.339757
0.988876 0.861067 0.453864
0.70425 0.945388 0.47248
0.790158 0.943999 0.518105
0.884031 0.946349 0.608652
0.958724 0.954269 0.760693
0.995911 0.971939 0.853712
0 0 0.231525
0.179782 0 0.231235
0.467597 0 0.00401312
0.486824 0 0
0.349569 0.039353 0.0641489
0 0.161807 0.146365
0.171756 0.16672 0.155016
0.638148 0.136522 0
0.725521 0.105318 0
0.330282 0.0428779 0.0578927
0.00628672 0.473777 0
0.23151 0.542062 0.0215763
0.60528 0.542672 0.00799573
0.842329 0.55877 0
0.913802 0.562295 0.0213321
0.226688 0.773236 0.211582
0.502434 0.836652 0.21207
0.7467 0.838285 0.227512
0.916457 0.84506 0.338476
0.98883 0.860639 0.452842
0.698833 0.945525 0.470344
0.787823 0.944015 0.516899
0.883482 0.946303 0.607874
0.958633 0.954253 0.760464
0.995911 0.971939 0.853712
0 0 0.38735
0.0937667 0 0.474189
0.393835 0 0.360494
0.491432 0 0.208148
0.409934 0.0447089 0.17116
0 0.0969253 0.486534
0.125887 0.097734 0.619837
0.594705 0.0438239 0.538796
0.61059 0 0.263294
0.409689 0.0438849 0.167895
0 0.50692 0.442725
0.122606 0.587488 0.50106
0.618387 0.577554 0.484916
0.925063 0.583841 0.477989
1 0.588098 0.523705
0.144488 0.818921 0.382864
0.428748 0.875517 0.382315
0.731334 0.861814 0.411246
0.920272 0.861051 0.523247
0.993606 0.876295 0.622065
0.679454 0.945907 0.463127
0.779965 0.944015 0.511528
0.881651 0.946136 0.605219
0.958358 0.954192 0.759686
0.995911 0.971939 0.853712
0 0 0.348638
0 0 0.348638
0.282734 0 0.479774
0.413153 0.00320439 0.362173
0.376272 0.0849928 0.267369
0 0 0.349447
0 0 0.349447
0.284138 0 0.479271
0.413779 0.00323491 0.361593
0.376715 0.0847028 0.266926
0.0331121 0.450492 0.663233
0.0332341 0.45008 0.664714
0.575235 0.524346 0.855482
0.920333 0.523934 0.842054
1 0.513115 0.813916
0.190127 0.826581 0.772427
0.287953 0.871885 0.811246
0.675105 0.877638 0.817044
0.900481 0.879103 0.833875
0.981277 0.897017 0.859754
0.54284 0.972656 0.828458
0.748852 0.969009 0.851286
0.884291 0.971267 0.889067
0.971786 0.985473 0.938338
1 1 0.977386
0 0 0.226596
0 0 0.226596
0.157565 0 0.453468
0.340993 0.0341192 0.381918
0.324941 0.110063 0.289403
0 0 0.226596
0 0 0.226596
0.158846 0 0.453758
0.341039 0.0341802 0.381811
0.324926 0.110079 0.289372
0.0405127 0.133135 0.515908
0.0394751 0.129 0.510124
0.347173 0.134569 0.823514
0.588693 0.0731975 0.648524
0.324834 0.110185 0.289265
0.229496 0.800351 0.856168
0.229343 0.800137 0.856062
0.58233 0.861357 0.926925
0.885863 0.866575 0.924041
0.978027 0.88603 0.925704
0.500221 0.961273 0.928634
0.500221 0.961273 0.928634
0.87834 0.975525 0.955795
0.978714 0.996078 0.985367
1 1 1
