luts/Cliff-CLog2.cube
TITLE "Generated by Resolve"
LUT_3D_SIZE 5
0.00321965 0.00520333 0.023743
0.169177 0 0
0.413581 0 0
0.363134 0 0
0.205798 0.074876 0.0677043
0 0.128695 0
0.13875 0.118318 0
0.494423 0.0924086 0
0.475288 0.0505074 0
0.16643 0.0816358 0.0738842
0.0500954 0.457954 0
0.171435 0.483711 0
0.540429 0.483558 0
0.829816 0.498543 0
0.876661 0.492042 0.00349432
0.412192 0.838621 0.215335
0.489738 0.843183 0.218936
0.719738 0.844419 0.23386
0.922454 0.852216 0.359625
0.988891 0.866987 0.472297
0.75256 0.94435 0.495293
0.778958 0.94403 0.510887
0.86894 0.94522 0.589715
0.960449 0.954742 0.76582
0.995911 0.971939 0.853712
0 0 0.201358
0.153033 0 0.183688
0.452811 0 0
0.461311 0 0
0.320562 0.044831 0.0559091
0 0.127275 0.123018
0.125093 0.124132 0.122499
0.574289 0.0921645 0
0.586175 0.0153506 0
0.308644 0.0490578 0.056199
0.0428779 0.45449 0
0.167437 0.481788 0
0.539147 0.481819 0
0.829282 0.496788 0
0.87538 0.489921 0.00343328
0.408286 0.838071 0.215
0.487221 0.842847 0.218555
0.71902 0.844358 0.2336
0.922393 0.852094 0.359197
0.988891 0.86685 0.471824
0.751339 0.944366 0.494636
0.778042 0.944045 0.510307
0.868711 0.945205 0.58938
0.960418 0.954726 0.765743
0.995911 0.971939 0.853712
0 0 0.374548
0.0681468 0 0.450431
0.377295 0 0.346075
0.49752 0 0.164172
0.407401 0.0401923 0.150225
0 0.0607004 0.457053
0.0832837 0.0598001 0.564034
0.523903 0.00456245 0.47866
0.497887 0 0.161257
0.407172 0.0399481 0.148638
0 0.460548 0.396765
0.0679179 0.518166 0.437644
0.553109 0.514397 0.426169
0.931411 0.52018 0.414191
1 0.508019 0.456428
0.378622 0.833387 0.212573
0.466239 0.841138 0.216678
0.713634 0.84332 0.23154
0.921675 0.851011 0.356237
0.989013 0.865919 0.468742
0.742229 0.944457 0.489662
0.771145 0.944045 0.506142
0.866835 0.945235 0.587152
0.960204 0.954681 0.765179
0.995911 0.971939 0.853712
0 0 0.344732
0 0 0.344732
0.239658 0 0.494011
0.411231 0.00697337 0.360311
0.37435 0.0859846 0.269352
0 0 0.345052
0 0 0.345052
0.240284 0 0.493904
0.411444 0.00700389 0.360082
0.374487 0.085893 0.2692
0.0232242 0.363272 0.651209
0.0231327 0.3626 0.651057
0.491356 0.426276 0.868971
0.925307 0.416358 0.850965
0.994385 0.372259 0.78381
0.199039 0.834699 0.781552
0.239155 0.861921 0.805112
0.633661 0.884855 0.825116
0.906477 0.886107 0.843458
0.981018 0.903685 0.868437
0.676432 0.970321 0.848127
0.730282 0.969467 0.855451
0.864698 0.971191 0.886946
0.974304 0.98677 0.943252
1 1 0.979721
0 0 0.226596
0 0 0.226596
0.0946059 0 0.422141
0.342992 0.0364843 0.378058
0.324926 0.110063 0.289387
0 0 0.226596
0 0 0.226596
0.0953689 0 0.422721
0.343008 0.0364996 0.378027
0.324926 0.110079 0.289387
0 0 0.226596
0 0 0.226596
0.10071 0 0.426764
0.343114 0.0366522 0.377783
0.324849 0.11017 0.289296
0.236667 0.81088 0.860914
0.236622 0.810819 0.860899
0.499275 0.869352 0.927169
0.893263 0.875517 0.924681
0.977905 0.894179 0.927886
0.500221 0.961273 0.928634
0.500221 0.961273 0.928634
0.848981 0.972854 0.951156
0.980819 0.996887 0.986236
1 1 1
