luts/Cliff-Log3G10.cube
TITLE "Generated by Resolve"
LUT_3D_SIZE 33
0 0 0.0108644
0 0 0.00991836
0.00846876 0 0.00839246
0.0250858 0 0.00416571
0.0469978 0 0
0.0743877 0 0
0.106386 0 0
0.142397 0 0
0.183108 0 0
0.227314 0 0
0.270924 0 0
0.312383 0 0
0.347326 0 0
0.374884 0.00270085 0
0.39408 0.00726329 0
0.405737 0.00714122 0
0.408057 0.00662242 0
0.401526 0.00579843 0
0.386511 0.00456245 0
0.364263 0.00294499 0
0.333272 0.00770581 0
0.296986 0.0181735 0
0.270954 0.0302434 0
0.246128 0.0414588 0.0161135
0.224445 0.051545 0.0313726
0.205234 0.0600748 0.044007
0.189761 0.0672007 0.0541238
0.176944 0.072755 0.0619821
0.167056 0.0772412 0.06804
0.15967 0.0806439 0.0728618
0.154757 0.0831311 0.0756847
0.154757 0.0831311 0.0756847
0.154757 0.0831311 0.0756847
0 0 0.00666819
0 0 0.00579843
0.00619516 0 0.00419623
0.0227359 0 0
0.0443885 0 0
0.0694133 0 0
0.100954 0 0
0.139986 0 0
0.183154 0 0
0.228321 0 0
0.27361 0 0
0.316228 0 0
0.352804 0.00239567 0
0.381659 0.00895705 0
0.40354 0.0105135 0
0.416495 0.0102693 0
0.420844 0.00973526 0
0.416312 0.00860609 0
0.402808 0.00724804 0
0.38146 0.00553903 0
0.351064 0.0116579 0
0.314305 0.021622 0
0.274617 0.0310216 0
0.246143 0.0414588 0.0161135
0.22446 0.051545 0.0313726
0.205234 0.0600748 0.044007
0.189776 0.0672007 0.0541238
0.176944 0.072755 0.0619821
0.167056 0.0772412 0.06804
0.15967 0.0806439 0.0728618
0.154757 0.0831311 0.0756847
0.154757 0.0831311 0.0756847
0.154757 0.0831311 0.0756847
0 0.00709545 0.000549325
0 0.00650034 0
0.00332647 0.00543221 0
0.0189364 0.00416571 0
0.0395972 0.00347906 0
0.0660258 0.00221256 0
0.0991226 0.000335698 0
0.138811 0 0
0.182864 0 0
0.229328 0 0
0.27686 0.000518807 0
0.321202 0.00480659 0
0.359762 0.0107881 0
0.391424 0.0152743 0
0.415824 0.0152743 0
0.43154 0.0149386 0
0.43827 0.0141909 0
0.435584 0.0130312 0
0.424384 0.0114748 0
0.4056 0.00939956 0
0.375875 0.0176699 0
0.340139 0.0272831 0
0.300954 0.0365454 0
0.261845 0.0446937 0.014847
0.225238 0.0517128 0.0313726
0.205249 0.0600748 0.044007
0.189776 0.0672007 0.0541238
0.176928 0.072755 0.0619821
0.167056 0.0772412 0.06804
0.15967 0.0806439 0.0728618
0.154757 0.0831311 0.0756847
0.154757 0.0831311 0.0756847
0.154757 0.0831311 0.0756847
0 0.0200656 0
0 0.0193637 0
0 0.0180362 0
0.0168002 0.0160678 0
0.0387121 0.0135805 0
0.0649882 0.0117647 0
0.097322 0.00996414 0
0.136828 0.00839246 0
0.181353 0.00758373 0
0.229938 0.00863661 0
0.279713 0.0116732 0
0.326589 0.0164187 0
0.36788 0.0226291 0
0.404318 0.0226596 0
0.43241 0.0225071 0
0.451194 0.0220645 0
0.4607 0.0211948 0
0.46154 0.0198062 0
0.453696 0.0179141 0
0.43711 0.0177005 0
0.409583 0.0269169 0
0.37583 0.0363165 0
0.338079 0.0452125 0
0.299428 0.0531624 0.011368
0.262013 0.06009 0.0296025
0.228794 0.0656138 0.043946
0.200137 0.0697185 0.0542916
0.176944 0.072755 0.0619669
0.167071 0.0772412 0.0680247
0.159686 0.0806439 0.0728618
0.154757 0.0831311 0.0756847
0.154757 0.0831311 0.0756847
0.154757 0.0831311 0.0756847
0 0.0363928 0
0 0.0356603 0
0 0.0344701 0
0.0113985 0.0329137 0
0.0350347 0.0302739 0
0.0632639 0.0267491 0
0.0955367 0.0237888 0
0.133684 0.0218509 0
0.178729 0.0215915 0
0.228931 0.0229496 0
0.280705 0.0263676 0
0.331151 0.0320592 0
0.378683 0.0332341 0
0.418585 0.0332799 0
0.451026 0.0330816 0
0.474327 0.0325322 0
0.488548 0.0315862 0
0.493858 0.0302586 0
0.491112 0.0282292 0
0.477485 0.0330358 0
0.454627 0.0422065 0
0.424384 0.0507362 0
0.389288 0.0590066 0
0.351949 0.0665141 0.00460822
0.315419 0.0731365 0.0251164
0.281514 0.0783093 0.0414588
0.251713 0.0826276 0.0544442
0.227481 0.0854963 0.0637064
0.207553 0.0876631 0.0706951
0.192309 0.0891432 0.0755627
0.18114 0.0899214 0.0786145
0.176547 0.0887312 0.078172
0.173571 0.0879988 0.0779431
0 0.0562295 0
0 0.0555123 0
0 0.0546578 0
0.00497444 0.0534066 0
0.0274968 0.0516518 0
0.0577249 0.0484016 0
0.0923934 0.0441749 0
0.129946 0.0408484 0
0.174823 0.0396735 0
0.22562 0.0410925 0
0.280064 0.044892 0
0.335668 0.0470893 0
0.387869 0.0472725 0
0.433188 0.0473182 0
0.469871 0.0469673 0
0.498024 0.0465553 0
0.517433 0.0457313 0
0.527886 0.0444343 0
0.529519 0.0449378 0
0.521279 0.0542611 0
0.505241 0.0634012 0
0.482643 0.0724346 0
0.454475 0.0807507 0
0.423087 0.0880751 0
0.389822 0.0937057 0.0145266
0.357809 0.0982681 0.033753
0.328389 0.101747 0.049012
0.303349 0.104753 0.0616465
0.282673 0.106828 0.0711223
0.266239 0.10837 0.0780499
0.254292 0.109133 0.0828717
0.249363 0.10782 0.0827955
0.245686 0.107012 0.0829175
0 0.0803845 0
0 0.0799878 0
0 0.0795758 0
0 0.0786908 0
0.0190433 0.077409 0
0.0474708 0.0756847 0
0.08542 0.0714885 0
0.124987 0.066453 0
0.169665 0.0634318 0
0.221134 0.0638437 0
0.278798 0.0657206 0
0.338933 0.0656443 0
0.395514 0.0657054 0
0.445899 0.0654459 0
0.487892 0.0651713 0
0.521279 0.0647288 0
0.545663 0.0639658 0
0.561883 0.0627604 0
0.567178 0.0717937 0
0.564675 0.0815595 0
0.555627 0.0910811 0
0.540093 0.099443 0
0.520165 0.107515 0
0.496773 0.11458 0
0.47155 0.120516 0
0.446769 0.125582 0.0186618
0.423514 0.129717 0.0364996
0.402762 0.13286 0.0516365
0.38497 0.135271 0.0635843
0.370657 0.136995 0.0729381
0.359792 0.137942 0.0792706
0.355413 0.136538 0.0795758
0.352117 0.13579 0.0801709
0 0.109758 0
0 0.109819 0
0 0.109743 0
0 0.10988 0
0.0099794 0.109529 0
0.0380102 0.108446 0
0.073579 0.106294 0
0.116777 0.101411 0
0.163668 0.0955825 0
0.216464 0.0926528 0
0.277058 0.090837 0
0.340352 0.0898451 0
0.401495 0.0894789 0
0.456977 0.0889906 0
0.504524 0.0885634 0
0.542535 0.0881361 0
0.572305 0.0871443 0
0.591699 0.0949264 0
0.602609 0.104112 0
0.606409 0.113451 0
0.6038 0.12311 0
0.595575 0.132006 0
0.583001 0.140475 0
0.567483 0.147524 0
0.550027 0.153903 0
0.53254 0.159213 0.000808728
0.515465 0.163607 0.0195468
0.500511 0.166995 0.035172
0.487587 0.169635 0.0484016
0.476539 0.171725 0.059266
0.468574 0.172854 0.0662547
0.465385 0.171695 0.066743
0.463096 0.170779 0.0671092
0 0.143404 0
0 0.143938 0
0 0.144656 0
0 0.14551 0
0.00062562 0.146365 0
0.0283513 0.146609 0
0.0636454 0.145708 0
0.105547 0.14342 0
0.156085 0.138399 0
0.213642 0.131579 0
0.276265 0.12604 0
0.341451 0.122057 0
0.405753 0.119539 0
0.465827 0.118151 0
0.518532 0.117479 0
0.562112 0.11809 0
0.594965 0.125154 0
0.619257 0.133471 0
0.635966 0.142809 0
0.645518 0.152529 0
0.649317 0.162493 0
0.647868 0.171725 0
0.641993 0.180362 0
0.633173 0.188037 0
0.622797 0.194751 0
0.611307 0.200198 0
0.600305 0.204593 0.000549325
0.590188 0.20824 0.0167697
0.581415 0.211063 0.0304417
0.573938 0.21326 0.0414282
0.568597 0.214527 0.049012
0.566537 0.213535 0.049424
0.56495 0.212772 0.0497444
0 0.181857 0
0 0.182788 0
0 0.184268 0
0 0.186145 0
0 0.188479 0
0.0192721 0.190311 0
0.0544594 0.191119 0
0.0974136 0.190158 0
0.143587 0.187579 0
0.202914 0.182116 0
0.272114 0.175311 0
0.342443 0.167773 0
0.410407 0.161746 0
0.473823 0.159609 0
0.52958 0.161105 0
0.576654 0.165301 0
0.614832 0.171969 0
0.644739 0.180072 0
0.666468 0.189532 0
0.681636 0.199374 0
0.691127 0.209705 0
0.69543 0.219257 0
0.695399 0.228077 0
0.692988 0.236179 0
0.687556 0.242939 0
0.68191 0.248798 0
0.675547 0.253651 0
0.669825 0.257435 0
0.664591 0.260105 0.0128023
0.66009 0.262181 0.0235599
0.656703 0.2636 0.03093
0.655406 0.262776 0.0312352
0.654582 0.262303 0.0316625
0 0.224369 0
0 0.226108 0
0 0.228183 0
0 0.231403 0
0 0.235187 0
0.0110628 0.238895 0
0.0463569 0.24155 0
0.0902266 0.242786 0
0.13579 0.241886 0
0.19118 0.23917 0
0.258824 0.233845 0
0.33434 0.227955 0
0.407797 0.221485 0
0.476265 0.218067 0
0.53724 0.218204 0
0.58938 0.221454 0
0.63267 0.227314 0
0.667262 0.235142 0
0.694408 0.244373 0
0.714244 0.254307 0
0.728542 0.264332 0
0.738216 0.274418 0
0.743328 0.283406 0
0.745266 0.291386 0
0.745068 0.298711 0
0.743389 0.30454 0
0.740795 0.309346 0
0.738476 0.313222 0
0.736034 0.316289 0
0.734081 0.318547 0.00892653
0.732387 0.320043 0.0163272
0.731563 0.319341 0.016495
0.730938 0.318807 0.0166018
0 0.270832 0
0 0.272496 0
0 0.275517 0
0 0.279957 0
0 0.285389 0
0.00569162 0.291447 0
0.041001 0.296513 0
0.0855421 0.30013 0
0.131151 0.301366 0
0.185153 0.300618 0
0.249226 0.298436 0
0.323934 0.293278 0
0.402701 0.288533 0
0.47686 0.284932 0
0.54313 0.284047 0
0.600015 0.285893 0
0.647791 0.290959 0
0.68719 0.298344 0
0.71873 0.307088 0
0.743206 0.31667 0
0.762005 0.326436 0
0.775494 0.336004 0
0.784939 0.345403 0
0.790768 0.353384 0
0.794034 0.36025 0
0.796017 0.366323 0
0.796918 0.371237 0
0.796979 0.375158 0
0.796262 0.377813 0
0.795789 0.380133 0
0.795529 0.381613 0.00502022
0.794949 0.381079 0.00494392
0.794491 0.380682 0.00489815
0 0.323278 0
0 0.323278 0
0 0.325338 0
0 0.330724 0
0 0.337942 0
0.0041352 0.3467 0
0.0402838 0.354589 0
0.0854505 0.360937 0
0.130999 0.364752 0
0.183551 0.366354 0
0.24715 0.365896 0
0.318288 0.363699 0
0.396979 0.359304 0
0.476158 0.357137 0
0.547356 0.356252 0
0.60914 0.357214 0
0.661601 0.361379 0
0.704799 0.367926 0
0.740017 0.375998 0
0.768627 0.384802 0
0.790539 0.394156 0
0.807584 0.403235 0
0.819974 0.411841 0
0.82948 0.419898 0
0.835706 0.42649 0
0.840238 0.432319 0
0.842954 0.436652 0
0.844953 0.440421 0
0.84625 0.443351 0
0.847059 0.445594 0
0.847547 0.447105 0.000289921
0.847257 0.446677 0.000289921
0.847044 0.446357 0.000289921
0 0.379522 0
0 0.379522 0
0 0.379522 0
0 0.381979 0
0 0.391241 0
0.00701915 0.402213 0
0.0445869 0.413901 0
0.0910506 0.423392 0
0.136019 0.43003 0
0.187686 0.43415 0
0.250355 0.435843 0
0.321172 0.43505 0
0.396551 0.434073 0
0.476036 0.430838 0
0.55082 0.430549 0
0.616892 0.431983 0
0.672969 0.435599 0
0.719738 0.441245 0
0.758511 0.448264 0
0.789624 0.456336 0
0.814893 0.464607 0
0.834241 0.473014 0
0.849622 0.480812 0
0.86099 0.487861 0
0.869642 0.494392 0
0.875639 0.499413 0
0.880476 0.503777 0
0.88368 0.507332 0
0.88574 0.509651 0
0.88748 0.511742 0
0.88867 0.513191 0.00602731
0.888487 0.512871 0.00596628
0.88835 0.512642 0.00590524
0 0.43859 0
0 0.43859 0
0 0.43859 0
0 0.43859 0
0 0.442023 0
0.0151827 0.455711 0
0.053193 0.471473 0
0.100984 0.485283 0
0.145739 0.495064 0
0.197375 0.501823 0.00447089
0.259968 0.505501 0.0122988
0.330617 0.506203 0.0162051
0.405478 0.506249 0.0133822
0.480781 0.505943 0.00796521
0.556359 0.504036 0
0.625147 0.505989 0
0.684077 0.509285 0
0.733242 0.514 0
0.773785 0.520058 0
0.807462 0.526986 0
0.834516 0.534386 0
0.855909 0.541878 0
0.873625 0.549187 0
0.886534 0.555566 0
0.896468 0.560983 0
0.904448 0.565789 0
0.910277 0.569757 0
0.914061 0.572625 0
0.917266 0.575097 0.0118105
0.919646 0.576989 0.0211185
0.92108 0.578393 0.0288701
0.920989 0.578164 0.0287327
0.920928 0.577996 0.0286259
0.021088 0.498878 0.00518807
0.021088 0.498863 0.00518807
0.021088 0.498863 0.00518807
0.021088 0.498863 0.00518807
0.0210727 0.498863 0.00518807
0.0283513 0.503944 0.00563058
0.0629892 0.523507 0.00758373
0.113161 0.543359 0.013138
0.158419 0.557809 0.0205997
0.211246 0.567025 0.0289616
0.274479 0.572747 0.0375982
0.345357 0.574914 0.0432898
0.420356 0.575738 0.0439155
0.494743 0.575906 0.0354772
0.566049 0.575372 0.0484627
0.635264 0.576013 0.0263828
0.695125 0.57937 0
0.745602 0.583459 0
0.787976 0.588968 0
0.823148 0.594949 0
0.851377 0.601419 0
0.874449 0.607843 0
0.892775 0.613977 0
0.907256 0.619913 0
0.918227 0.624598 0
0.92697 0.62887 0.0117952
0.93312 0.632059 0.027924
0.938125 0.634867 0.0421454
0.941665 0.637125 0.0541085
0.944289 0.638743 0.0637522
0.94612 0.639658 0.0706798
0.946029 0.639506 0.0705272
0.945968 0.639399 0.0704204
0.0631418 0.558831 0.0416266
0.0631418 0.558831 0.0416266
0.0631418 0.558831 0.0416266
0.0631418 0.558816 0.0416266
0.0631418 0.558816 0.0416266
0.0631266 0.558816 0.0416266
0.0748302 0.566888 0.0419318
0.121874 0.593561 0.0442359
0.170596 0.614496 0.0509194
0.226932 0.627695 0.0595407
0.29221 0.635325 0.0682078
0.363882 0.638819 0.0747997
0.439307 0.640238 0.0775158
0.513268 0.640696 0.0724193
0.583352 0.641886 0.0599222
0.648188 0.640757 0.099733
0.707927 0.643442 0.0604868
0.758846 0.647318 0.0247349
0.801938 0.65214 0.00364691
0.837446 0.65745 0
0.866407 0.663005 0
0.889982 0.668635 0.00529488
0.908751 0.673976 0.0211643
0.923812 0.679118 0.040116
0.935256 0.683162 0.0604257
0.943999 0.686809 0.0798047
0.95053 0.689769 0.0972305
0.955718 0.692256 0.110536
0.959442 0.694148 0.1205
0.962112 0.695415 0.128206
0.964096 0.69659 0.134279
0.96408 0.696498 0.134188
0.96405 0.696406 0.134081
0.108919 0.616693 0.0841077
0.108919 0.616693 0.0841077
0.108919 0.616693 0.0841077
0.108919 0.616693 0.0841077
0.108919 0.616693 0.0841077
0.108919 0.616693 0.0841077
0.108919 0.616678 0.0841077
0.125048 0.629877 0.0836652
0.178531 0.662562 0.087541
0.24065 0.681331 0.0945144
0.310048 0.691493 0.102373
0.384833 0.696605 0.108614
0.460594 0.698451 0.111223
0.534829 0.699275 0.108614
0.603754 0.700023 0.0999008
0.665949 0.701717 0.0971695
0.722988 0.70074 0.13608
0.773129 0.704189 0.106859
0.815717 0.708568 0.0869917
0.850813 0.713222 0.0786145
0.879423 0.718074 0.0823987
0.9028 0.722927 0.0950179
0.921263 0.727626 0.112322
0.93611 0.732113 0.130678
0.947295 0.735698 0.147601
0.956039 0.73872 0.162875
0.962768 0.741344 0.175998
0.967819 0.743572 0.186603
0.971313 0.745144 0.194598
0.97409 0.74638 0.201129
0.976226 0.747417 0.205676
0.976303 0.747387 0.205814
0.976303 0.747326 0.205707
0.147982 0.670909 0.123995
0.147997 0.670893 0.123995
0.147997 0.670893 0.123995
0.147982 0.670893 0.12398
0.147982 0.670893 0.12398
0.147982 0.670893 0.123995
0.147982 0.670893 0.12398
0.147982 0.670878 0.12398
0.17409 0.693294 0.122988
0.247272 0.725978 0.126787
0.324361 0.740688 0.133028
0.40354 0.747036 0.138445
0.482246 0.749645 0.141573
0.557137 0.750332 0.140642
0.625208 0.751247 0.136248
0.686229 0.752865 0.129946
0.739727 0.753094 0.158602
0.788205 0.753796 0.175479
0.829068 0.757534 0.164691
0.863005 0.761639 0.163546
0.890684 0.76585 0.170031
0.913054 0.770138 0.182376
0.930938 0.774243 0.197696
0.945312 0.778149 0.21445
0.955917 0.781323 0.229969
0.964401 0.784222 0.244068
0.970535 0.786328 0.255818
0.975586 0.78822 0.265568
0.97911 0.789807 0.273259
0.981552 0.790692 0.279072
0.983413 0.791623 0.283909
0.983612 0.791669 0.284184
0.983612 0.791638 0.284123
0.18352 0.720638 0.163729
0.18352 0.720638 0.163729
0.18352 0.720638 0.163729
0.18352 0.720638 0.163729
0.18352 0.720638 0.163729
0.18352 0.720638 0.163729
0.18352 0.720638 0.163729
0.18352 0.720638 0.163729
0.183505 0.720623 0.163714
0.237507 0.755581 0.160861
0.329671 0.781308 0.164462
0.417746 0.790402 0.169406
0.501015 0.793423 0.172686
0.578302 0.794476 0.173907
0.646647 0.794751 0.172869
0.707012 0.796109 0.172213
0.758221 0.797421 0.180804
0.803098 0.796414 0.226673
0.842359 0.799146 0.232273
0.874754 0.802823 0.236728
0.900877 0.806546 0.247303
0.92192 0.810285 0.262135
0.938949 0.813825 0.278874
0.951827 0.817121 0.296422
0.961913 0.82005 0.312093
0.969802 0.822477 0.326436
0.975555 0.824582 0.338506
0.979828 0.826123 0.347951
0.983124 0.827482 0.355932
0.985641 0.82855 0.3617
0.98735 0.829389 0.366506
0.987655 0.82948 0.367208
0.987655 0.829465 0.367147
0.218982 0.764202 0.203037
0.218982 0.764202 0.203037
0.218967 0.764187 0.203037
0.218967 0.764187 0.203037
0.218967 0.764187 0.203037
0.218967 0.764187 0.203037
0.218967 0.764187 0.203037
0.218967 0.764187 0.203037
0.218967 0.764187 0.203037
0.218967 0.764187 0.203021
0.318166 0.810727 0.197742
0.423026 0.826383 0.201312
0.515465 0.83003 0.205676
0.597086 0.830808 0.209049
0.667292 0.830823 0.212116
0.726284 0.83151 0.216358
0.776867 0.83328 0.223331
0.818524 0.833188 0.262058
0.854627 0.833021 0.296757
0.885252 0.836378 0.306767
0.909636 0.83975 0.322133
0.929091 0.843061 0.340169
0.944411 0.846265 0.35967
0.956771 0.84947 0.378485
0.965743 0.852079 0.395651
0.972915 0.854429 0.410849
0.978027 0.856138 0.423072
0.981994 0.857725 0.433036
0.98497 0.8589 0.440864
0.986999 0.859663 0.446799
0.988434 0.860441 0.451698
0.98883 0.860594 0.452781
0.98883 0.860578 0.45272
0.253193 0.801953 0.240238
0.253193 0.801938 0.240223
0.253193 0.801953 0.240223
0.253193 0.801953 0.240223
0.253193 0.801953 0.240223
0.253193 0.801953 0.240223
0.253193 0.801953 0.240223
0.253193 0.801953 0.240223
0.253178 0.801938 0.240223
0.253178 0.801938 0.240223
0.276448 0.816953 0.236759
0.414328 0.853666 0.233906
0.523751 0.859724 0.239734
0.612711 0.860059 0.245838
0.685298 0.859937 0.253193
0.744717 0.860227 0.262623
0.793683 0.861555 0.276097
0.833585 0.862379 0.307286
0.866667 0.861387 0.352285
0.894774 0.863447 0.376471
0.917189 0.866697 0.396445
0.935012 0.869749 0.418112
0.94876 0.872694 0.439612
0.959838 0.875593 0.459754
0.968002 0.87805 0.478202
0.974243 0.88011 0.493172
0.979034 0.882002 0.505898
0.982635 0.883482 0.516258
0.985122 0.884413 0.524056
0.987106 0.885328 0.529931
0.988373 0.886046 0.534783
0.988846 0.886259 0.536339
0.988846 0.886244 0.536278
0.284276 0.833616 0.274403
0.284276 0.833616 0.274403
0.284276 0.833616 0.274403
0.284276 0.833616 0.274403
0.284276 0.833616 0.274403
0.284276 0.833616 0.274403
0.284276 0.833616 0.274403
0.284276 0.833616 0.274418
0.28426 0.833616 0.274403
0.28426 0.833616 0.274403
0.28426 0.8336 0.274403
0.381598 0.8701 0.266056
0.521767 0.882673 0.272999
0.623636 0.883375 0.283375
0.700603 0.882734 0.295171
0.760952 0.882872 0.31043
0.808484 0.883711 0.329488
0.846571 0.885161 0.358251
0.877562 0.884703 0.405341
0.902861 0.884901 0.444465
0.923354 0.887846 0.468055
0.939712 0.890867 0.492409
0.952514 0.893965 0.515663
0.96199 0.89659 0.536522
0.969451 0.898848 0.554482
0.975189 0.901045 0.569924
0.979217 0.902693 0.5823
0.982406 0.904204 0.592248
0.98497 0.905333 0.599954
0.986542 0.906004 0.605783
0.987716 0.906722 0.610346
0.988342 0.907027 0.611978
0.988342 0.907012 0.611948
0.312917 0.859724 0.305135
0.312917 0.859724 0.305135
0.312917 0.859724 0.305135
0.312917 0.859724 0.305135
0.312917 0.859724 0.305135
0.312917 0.859709 0.305119
0.312917 0.859709 0.305119
0.312917 0.859709 0.305119
0.312917 0.859709 0.305119
0.312917 0.859709 0.305119
0.312917 0.859709 0.305119
0.315419 0.861189 0.304631
0.506508 0.899992 0.303517
0.628351 0.901106 0.318044
0.712367 0.900359 0.335943
0.773846 0.900191 0.357
0.821195 0.901061 0.382208
0.858152 0.90277 0.410513
0.88658 0.902296 0.458701
0.909834 0.902403 0.503914
0.928847 0.904662 0.5337
0.943648 0.907576 0.559167
0.955261 0.91046 0.582818
0.964019 0.913161 0.603738
0.971008 0.915709 0.621454
0.976059 0.917617 0.63621
0.979904 0.919417 0.648066
0.982559 0.920699 0.657267
0.984817 0.921798 0.664286
0.98645 0.922667 0.669886
0.98761 0.923369 0.673884
0.988296 0.92372 0.676173
0.988296 0.923705 0.676143
0.338079 0.879927 0.33228
0.338079 0.879927 0.33228
0.338079 0.879927 0.33228
0.338079 0.879927 0.33228
0.338079 0.879927 0.33228
0.338079 0.879927 0.33228
0.338064 0.879927 0.33228
0.338064 0.879927 0.33228
0.338064 0.879927 0.332265
0.338064 0.879927 0.332265
0.338064 0.879927 0.332265
0.338064 0.879911 0.332265
0.470542 0.911009 0.329549
0.626383 0.914885 0.349065
0.720165 0.913436 0.372564
0.784329 0.913344 0.399771
0.831495 0.913924 0.429999
0.867536 0.915755 0.462974
0.894636 0.915938 0.50869
0.916121 0.916152 0.553796
0.933379 0.917693 0.59028
0.947295 0.92079 0.615793
0.957916 0.923674 0.639017
0.966003 0.926314 0.659022
0.972366 0.928878 0.67631
0.977203 0.930861 0.690044
0.98088 0.932708 0.701366
0.983429 0.934005 0.70988
0.985534 0.935134 0.716716
0.987152 0.936004 0.721614
0.988235 0.936675 0.725673
0.988952 0.937102 0.728099
0.988952 0.937087 0.728084
0.360021 0.895567 0.355764
0.360021 0.895567 0.355764
0.360021 0.895567 0.355764
0.360021 0.895567 0.355764
0.360021 0.895567 0.355764
0.360021 0.895567 0.355749
0.360021 0.895567 0.355749
0.360021 0.895567 0.355749
0.360021 0.895567 0.355749
0.360021 0.895567 0.355749
0.360006 0.895567 0.355749
0.360006 0.895567 0.355749
0.400519 0.908995 0.352636
0.617075 0.925292 0.374228
0.724453 0.923659 0.404105
0.792157 0.922988 0.437049
0.83978 0.923934 0.471962
0.874647 0.925505 0.508309
0.901045 0.926558 0.551461
0.921263 0.926909 0.596506
0.937255 0.927871 0.635782
0.950179 0.930877 0.66154
0.960372 0.933883 0.683772
0.968368 0.936843 0.703426
0.974212 0.939254 0.719554
0.978759 0.941314 0.73228
0.982238 0.943023 0.742779
0.984878 0.944457 0.750988
0.986542 0.945434 0.756939
0.988037 0.946319 0.761425
0.989029 0.947005 0.765057
0.989731 0.947509 0.767727
0.989731 0.947509 0.767712
0.378485 0.907347 0.375891
0.378485 0.907347 0.375891
0.378485 0.907347 0.375891
0.378485 0.907347 0.375891
0.378485 0.907347 0.375891
0.378485 0.907347 0.375891
0.378485 0.907347 0.375891
0.378485 0.907347 0.375891
0.378485 0.907347 0.375891
0.378485 0.907347 0.375891
0.378485 0.907347 0.375891
0.37847 0.907347 0.375875
0.37847 0.907347 0.375875
0.600107 0.932845 0.392752
0.725872 0.931121 0.429419
0.797848 0.93019 0.467216
0.845899 0.931212 0.506279
0.880476 0.932937 0.544961
0.906294 0.934462 0.586252
0.925582 0.93521 0.630854
0.941009 0.936217 0.669322
0.953155 0.938903 0.697093
0.962997 0.941955 0.718853
0.970169 0.944778 0.737102
0.976028 0.947311 0.752529
0.980392 0.949325 0.764355
0.983688 0.951186 0.774166
0.986114 0.952483 0.781537
0.9879 0.953674 0.787564
0.989502 0.954528 0.791821
0.990585 0.9552 0.795132
0.991211 0.955627 0.797528
0.991257 0.955657 0.797696
0.393851 0.916075 0.39176
0.393851 0.916075 0.39176
0.393851 0.916075 0.39176
0.393851 0.916075 0.39176
0.393851 0.916075 0.39176
0.393851 0.916075 0.39176
0.393851 0.916075 0.39176
0.393851 0.916075 0.39176
0.393851 0.916075 0.39176
