luts/Cliff-CLog2.cube
TITLE "Generated by Resolve"
LUT_3D_SIZE 33
0.00321965 0.00520333 0.023743
0.0151675 0.00404364 0.022858
0.0267948 0.00282292 0.0216983
0.0420996 0.00114443 0.0180209
0.0618906 0 0.0127413
0.0852216 0 0.00575265
0.110506 0 0
0.138323 0 0
0.169177 0 0
0.203632 0 0
0.240604 0 0
0.278325 0 0
0.315129 0 0
0.348669 0 0
0.377234 0 0
0.399222 0 0
0.413581 0 0
0.418448 0 0
0.412467 0 0
0.414176 0 0
0.412055 0 0
0.405585 0 0
0.39559 0 0
0.382208 0 0
0.363134 0 0
0.34165 0.00936904 0
0.319158 0.0201114 0
0.296681 0.0311742 0.00740063
0.274601 0.0416419 0.0229343
0.253651 0.0516518 0.0370184
0.234821 0.0609598 0.0495766
0.217853 0.0689097 0.0603647
0.205798 0.074876 0.0677043
1.5259e-05 0.0153353 0.0174258
0.0118105 0.0140993 0.0165713
0.024094 0.0128939 0.0146487
0.040528 0.0108034 0.0112001
0.0584573 0.00869764 0.00743114
0.0800488 0.00633249 0.0028687
0.105531 0.00317388 0
0.135271 0 0
0.167697 0 0
0.202945 0 0
0.240864 0 0
0.2804 0 0
0.318975 0 0
0.354162 0 0
0.385077 0 0
0.409201 0 0
0.425162 0 0
0.432242 0 0
0.428656 0 0
0.412375 0 0
0.410163 0 0
0.403754 0 0
0.393454 0 0
0.380179 0 0
0.36083 0 0
0.339406 0.0100557 0
0.31696 0.0207523 0
0.294209 0.0317998 0.00787366
0.272114 0.042237 0.0233768
0.251209 0.0522011 0.0374304
0.232364 0.0614633 0.0499886
0.215396 0.0693828 0.0607614
0.203616 0.0752575 0.0679789
0 0.0246433 0.0111238
0.00859083 0.0236057 0.0104524
0.0212406 0.0220951 0.00970474
0.0372778 0.020264 0.00643931
0.0563516 0.0180819 0.00270085
0.0786603 0.0152285 0
0.104341 0.0119631 0
0.134249 0.00791943 0
0.165545 0.00717174 0
0.201862 0.00671397 0
0.241245 0.00634775 0
0.281682 0.00607309 0
0.321981 0.00572213 0
0.358846 0.00505074 0
0.39115 0.00421149 0
0.41735 0.00285344 0
0.43563 0.0010071 0
0.444999 0 0
0.443183 0 0
0.428901 0 0
0.408377 0 0
0.401862 0 0
0.391409 0 0
0.378164 0 0
0.358862 0 0
0.337301 0.0105898 0
0.314656 0.0213779 0
0.291875 0.0323949 0.00831617
0.26978 0.0428016 0.0237736
0.249042 0.0526741 0.0377356
0.230304 0.0618906 0.050248
0.213291 0.0697795 0.0610208
0.20145 0.0756237 0.0682994
0 0.0361791 0.00384527
0.00593576 0.0347295 0.00370794
0.0182803 0.0334173 0.00302129
0.0337072 0.0314946 0.00205997
0.0538033 0.0290837 0
0.0772869 0.0258946 0
0.103319 0.0220951 0
0.131121 0.0193484 0
0.163302 0.0178683 0
0.199847 0.0168307 0
0.240101 0.0160678 0
0.282216 0.0153964 0
0.324193 0.0148013 0
0.363348 0.014023 0
0.398611 0.0129091 0
0.427497 0.0112764 0
0.448478 0.00894179 0
0.460365 0.00593576 0
0.461692 0.00225834 0
0.450202 0 0
0.423819 0 0
0.399374 0 0
0.388769 0 0
0.375418 0 0
0.356115 0.000793469 0
0.334371 0.011429 0
0.311711 0.0220951 0
0.289036 0.033051 0.00886549
0.267002 0.0434577 0.0242008
0.246021 0.0533455 0.0382696
0.227314 0.062501 0.0507362
0.210346 0.0703441 0.0614786
0.198627 0.076112 0.0687419
0 0.049424 0
0.00280766 0.0482032 0
0.014786 0.046891 0
0.0296025 0.0454261 0
0.0486152 0.0429847 0
0.0733196 0.0400854 0
0.100206 0.0361181 0
0.127474 0.0330205 0
0.159701 0.0307469 0
0.196628 0.0290684 0
0.237675 0.0279088 0
0.281544 0.0270085 0
0.325322 0.0260929 0
0.366873 0.0251621 0
0.404959 0.0239109 0
0.436942 0.0221256 0
0.461845 0.0197147 0
0.478141 0.0163424 0
0.483177 0.0118868 0
0.476081 0.00645457 0
0.454032 0.000457771 0
0.414054 0 0
0.385504 0 0
0.371862 0 0
0.352438 0.0019379 0
0.330571 0.0125124 0
0.307927 0.0230869 0
0.285267 0.0339513 0.00958267
0.263142 0.0442664 0.024979
0.242161 0.0541695 0.0390173
0.223484 0.0632029 0.0514687
0.206577 0.071107 0.0621195
0.194919 0.0767529 0.0692607
0 0.0651408 0
0 0.0642405 0
0.011429 0.0631113 0
0.0258183 0.0618601 0
0.043473 0.0599985 0
0.0670634 0.0571298 0
0.0945602 0.0533761 0
0.12282 0.0495003 0
0.155398 0.0465858 0
0.19263 0.0442512 0
0.234058 0.0425727 0
0.278782 0.0411994 0
0.324559 0.0400244 0
0.368826 0.038819 0
0.409705 0.0374304 0
0.445472 0.0355688 0
0.474144 0.0330053 0
0.494972 0.0296788 0
0.506371 0.0251621 0
0.506065 0.0193027 0
0.48986 0.0118563 0
0.455848 0.00366217 0
0.401541 0 0
0.367437 0 0
0.347707 0.00335698 0
0.325978 0.0137942 0
0.303151 0.0243381 0
0.280186 0.0351873 0.0105592
0.258259 0.0453651 0.0258335
0.237598 0.0551919 0.0399481
0.218723 0.0641031 0.0522316
0.202029 0.0720684 0.0628977
0.190249 0.0775464 0.0699168
0 0.0833143 0
0 0.0825055 0
0.0077821 0.0818952 0
0.0218662 0.080705 0
0.0393072 0.0791333 0
0.0605631 0.0771344 0
0.0887922 0.0739147 0
0.11754 0.0695506 0
0.14995 0.0656291 0
0.187564 0.062623 0
0.229358 0.0603952 0
0.274937 0.0585489 0
0.322072 0.0570535 0
0.368856 0.0555428 0
0.412345 0.0538491 0
0.451286 0.0518502 0
0.483909 0.0495003 0
0.509331 0.0460975 0
0.526345 0.0417182 0
0.533257 0.0360418 0
0.527718 0.0285496 0
0.504753 0.0190585 0
0.459144 0.0081178 0
0.388006 0.00148013 0
0.341695 0.00508125 0
0.319646 0.0154116 0
0.296773 0.0260929 0
0.273884 0.0366979 0.0117037
0.251667 0.0468299 0.0270542
0.231281 0.0564889 0.0411688
0.212238 0.0653239 0.0533303
0.195773 0.0732128 0.0639353
0.184176 0.0785382 0.0707866
0 0.104524 0
0 0.104341 0
0.00480659 0.10396 0
0.0184482 0.103304 0
0.0354772 0.102266 0
0.0561074 0.100679 0
0.0816663 0.0983444 0
0.111681 0.0941634 0
0.144625 0.0895552 0
0.181811 0.0852522 0
0.223392 0.0818799 0
0.269596 0.0794842 0
0.317952 0.0775921 0
0.366278 0.0757458 0
0.412604 0.0738689 0
0.454658 0.0717174 0
0.490639 0.0692149 0
0.520577 0.0660258 0
0.542382 0.0617685 0
0.555886 0.05626 0
0.559289 0.0491951 0
0.548501 0.0435035 0
0.520027 0.0366979 0
0.463035 0.0258183 0
0.376379 0.0160983 0
0.311604 0.0175784 0
0.288563 0.0281529 0
0.265599 0.0386206 0.0132601
0.243336 0.0486 0.0285496
0.223117 0.0580758 0.0425422
0.204105 0.0667887 0.0546578
0.187869 0.0745251 0.065156
0.176211 0.0797742 0.0720531
0 0.128695 0
0 0.128771 0
0.00267033 0.128939 0
0.0160372 0.128862 0
0.0325322 0.128344 0
0.0525673 0.127291 0
0.0772869 0.125704 0
0.105074 0.12314 0
0.13875 0.118318 0
0.176806 0.113649 0
0.218235 0.109087 0
0.263676 0.105165 0
0.312322 0.101961 0
0.361471 0.0995041 0
0.410101 0.097322 0
0.455024 0.0949569 0
0.494423 0.0924086 0
0.527916 0.0897383 0
0.554253 0.0858778 0
0.573236 0.0805371 0
0.582422 0.0788586 0
0.580987 0.0763867 0
0.566934 0.0716411 0
0.535042 0.0634928 0
0.475288 0.0505074 0
0.375402 0.0352941 0
0.278202 0.0299229 0
0.255009 0.0406348 0.0152285
0.232731 0.0508278 0.0306096
0.212345 0.06009 0.0444343
0.193683 0.0685588 0.0563821
0.177523 0.0761425 0.0668345
0.16643 0.0816358 0.0738842
0 0.156771 0
0 0.157259 0
0.000457771 0.157778 0
0.0135653 0.158221 0
0.029633 0.158206 0
0.0495918 0.158068 0
0.0737926 0.157015 0
0.101686 0.155123 0
0.132052 0.152605 0
0.171832 0.147936 0
0.216007 0.142229 0
0.261967 0.136629 0
0.310918 0.131609 0
0.360998 0.127504 0
0.410803 0.124376 0
0.457847 0.121416 0
0.500603 0.118517 0
0.537667 0.115557 0
0.567727 0.113054 0
0.58996 0.113558 0
0.604059 0.113634 0
0.610391 0.112627 0
0.606699 0.110094 0
0.590616 0.104784 0
0.5579 0.0957046 0
0.499687 0.0824292 0
0.399084 0.0627298 0
0.263172 0.0451057 0.014847
0.223484 0.0519875 0.0320439
0.201968 0.0615549 0.0459754
0.183062 0.070161 0.0581369
0.16611 0.0776837 0.0686351
0.154757 0.0831311 0.0756847
0 0.189242 0
0 0.190219 0
0 0.191135 0
0.0115511 0.19205 0
0.0272831 0.192493 0
0.0470283 0.192889 0
0.0706951 0.19266 0
0.0987411 0.191653 0
0.128511 0.189883 0
0.164096 0.187091 0
0.208881 0.18201 0
0.259281 0.176303 0
0.311666 0.169604 0
0.364675 0.162844 0
0.415961 0.1579 0
0.465171 0.15404 0
0.509819 0.152102 0
0.548928 0.151568 0
0.582269 0.152209 0
0.608713 0.152895 0
0.628565 0.15378 0
0.640909 0.153552 0
0.645319 0.152361 0
0.64123 0.149111 0
0.625483 0.143099 0
0.594629 0.133211 0
0.543297 0.119158 0
0.459342 0.100328 0
0.324575 0.0761578 0.0246128
0.201968 0.0615549 0.0459754
0.183047 0.0701762 0.0581369
0.16611 0.0776837 0.0686351
0.154757 0.0831311 0.0756847
0 0.225345 0
0 0.226886 0
0 0.22826 0
0.0112917 0.22945 0
0.0270085 0.230655 0
0.0461128 0.231418 0
0.06981 0.23209 0
0.0975204 0.231968 0
0.126299 0.231037 0
0.161151 0.229358 0
0.201831 0.226429 0
0.251743 0.221118 0
0.306432 0.215717 0
0.361975 0.209613 0
0.41622 0.203891 0
0.467796 0.199512 0
0.515587 0.197269 0
0.557885 0.196429 0
0.594614 0.196719 0
0.625498 0.19794 0
0.649775 0.1991 0
0.667414 0.200244 0
0.678218 0.199939 0
0.682338 0.198337 0
0.67808 0.194812 0
0.664256 0.188235 0
0.638315 0.178317 0
0.596735 0.164096 0
0.533196 0.146517 0
0.437293 0.124804 0.0230411
0.296162 0.0983444 0.057084
0.166094 0.0776837 0.0686351
0.154757 0.0831311 0.0756847
0 0.264958 0
0 0.267247 0
0.0021973 0.269062 0
0.0142367 0.270726 0
0.0297093 0.272618 0
0.0485389 0.274037 0
0.0718242 0.275288 0
0.0991073 0.276051 0
0.127031 0.27602 0
0.160296 0.275196 0
0.200473 0.273411 0
0.246082 0.270665 0
0.300465 0.265309 0
0.358389 0.260609 0
0.415534 0.255528 0
0.4701 0.251011 0
0.520485 0.247959 0
0.566171 0.246983 0
0.606134 0.247181 0
0.639994 0.248341 0
0.668193 0.249821 0
0.690639 0.251621 0
0.706981 0.252552 0
0.717052 0.25243 0
0.720745 0.250721 0
0.718044 0.247059 0
0.707012 0.240391 0
0.686915 0.231128 0
0.656443 0.218647 0
0.61265 0.20325 0
0.553231 0.185306 0.0181735
0.473625 0.165301 0.0519112
0.373144 0.142 0.0783246
0 0.308614 0
0 0.311299 0
0.00921645 0.313161 0
0.0215457 0.315526 0
0.0363775 0.317693 0
0.0552377 0.320119 0
0.0780346 0.321935 0
0.104173 0.323552 0
0.130968 0.324559 0
0.163363 0.32459 0
0.202243 0.323644 0
0.246693 0.321889 0
0.296544 0.319326 0
0.354955 0.314549 0
0.414359 0.310826 0
0.471717 0.307027 0
0.524941 0.304067 0
0.573144 0.302495 0
0.616175 0.302327 0
0.653605 0.303655 0
0.685054 0.305623 0
0.710964 0.307546 0
0.731487 0.309667 0
0.746456 0.310506 0
0.756329 0.310536 0
0.760494 0.308919 0
0.759075 0.305241 0
0.751736 0.299794 0
0.737957 0.291508 0
0.717723 0.281315 0
0.690913 0.269429 0
0.656794 0.255726 0.0158236
0.617517 0.240024 0.0398871
0.0021973 0.355489 0
0.0126497 0.358434 0
0.022385 0.360861 0
0.0339666 0.363272 0
0.0491798 0.366171 0
0.0673228 0.368902 0
0.0900282 0.371817 0
0.113863 0.373999 0
0.139086 0.375677 0
0.170596 0.376989 0
0.208255 0.377035 0
0.252049 0.376135 0
0.300877 0.374472 0
0.353872 0.372015 0
0.41352 0.36788 0
0.472999 0.365286 0
0.529122 0.363165 0
0.580148 0.361944 0
0.625803 0.361715 0
0.665431 0.362799 0
0.699702 0.364675 0
0.728893 0.367239 0
0.752682 0.36965 0
0.771313 0.371496 0
0.785611 0.372869 0
0.795132 0.373098 0
0.800168 0.371771 0
0.800702 0.368765 0
0.796613 0.364065 0
0.789105 0.357977 0
0.777157 0.350103 0
0.76231 0.341512 0
0.744945 0.330953 0.0140841
0.0224155 0.405676 0
0.032578 0.408789 0
0.0419165 0.411139 0
0.0538186 0.414099 0
0.0684367 0.41709 0
0.0868086 0.420432 0
0.106874 0.423499 0
0.128481 0.42678 0
0.152514 0.429221 0
0.18265 0.430961 0
0.219242 0.432029 0
0.262013 0.432258 0
0.310002 0.431418 0
0.361852 0.430121 0
0.416724 0.427634 0
0.476417 0.42472 0
0.533578 0.423545 0
0.586389 0.422782 0
0.63386 0.422873 0
0.676249 0.42414 0
0.712963 0.426261 0
0.744106 0.428794 0
0.770565 0.431403 0
0.792523 0.434302 0
0.809689 0.436225 0
0.823117 0.437705 0
0.832517 0.438117 0
0.838361 0.437125 0
0.840665 0.435035 0
0.83975 0.431662 0
0.836561 0.427085 0
0.830945 0.421744 0
0.823819 0.415167 0.00196841
0.0500954 0.457954 0
0.0603494 0.461234 0
0.069749 0.463951 0
0.0814984 0.46659 0
0.0953689 0.470039 0
0.110796 0.473335 0
0.128099 0.477165 0
0.14728 0.480461 0
0.171435 0.483711 0
0.201022 0.486152 0.000320439
0.236271 0.48777 0.00448615
0.27747 0.488518 0.00799573
0.323995 0.488426 0.00982681
0.374685 0.48777 0.00816358
0.428 0.487007 0.00151064
0.482963 0.484871 0.0153201
0.540429 0.483558 0
0.59411 0.483589 0
0.643214 0.484092 0
0.686595 0.485435 0
0.724834 0.487404 0
0.757733 0.489982 0
0.786542 0.493172 0
0.810346 0.495979 0
0.829816 0.498543 0
0.845747 0.500893 0
0.858381 0.502419 0
0.86714 0.502617 0
0.87335 0.502266 0
0.877195 0.500893 0
0.878538 0.498772 0
0.87837 0.495949 0
0.876661 0.492042 0.00349432
0.0865644 0.512154 0
0.0958419 0.514916 0
0.104051 0.517617 0.00117494
0.11371 0.520699 0.00276188
0.124865 0.523674 0.00428779
0.137911 0.527443 0.00668345
0.152911 0.530907 0.00909438
0.172152 0.534844 0.0125887
0.195743 0.538109 0.0162051
0.224674 0.54081 0.0201877
0.259342 0.543038 0.0245975
0.299428 0.544472 0.0284428
0.344274 0.544976 0.030808
0.393225 0.5449 0.030518
0.4448 0.544579 0.0262608
0.497337 0.544411 0.0170443
0.55053 0.541421 0.0462959
0.6038 0.541894 0.00819409
0.652796 0.542992 0
0.697169 0.544564 0
0.736751 0.547051 0
0.77084 0.54963 0
0.800366 0.552483 0
0.825727 0.555459 0
0.847089 0.558785 0
0.864744 0.561227 0
0.879057 0.563531 0
0.890211 0.564691 0
0.899062 0.565469 0
0.905455 0.565515 0
0.90985 0.56495 0
0.912566 0.563867 0.00848402
0.91339 0.56141 0.0209812
0.124361 0.566537 0.0251316
0.13196 0.569528 0.0262913
0.138201 0.571679 0.026978
0.14612 0.574487 0.0285801
0.155901 0.577768 0.0302892
0.167971 0.580926 0.0321202
0.183581 0.58468 0.0347601
0.20238 0.588144 0.0375982
0.226276 0.591699 0.0412604
0.254444 0.594583 0.0450599
0.287785 0.596857 0.049012
0.326162 0.598428 0.0525978
0.369436 0.599344 0.0554055
0.416846 0.599786 0.0559548
0.466453 0.599725 0.0529488
0.516976 0.599802 0.0459297
0.566766 0.599985 0.0407111
0.616999 0.597436 0.071931
0.665232 0.598871 0.0328527
0.709316 0.600732 0
0.748669 0.603006 0
0.783246 0.605615 0
0.813489 0.60885 0
0.839368 0.611978 0
0.861509 0.615 0
0.880034 0.617823 0
0.89601 0.620432 0
0.908751 0.622599 0
0.918654 0.623743 0
0.926879 0.624674 0.0109865
0.93312 0.62504 0.0289616
0.937911 0.624918 0.0461128
0.940215 0.623743 0.0576791
0.161105 0.620203 0.055848
0.167895 0.622873 0.0569772
0.174105 0.625162 0.057969
0.181643 0.627375 0.0587778
0.191745 0.630304 0.0603189
0.204227 0.63357 0.0623941
0.219532 0.63653 0.0645304
0.238666 0.640024 0.0673991
0.261555 0.642985 0.0703136
0.288792 0.64567 0.07364
0.321416 0.648234 0.0775769
0.358434 0.64979 0.0808576
0.399817 0.650721 0.083299
0.444434 0.651148 0.0839399
0.491569 0.651255 0.0817426
0.540047 0.651377 0.0756847
0.587671 0.651987 0.0665446
0.633906 0.651881 0.0830549
0.680003 0.650874 0.0973526
0.722972 0.652827 0.0621805
0.761669 0.655238 0.0343938
0.795941 0.657893 0.0151369
0.825971 0.660746 0.00314336
0.851835 0.663767 0
0.874968 0.666987 0.00109865
0.894118 0.669856 0.00807202
0.910094 0.672419 0.0198825
0.923735 0.674861 0.0352636
0.934539 0.676616 0.05243
0.943374 0.677974 0.0707561
0.950469 0.678996 0.0889601
0.9561 0.679622 0.104158
0.959487 0.679164 0.113054
0.202808 0.67216 0.0905928
0.209598 0.674083 0.0912337
0.215808 0.676005 0.0920424
0.223667 0.678233 0.0930953
0.23328 0.680293 0.0940719
0.245701 0.68307 0.0956283
0.260884 0.686091 0.0975814
0.279255 0.688701 0.0994278
0.301885 0.691585 0.10219
0.328313 0.693858 0.104616
0.359152 0.695735 0.107042
0.394293 0.6972 0.109239
0.433875 0.698543 0.111254
0.476188 0.699046 0.111452
0.520836 0.699184 0.10956
0.56614 0.699443 0.105348
0.611322 0.700023 0.0984512
0.655085 0.701045 0.0894179
0.696834 0.699672 0.12668
0.738033 0.700038 0.12459
0.775418 0.702373 0.102296
0.808942 0.705196 0.0846876
0.83859 0.708217 0.0739605
0.864347 0.710994 0.0710002
0.886381 0.713878 0.0748302
0.905425 0.716716 0.0844739
0.921599 0.719692 0.0988479
0.93492 0.721996 0.114122
0.946258 0.724224 0.129671
0.955306 0.725841 0.144244
0.962707 0.727062 0.157702
0.968734 0.728084 0.169772
0.972152 0.728222 0.177462
0.250278 0.72076 0.12224
0.256886 0.722515 0.122896
0.262715 0.723583 0.123095
0.270344 0.725368 0.123827
0.28014 0.727306 0.124834
0.291997 0.729213 0.12575
0.306432 0.731609 0.127092
0.32462 0.734035 0.128679
0.345769 0.73611 0.130205
0.371084 0.73814 0.132006
0.400244 0.739864 0.133852
0.43357 0.740917 0.135531
0.47039 0.741711 0.136461
0.510185 0.742168 0.136675
0.552377 0.742748 0.135668
0.594629 0.743038 0.13286
0.636957 0.743511 0.128481
0.678019 0.744488 0.123552
0.71693 0.744793 0.137423
0.754849 0.74316 0.172763
0.790478 0.745037 0.160769
0.822385 0.747539 0.150607
0.850538 0.750317 0.145998
0.875715 0.753323 0.14725
0.897032 0.756039 0.153033
0.915221 0.75874 0.162722
0.930694 0.761334 0.175051
0.943923 0.764035 0.188739
0.954772 0.766033 0.202701
0.963912 0.767987 0.21622
0.971298 0.769619 0.228428
0.976974 0.770611 0.238926
0.980591 0.771023 0.245838
0.30193 0.764981 0.152758
0.308309 0.766232 0.153262
0.314 0.767391 0.153689
0.321401 0.768566 0.154162
0.330236 0.769741 0.154574
0.341634 0.771405 0.155413
0.355566 0.773251 0.156435
0.372076 0.774838 0.157336
0.392569 0.776684 0.158816
0.416098 0.778088 0.159915
0.44361 0.779324 0.161166
0.474861 0.780285 0.162341
0.508965 0.780835 0.163088
0.545968 0.78117 0.16321
0.584939 0.781338 0.162829
0.624735 0.781781 0.161715
0.663996 0.782254 0.15993
0.702327 0.782971 0.158099
0.738766 0.784131 0.158556
0.772824 0.783276 0.192599
0.805875 0.782803 0.214084
0.835889 0.785031 0.209125
0.862715 0.787518 0.208972
0.885878 0.790234 0.214038
0.906722 0.793072 0.2224
0.923842 0.795636 0.233921
0.93846 0.798077 0.246967
0.950835 0.800702 0.261524
0.961135 0.802762 0.275135
0.969879 0.804791 0.288838
0.976608 0.806287 0.300801
0.9823 0.807736 0.311681
0.98587 0.808316 0.318334
0.356497 0.804685 0.184207
0.362173 0.805173 0.184146
0.367453 0.805997 0.184451
0.374426 0.806836 0.184787
0.38291 0.807889 0.185214
0.393317 0.808896 0.185641
0.40618 0.809934 0.186252
0.422004 0.811246 0.187121
0.440467 0.812284 0.187808
0.462593 0.813581 0.189014
0.487984 0.814298 0.189944
0.517143 0.81503 0.191028
0.548806 0.815183 0.192065
0.582849 0.815229 0.192721
0.61886 0.815213 0.193317
0.655192 0.815427 0.194034
0.691737 0.815946 0.194675
0.727169 0.816541 0.196231
0.76083 0.817502 0.1991
0.792157 0.817441 0.223178
0.821897 0.816526 0.255436
0.849531 0.817639 0.265827
0.874372 0.819821 0.270222
0.896086 0.822248 0.278935
0.9149 0.824811 0.290242
0.93109 0.827619 0.304341
0.944823 0.829862 0.319341
0.9561 0.832105 0.334417
0.965759 0.834318 0.34963
0.973251 0.836179 0.363714
0.979828 0.837964 0.376562
0.98526 0.83946 0.3879
0.988296 0.839933 0.39408
0.412192 0.838621 0.215335
0.417472 0.839231 0.215656
0.422599 0.839673 0.215885
0.428763 0.840284 0.21622
0.4365 0.840513 0.216281
0.446311 0.841184 0.216907
0.458289 0.841932 0.217609
0.472633 0.842512 0.218112
0.489738 0.843183 0.218936
0.510353 0.843793 0.220066
0.533654 0.844144 0.221271
0.560235 0.844205 0.222492
0.589349 0.844541 0.224445
0.620661 0.844297 0.225925
0.653117 0.844144 0.227893
0.686336 0.844205 0.230411
0.719738 0.844419 0.23386
0.752239 0.845243 0.238865
0.782757 0.846067 0.245243
0.811109 0.846479 0.263584
0.837842 0.845823 0.295491
0.863127 0.845365 0.32372
0.885573 0.847486 0.33286
0.90544 0.849653 0.344778
0.922454 0.852216 0.359625
0.937423 0.854658 0.376226
0.949767 0.856992 0.393042
0.96022 0.859251 0.409689
0.968856 0.861326 0.425956
0.975662 0.863081 0.440833
0.981537 0.864851 0.454215
0.986374 0.866392 0.465827
0.988891 0.866987 0.472297
0.46923 0.866835 0.248341
0.474235 0.867048 0.248585
0.47863 0.867018 0.248615
0.484169 0.867384 0.249042
0.491508 0.867674 0.249485
0.500267 0.868086 0.250141
0.511177 0.868437 0.251057
0.524041 0.868482 0.251774
0.539849 0.868788 0.252796
0.558007 0.86894 0.254108
0.579355 0.86894 0.255756
0.603037 0.868833 0.257572
0.62945 0.86894 0.260609
0.657725 0.868666 0.2636
0.686915 0.868482 0.267414
0.71725 0.868391 0.272084
0.747189 0.868742 0.278386
0.776364 0.869245 0.286519
0.80412 0.870085 0.296468
0.829816 0.870756 0.312917
0.853483 0.8701 0.345174
0.875776 0.86949 0.377218
0.895964 0.87071 0.397436
0.914 0.873137 0.413199
0.929412 0.875288 0.430426
0.942504 0.877501 0.448966
0.953582 0.879759 0.467506
0.963134 0.882185 0.485496
0.970748 0.884169 0.502556
0.977203 0.886183 0.517968
0.982177 0.887755 0.531075
0.98645 0.889296 0.542794
0.988708 0.890074 0.549599
0.526085 0.889036 0.283742
0.530327 0.888869 0.283742
0.534142 0.889052 0.284169
0.539315 0.889158 0.284642
0.545586 0.889326 0.285313
0.553536 0.889464 0.286107
0.563104 0.889647 0.28719
0.574456 0.889509 0.288228
0.58851 0.889616 0.289708
0.605066 0.889601 0.291783
0.623484 0.889326 0.294102
0.644648 0.889281 0.297078
0.667872 0.888899 0.300771
0.692836 0.888609 0.305516
0.719402 0.888518 0.311406
0.746288 0.888594 0.318837
0.772885 0.888731 0.327657
0.799008 0.889021 0.338781
0.823804 0.889845 0.351934
0.847059 0.890791 0.369177
0.868452 0.890425 0.401572
0.887785 0.890105 0.433707
0.90573 0.890089 0.463371
0.921721 0.892256 0.481605
0.935378 0.89453 0.501045
0.947173 0.896742 0.520745
0.957046 0.899168 0.540383
0.965255 0.901305 0.558419
0.971954 0.903365 0.575357
0.977905 0.905425 0.590463
0.98233 0.907103 0.603769
0.986221 0.908721 0.615152
0.988327 0.909575 0.621668
0.58024 0.906401 0.321736
0.584009 0.906447 0.32221
0.587198 0.906294 0.322393
0.591592 0.906218 0.322911
0.596872 0.906279 0.323812
0.603876 0.906218 0.324895
0.612238 0.906218 0.32639
0.622263 0.906142 0.328099
0.634241 0.905959 0.329854
