luts/Cliff-SLog.cube
TITLE "Generated by Resolve"
LUT_3D_SIZE 5
0 0 0
0.159686 0 0
0.352956 0 0
0.35288 0.000488289 0
0.154757 0.0831311 0.0756847
0 0.124788 0
0.141573 0.117372 0
0.460853 0.103029 0
0.629572 0.1337 0
0.597299 0.228855 0.0434424
0 0.375372 0
0.142779 0.426459 0
0.483452 0.426184 0
0.773312 0.449256 0
0.892531 0.520012 0.00819409
0.161624 0.691234 0.139818
0.318761 0.756329 0.144656
0.605188 0.769192 0.152255
0.85481 0.777417 0.192309
0.985946 0.809201 0.320317
0.419577 0.929259 0.419181
0.61706 0.946715 0.444327
0.818509 0.943984 0.539467
0.937819 0.951263 0.705623
0.995911 0.971939 0.853712
0 0 0.165637
0.157855 0 0.154467
0.421561 0 0
0.480049 0 0
0.310079 0.0485084 0.0560922
0 0.126375 0.123781
0.13167 0.130129 0.127108
0.54287 0.10811 0
0.747295 0.146075 0
0.767254 0.228504 0.0689097
0 0.403525 0.0767224
0.11342 0.464225 0.0882887
0.510796 0.451408 0.0681468
0.848783 0.461936 0
0.977905 0.529946 0.129564
0.119478 0.730465 0.251255
0.278767 0.796368 0.246509
0.590295 0.79913 0.254627
0.869322 0.794614 0.311818
1 0.822324 0.448463
0.369116 0.956405 0.54377
0.597635 0.963653 0.581857
0.816693 0.954223 0.670253
0.941268 0.962905 0.792401
0.999985 0.983139 0.906691
0 0 0.34902
0.113497 0 0.410819
0.374792 0 0.304158
0.507073 0 0.129137
0.399847 0.0364233 0.122911
0 0.112993 0.408362
0.121538 0.12079 0.512642
0.542611 0.0939345 0.439796
0.820874 0.0570993 0.284886
0.889311 0.153994 0.263294
0 0.406668 0.352667
0.0789044 0.475547 0.401999
0.505165 0.469123 0.386862
0.879561 0.483207 0.352102
1 0.552056 0.430182
0.0809339 0.749355 0.471458
0.220569 0.818555 0.477256
0.55967 0.819379 0.476265
0.865293 0.806714 0.523873
0.999863 0.835462 0.627237
0.382208 0.965011 0.706142
0.59617 0.972366 0.73312
0.819257 0.963043 0.793332
0.945983 0.972351 0.87335
1 0.994171 0.949981
0 0 0.38587
0.0770886 0 0.503929
0.285512 0 0.474479
0.436835 0 0.351919
0.397772 0.0679179 0.23769
0 0.111513 0.554833
0.12604 0.125444 0.728405
0.487648 0.104768 0.743282
0.781231 0.133288 0.673899
0.898802 0.218051 0.587106
0 0.404913 0.604623
0.122683 0.471138 0.736492
0.49546 0.476616 0.78529
0.876493 0.488624 0.756893
1 0.551537 0.729961
0.124468 0.754772 0.698054
0.249317 0.819562 0.75108
0.542138 0.828412 0.754253
0.849851 0.82034 0.756405
0.987976 0.851209 0.795453
0.428565 0.965499 0.840314
0.638498 0.970947 0.858335
0.834699 0.970382 0.88806
0.953353 0.981933 0.935454
1 1 0.983825
0 0 0.226596
0.0604868 0 0.385641
0.198291 0 0.457145
0.330373 0.0246433 0.39823
0.323476 0.111971 0.287633
0.0387579 0.12517 0.505211
0.14696 0.146548 0.757961
0.431601 0.146105 0.842252
0.730327 0.165194 0.830198
0.872786 0.243534 0.785901
0.0890822 0.409018 0.705562
0.195468 0.478676 0.877958
0.512734 0.497734 0.949111
0.859037 0.510521 0.957931
1 0.56994 0.945113
0.203677 0.756695 0.837568
0.317311 0.818799 0.914076
0.58645 0.82919 0.928603
0.848219 0.832502 0.924224
0.980453 0.864332 0.921904
0.500221 0.961273 0.928649
0.695689 0.968704 0.940078
0.865187 0.974121 0.953475
0.964813 0.991455 0.979263
1 1 1
