luts/Cliff-SLog.cube
TITLE "Generated by Resolve"
LUT_3D_SIZE 33
0 0 0
0 0 0
0.00978103 0 0
0.0303807 0 0
0.052781 0 0
0.077348 0 0
0.103975 0 0
0.131853 0 0
0.159686 0 0
0.18851 0 0
0.217334 0 0
0.245808 0 0
0.272602 0 0
0.297108 0 0
0.318791 0 0
0.337514 0 0
0.352956 0 0
0.364553 0 0
0.372183 0 0
0.376364 0 0
0.377951 0.000167849 0
0.376303 0.000381476 0
0.371649 0.00047303 0
0.363699 0.000579843 0
0.35288 0.000488289 0
0.340047 0.000244144 0
0.322148 0.00590524 0
0.299458 0.016968 0
0.27393 0.0288548 0
0.246098 0.041474 0.016144
0.216892 0.0547646 0.0361028
0.18616 0.0688487 0.05626
0.154757 0.0831311 0.0756847
0 0 0
0 0 0
0.00540169 0 0
0.0247044 0 0
0.0462196 0 0
0.0703899 0 0
0.0977646 0 0
0.127443 0 0
0.158648 0 0
0.190539 0 0
0.222431 0 0
0.253178 0 0
0.282521 0 0
0.309712 0 0
0.333547 0 0
0.354314 0 0
0.371328 0.000213626 0
0.385122 0.00488289 0
0.396384 0.00668345 0
0.404669 0.00697337 0
0.409232 0.00714122 0
0.410666 0.00720226 0
0.408682 0.00715648 0
0.403861 0.00701915 0
0.395987 0.00683604 0
0.384802 0.00642405 0
0.367483 0.0159457 0
0.346593 0.0271763 0
0.322438 0.0393988 0
0.295613 0.05243 0.0119173
0.266361 0.0663615 0.0344701
0.234974 0.080827 0.0573434
0.202228 0.0955978 0.0805219
0 0.00509651 0
0 0.00381476 0
0.00289921 0.00140383 0
0.0229496 0 0
0.0447547 0 0
0.069337 0 0
0.097261 0 0
0.127703 0 0
0.160113 0 0
0.193484 0 0
0.226871 0 0
0.259678 0 0
0.290867 0 0
0.319646 0.00254826 0
0.345892 0.0065156 0
0.368948 0.0110933 0
0.388937 0.0144503 0
0.406668 0.014847 0
0.420951 0.0151217 0
0.431891 0.0153048 0
0.439353 0.0153506 0
0.44361 0.015259 0
0.44448 0.0152438 0
0.442405 0.0150759 0
0.437201 0.0146181 0
0.427558 0.018143 0
0.412238 0.0283207 0
0.393652 0.0394598 0
0.371695 0.0519265 0
0.346746 0.0651713 0.00547799
0.318425 0.0793774 0.0299992
0.287266 0.0939651 0.0551919
0.254368 0.109163 0.082887
0 0.021622 0
0 0.020264 0
0 0.0180514 0
0.0208896 0.0155184 0
0.0442512 0.0129244 0
0.0693065 0.0112001 0
0.0965896 0.00972 0
0.126818 0.00868238 0
0.159472 0.00813306 0
0.1935 0.00828565 0
0.228351 0.00946059 0
0.262913 0.0114443 0
0.296086 0.014313 0
0.327092 0.0179751 0
0.355276 0.0224308 0
0.382177 0.0240787 0
0.406119 0.0244144 0
0.426566 0.0246433 0
0.44361 0.0248569 0
0.457038 0.0250706 0
0.467536 0.0251164 0
0.474693 0.0250706 0
0.478508 0.0249027 0
0.479057 0.0247349 0
0.476265 0.0242618 0
0.468101 0.0326543 0
0.455772 0.0429847 0
0.440223 0.0544137 0
0.420661 0.0666056 0
0.397864 0.0797742 0
0.371618 0.0937209 0.0229191
0.342596 0.108324 0.0505837
0.310536 0.124163 0.0826886
0 0.0395361 0
0 0.0380407 0
0 0.0360723 0
0.015198 0.0343481 0
0.041062 0.0313573 0
0.0677806 0.0281682 0
0.0953689 0.0256962 0
0.124804 0.0241398 0
0.157076 0.0235599 0
0.19173 0.0239567 0
0.227359 0.0251316 0
0.263081 0.0273442 0
0.29836 0.0306249 0
0.331853 0.0349126 0
0.364538 0.0354467 0
0.394324 0.0357061 0
0.42092 0.0359808 0
0.444266 0.0361486 0
0.464195 0.0363775 0
0.480583 0.0364996 0
0.493599 0.0366674 0
0.503136 0.0365911 0
0.509834 0.0364843 0
0.513283 0.0360876 0
0.512093 0.040589 0
0.506279 0.049836 0
0.497337 0.0603189 0
0.484565 0.0715953 0
0.468513 0.0840467 0
0.448646 0.096376 0
0.425162 0.109773 0.0137026
0.398703 0.124666 0.0436255
0.369116 0.140612 0.0785229
0 0.0588693 0
0 0.0575265 0
0 0.0559854 0
0.00947585 0.0543984 0
0.0341344 0.0525063 0
0.0634318 0.0489815 0
0.0927749 0.0454414 0
0.122179 0.0427253 0
0.153994 0.0414435 0
0.188479 0.0413977 0
0.224781 0.0426337 0
0.261875 0.0450141 0
0.298741 0.0482338 0
0.336645 0.0487068 0
0.372015 0.0490272 0
0.404486 0.0493019 0
0.433997 0.049485 0
0.459861 0.0496681 0
0.482567 0.0497749 0
0.501854 0.0499733 0
0.517586 0.0500496 0
0.529809 0.0499428 0
0.538796 0.0498207 0
0.544396 0.0517433 0
0.545205 0.0606394 0
0.542718 0.0700084 0
0.536385 0.0802472 0
0.526864 0.0911116 0
0.513909 0.102525 0
0.49781 0.114977 0
0.478355 0.128466 0.00285344
0.454917 0.142962 0.0343938
0.427939 0.158831 0.071809
0 0.0793164 0
0 0.078584 0
0 0.0774853 0
0.0039826 0.0763104 0
0.0281224 0.0748302 0
0.0556039 0.072755 0
0.0884718 0.0689403 0
0.118807 0.0651102 0
0.150805 0.0623636 0
0.184848 0.0613413 0
0.221164 0.0621042 0
0.259403 0.064332 0
0.300328 0.0645151 0
0.339727 0.0646067 0
0.377356 0.0648508 0
0.412467 0.0650034 0
0.444633 0.0650797 0
0.473533 0.0652628 0
0.498604 0.0653849 0
0.520485 0.0654307 0
0.538613 0.0655528 0
0.55378 0.0655375 0
0.565637 0.0662242 0
0.572335 0.0742657 0
0.575814 0.0831311 0
0.575982 0.0921645 0
0.573159 0.101915 0
0.566674 0.112428 0
0.557366 0.123705 0
0.544945 0.136095 0
0.529015 0.149325 0
0.509712 0.163806 0.0239872
0.486732 0.179446 0.0633555
0 0.101198 0
0 0.101152 0
0 0.100847 0
0 0.100511 0
0.022446 0.0998093 0
0.0495918 0.0983902 0
0.0800793 0.0960708 0
0.113512 0.0916457 0
0.14667 0.0875257 0
0.181125 0.0848859 0
0.217441 0.0844892 0
0.258412 0.0838941 0
0.300221 0.0837415 0
0.34168 0.0834974 0
0.381308 0.0834516 0
0.418708 0.0833753 0
0.453544 0.0834058 0
0.485176 0.0833143 0
0.513039 0.0834363 0
0.537194 0.0835279 0
0.557946 0.0834211 0
0.57583 0.0842298 0
0.588296 0.0910658 0
0.597757 0.0987106 0
0.603738 0.106981 0
0.606851 0.115938 0
0.606882 0.125734 0
0.60444 0.136568 0
0.598367 0.147875 0
0.589319 0.159854 0
0.576974 0.17293 0
0.561883 0.187152 0.0127413
0.543389 0.202808 0.0538186
0 0.124788 0
0 0.125582 0
0 0.12604 0
0 0.12668 0
0.0175784 0.126802 0
0.0441444 0.126131 0
0.0742962 0.124437 0
0.105928 0.121996 0
0.141573 0.117372 0
0.178103 0.113436 0
0.217029 0.110201 0
0.257816 0.107713 0
0.300038 0.105882 0
0.342535 0.104631 0
0.384497 0.103883 0
0.424063 0.10341 0
0.460853 0.103029 0
0.494652 0.102846 0
0.525017 0.102815 0
0.551919 0.10309 0
0.575616 0.104799 0
0.593759 0.11078 0
0.608865 0.117586 0
0.620676 0.125261 0
0.629572 0.1337 0
0.635676 0.142733 0
0.638987 0.152697 0
0.639033 0.163165 0
0.6365 0.174441 0
0.630991 0.186542 0
0.622568 0.199512 0
0.611185 0.213657 0.00205997
0.597299 0.228855 0.0434424
0 0.14992 0
0 0.151766 0
0 0.153399 0
0 0.154635 0
0.0130007 0.155489 0
0.0393378 0.155657 0
0.0692912 0.154879 0
0.101366 0.153216 0
0.134127 0.150927 0
0.174502 0.146548 0
0.21619 0.141787 0
0.258091 0.137423 0
0.301015 0.133791 0
0.344488 0.131106 0
0.38732 0.129213 0
0.428641 0.127932 0
0.467582 0.127108 0
0.50367 0.12668 0
0.536187 0.126589 0
0.564797 0.129793 0
0.589166 0.134768 0
0.610056 0.140703 0
0.627634 0.147372 0
0.6421 0.154833 0
0.653712 0.163546 0
0.662211 0.172732 0
0.668254 0.182513 0
0.671412 0.192905 0
0.671748 0.203998 0
0.669566 0.216098 0
0.665278 0.229267 0
0.657862 0.243061 0
0.647379 0.257771 0.0328832
0 0.176959 0
0 0.179812 0
0 0.182284 0
0 0.184604 0
0.00950637 0.186297 0
0.0354467 0.187182 0
0.0652323 0.187427 0
0.0977951 0.186603 0
0.129534 0.184985 0
0.165713 0.182376 0
0.209064 0.177874 0
0.254597 0.17351 0
0.30106 0.168551 0
0.346716 0.163745 0
0.390829 0.160082 0
0.433524 0.15761 0
0.473747 0.15671 0
0.511025 0.157824 0
0.54461 0.160082 0
0.574746 0.163409 0
0.601236 0.167987 0
0.624552 0.173663 0
0.6448 0.180316 0
0.661967 0.188144 0
0.675731 0.196353 0
0.686961 0.20528 0
0.695186 0.215106 0
0.701335 0.225528 0
0.704936 0.236683 0
0.705989 0.248768 0
0.70428 0.261448 0
0.700404 0.274952 0
0.693782 0.289357 0.0239719
0 0.206058 0
0 0.209659 0
0 0.213016 0
0 0.216175 0
0.00724804 0.218921 0
0.0332799 0.220966 0
0.0624247 0.22179 0
0.0950332 0.221698 0
0.126284 0.220905 0
0.161608 0.219211 0
0.201053 0.2168 0
0.247166 0.212558 0
0.295186 0.208301 0
0.343038 0.2038 0
0.389609 0.199832 0
0.434028 0.196933 0
0.476387 0.195666 0
0.51548 0.195789 0
0.551263 0.197498 0
0.583459 0.20061 0
0.612512 0.204761 0
0.637919 0.21004 0
0.66038 0.216815 0
0.679835 0.224094 0
0.695888 0.232334 0
0.709377 0.241169 0
0.720134 0.250721 0
0.728878 0.261357 0
0.734951 0.272358 0
0.738766 0.284077 0
0.740139 0.296483 0
0.73933 0.30956 0
0.736507 0.323568 0.0152438
0 0.236591 0
0 0.241215 0
0 0.245579 0
0 0.249638 0
0.00689708 0.253376 0
0.032517 0.256199 0
0.0614786 0.258137 0
0.093843 0.259007 0
0.124636 0.258885 0
0.15938 0.258183 0
0.198047 0.256504 0
0.240009 0.254108 0
0.288624 0.249897 0
0.338247 0.246189 0
0.387167 0.242695 0
0.434165 0.23978 0
0.478325 0.237919 0
0.519448 0.237385 0
0.557198 0.238376 0
0.591424 0.240925 0
0.622873 0.245182 0
0.650385 0.250217 0
0.674647 0.256229 0
0.695949 0.263188 0
0.714321 0.271092 0
0.729961 0.279911 0
0.743587 0.289601 0
0.754284 0.299565 0
0.762509 0.310323 0
0.76875 0.321736 0
0.772992 0.333806 0
0.775265 0.3467 0
0.775555 0.360143 0.00823987
0 0.268727 0
0 0.274434 0
0 0.280217 0
0 0.285283 0
0.00846876 0.289662 0
0.0337377 0.293248 0
0.0626688 0.29601 0
0.0950484 0.298009 0
0.125536 0.299092 0
0.159091 0.298833 0
0.196582 0.297902 0
0.238209 0.296269 0
0.283024 0.293797 0
0.333669 0.290425 0
0.38439 0.287541 0
0.433249 0.284718 0
0.479316 0.282826 0
0.522713 0.282032 0
0.562615 0.282536 0
0.599176 0.284871 0
0.6318 0.288258 0
0.661402 0.292836 0
0.687648 0.298573 0
0.710933 0.305196 0
0.731014 0.312856 0
0.749264 0.321401 0
0.76437 0.33051 0
0.777066 0.340276 0
0.787778 0.350622 0
0.795956 0.361685 0
0.802792 0.373678 0
0.807523 0.385779 0
0.8103 0.398413 0.00323491
0 0.302647 0
0 0.309712 0
0 0.316106 0
0 0.322118 0
0.0133974 0.327428 0
0.0384985 0.331914 0
0.0672313 0.335592 0
0.0988785 0.338506 0
0.128344 0.340398 0
0.160998 0.341253 0
0.198077 0.340993 0
0.238987 0.33994 0
0.283406 0.338857 0
0.33019 0.336278 0
0.381521 0.333547 0
0.431952 0.331518 0
0.479988 0.329778 0
0.525643 0.329183 0
0.567498 0.329549 0
0.605661 0.331167 0
0.640345 0.333974 0
0.671641 0.338003 0
0.69929 0.343313 0
0.72462 0.349996 0
0.746777 0.357107 0
0.766262 0.364981 0
0.783093 0.373571 0
0.797665 0.382895 0
0.810407 0.39292 0
0.820966 0.403754 0
0.829282 0.414832 0
0.836179 0.426246 0
0.841123 0.438132 0.000442512
0 0.338491 0
0 0.346319 0
0 0.353658 0
0 0.360296 0
0.0214237 0.366506 0
0.0469215 0.372244 0
0.0755322 0.376776 0
0.105806 0.380301 0
0.134127 0.382879 0
0.166003 0.384497 0
0.202609 0.385351 0
0.243015 0.385321 0
0.286275 0.384466 0
0.332052 0.383322 0
0.380011 0.380606 0
0.431495 0.378805 0
0.481422 0.378134 0
0.528405 0.377462 0
0.571893 0.377646 0
0.611734 0.378988 0
0.647883 0.381567 0
0.680598 0.38529 0
0.710811 0.39028 0
0.737148 0.396033 0
0.760586 0.402686 0
0.781689 0.41004 0
0.799985 0.418219 0
0.816632 0.427054 0
0.830533 0.436744 0
0.842741 0.446525 0
0.852796 0.456886 0
0.861357 0.467628 0
0.868437 0.478706 0.00163272
0 0.375372 0
0 0.384161 0
0 0.392432 0
0.0113527 0.400046 0
0.0335241 0.407172 0
0.0587778 0.413245 0
0.0874647 0.418585 0
0.115648 0.423041 0
0.142779 0.426459 0
0.174075 0.429007 0
0.209796 0.430503 0
0.249378 0.430991 0
0.292241 0.430777 0
0.337438 0.430121 0
0.384344 0.429313 0
0.433127 0.426749 0.000503548
0.483452 0.426184 0
0.531609 0.426047 0
0.576455 0.426444 0
0.617395 0.427771 0
0.655634 0.430381 0
0.689677 0.433692 0
0.720409 0.438056 0
0.748165 0.44329 0
0.773312 0.449256 0
0.795392 0.456184 0
0.815686 0.463905 0
0.832868 0.472114 0
0.848524 0.48072 0
0.862013 0.489876 0
0.873579 0.499443 0
0.883665 0.509621 0
0.892531 0.520012 0.00819409
0 0.41387 0
0 0.423209 0
0.00758373 0.432532 0
0.0274815 0.440803 0
0.0497902 0.448447 0
0.0750744 0.455207 0
0.102342 0.461097 0
0.128435 0.46627 0
0.154955 0.470649 0
0.185748 0.473732 0
0.220798 0.4757 0
0.259525 0.476799 0.00341802
0.301488 0.47718 0.0056611
0.346334 0.477317 0.00588998
0.392447 0.477089 0.00250248
0.439277 0.476799 0
0.487175 0.473869 0.0164797
0.535729 0.47425 0
0.581033 0.475074 0
0.623774 0.47686 0
0.662394 0.479011 0
0.697765 0.481926 0
0.72987 0.48571 0
0.758373 0.490486 0
0.784451 0.496071 0
0.808301 0.502495 0
0.829038 0.509392 0
0.847395 0.516854 0
0.864225 0.524651 0
0.878569 0.533181 0
0.892012 0.542153 0
0.903288 0.551492 0
0.913115 0.560815 0.0207218
0 0.453132 0
0.0101472 0.4636 0
0.0274968 0.47306 0
0.0474708 0.481834 0
0.0700542 0.490043 0
0.0953231 0.497459 0
0.120058 0.504036 0
0.143755 0.50985 0.000885023
0.169924 0.514504 0.00527962
0.200336 0.518166 0.0099031
0.234974 0.520745 0.0144808
0.273106 0.522377 0.018616
0.314702 0.523491 0.0218509
0.358465 0.523796 0.0229496
0.403952 0.523674 0.0208438
0.449744 0.523705 0.0153506
0.495399 0.523598 0.0122225
0.542031 0.521401 0.0312047
0.58822 0.52285 0
0.630869 0.5243 0
0.6701 0.52639 0
0.705882 0.529244 0
0.738476 0.532799 0
0.768673 0.537392 0
0.79527 0.542321 0
0.81944 0.547921 0
0.840986 0.554223 0
0.860746 0.560922 0
0.87805 0.568338 0
0.894133 0.576013 0
0.907683 0.58407 0
0.920195 0.592355 0.00180056
0.930877 0.600992 0.0417182
0.0179141 0.493309 0.00239567
0.0335393 0.503944 0.00288396
0.0513466 0.514031 0.0039826
0.071931 0.523247 0.00584421
0.0945754 0.531823 0.00799573
0.116976 0.540063 0.0113375
0.138933 0.54696 0.0149844
0.161563 0.553033 0.0188907
0.188128 0.558053 0.0231022
0.218402 0.562066 0.0276036
0.252781 0.56527 0.0323796
0.290501 0.567498 0.0366522
0.330968 0.568719 0.0399786
0.374014 0.569238 0.0414893
0.418219 0.569467 0.0406958
0.463111 0.569558 0.0367285
0.508156 0.570275 0.0296025
0.551827 0.569879 0.0386969
0.596292 0.568719 0.0489509
0.638834 0.570367 0.0161746
0.678447 0.572351 0
0.714504 0.575021 0
0.748104 0.578607 0
0.778088 0.582559 0
0.805341 0.587091 0
0.829847 0.592126 0
0.852155 0.597635 0
0.872374 0.603922 0
0.890852 0.610636 0
0.907012 0.617563 0
0.921538 0.624704 0
0.934539 0.63212 0.0315404
0.946212 0.639826 0.0708782
0.0447089 0.533516 0.0257877
0.0605783 0.544594 0.0255589
0.0791028 0.55491 0.0263828
0.0991531 0.564797 0.0278477
0.11931 0.573907 0.030518
0.138918 0.58201 0.0331121
0.159091 0.589136 0.0364691
0.1823 0.595438 0.040177
0.209064 0.600763 0.0442359
0.239643 0.60531 0.0488899
0.27361 0.608713 0.0534371
0.31078 0.610941 0.0574502
0.35053 0.612329 0.0607462
0.392615 0.613001 0.0626383
0.435737 0.613413 0.062501
0.480095 0.614038 0.0599527
0.523445 0.614466 0.054139
0.565957 0.615167 0.045243
0.607263 0.614176 0.0708782
0.649058 0.61416 0.0683909
0.688228 0.616358 0.0376287
0.724529 0.619242 0.0117952
0.757321 0.622263 0
0.787549 0.625757 0
0.815152 0.629801 0
0.839963 0.634485 0
0.862867 0.639902 0
0.883314 0.645258 0
0.901793 0.651041 0
0.918318 0.657328 0.0127413
0.933532 0.663798 0.0396735
0.947051 0.670771 0.0738231
0.959075 0.677791 0.111452
0.0749828 0.573785 0.0520333
0.0914473 0.585046 0.0519875
0.108568 0.595697 0.0525063
0.125734 0.60589 0.0538491
0.143221 0.614908 0.0558938
0.161181 0.623209 0.0580148
0.181827 0.63061 0.0609903
0.205875 0.636896 0.0645762
0.233356 0.642649 0.0687572
0.263676 0.646967 0.0727855
0.297185 0.650294 0.0769055
0.333715 0.652644 0.0813306
0.372885 0.654169 0.0843671
0.414115 0.655344 0.0865797
0.456168 0.655894 0.0866255
0.498802 0.656184 0.0842298
0.541131 0.656626 0.0791028
0.582223 0.65742 0.0718242
0.621836 0.658244 0.0684215
0.661051 0.657115 0.106172
0.699351 0.658274 0.0917525
0.735088 0.660685 0.064271
0.767666 0.663584 0.0429999
0.797665 0.666789 0.0271458
0.824918 0.670558 0.0178531
0.849973 0.674952 0.014847
0.87274 0.679515 0.0178073
0.893156 0.684474 0.0274205
0.911513 0.689708 0.0434272
0.928252 0.69514 0.0657511
0.943328 0.701228 0.0954604
0.956985 0.707469 0.126131
0.969009 0.713771 0.157351
0.106706 0.613626 0.0817578
0.121065 0.625376 0.0817578
0.135622 0.636133 0.0818189
0.150896 0.645991 0.0828107
0.167178 0.65507 0.0841535
0.185977 0.663279 0.0861372
0.207706 0.67071 0.0887312
0.232319 0.67718 0.0920119
0.259571 0.682551 0.0952163
0.289967 0.686839 0.0985885
0.323262 0.690089 0.101884
0.359365 0.692332 0.105119
0.397787 0.694286 0.107805
0.437644 0.695354 0.109499
0.478645 0.695872 0.109529
0.519875 0.696147 0.107836
0.560464 0.696559 0.104189
0.600275 0.69723 0.0982681
0.639155 0.698634 0.0912795
0.675807 0.698726 0.107546
0.711986 0.697429 0.138827
0.746532 0.699657 0.118257
0.77847 0.702358 0.100023
0.808072 0.705516 0.0858015
0.835203 0.709087 0.0772564
0.859709 0.712703 0.0750744
0.881605 0.716808 0.0800488
0.901793 0.721263 0.0915541
0.920104 0.726009 0.108843
0.936782 0.731334 0.130098
0.951263 0.736599 0.15349
0.964553 0.741955 0.179355
0.976364 0.747692 0.206302
0.135607 0.653178 0.111131
0.147936 0.664546 0.110552
0.161044 0.675151 0.110353
0.176379 0.68484 0.110796
0.193561 0.693828 0.111681
0.213672 0.701976 0.113344
0.235782 0.709316 0.115343
0.260761 0.715282 0.117723
0.288273 0.720394 0.120134
0.318502 0.72459 0.122774
0.351537 0.727779 0.12549
0.387396 0.730388 0.128054
0.424689 0.731838 0.129732
0.463386 0.732723 0.130861
0.503014 0.733288 0.130907
0.542565 0.73373 0.130007
0.582193 0.734462 0.127764
0.620584 0.734905 0.123949
0.65745 0.735744 0.11902
0.692638 0.737041 0.114595
0.72607 0.736385 0.147021
0.759167 0.736263 0.163989
0.79057 0.738811 0.15108
0.819074 0.741482 0.141985
0.844968 0.744625 0.137926
0.868894 0.748012 0.138491
0.890303 0.75169 0.144457
0.909987 0.755688 0.155734
0.927672 0.760128 0.170977
0.943542 0.764721 0.189639
0.95787 0.769451 0.211521
0.970474 0.77438 0.235355
0.981888 0.77937 0.260899
0.161624 0.691234 0.139818
0.174212 0.702373 0.138643
0.188373 0.712764 0.137865
0.204318 0.722484 0.137713
0.22266 0.731319 0.138323
0.242863 0.73904 0.1393
0.265766 0.745785 0.140764
0.290837 0.751629 0.142596
0.318761 0.756329 0.144656
0.349157 0.760403 0.146899
0.381842 0.763455 0.149096
0.416678 0.76556 0.151263
0.453071 0.76701 0.152743
0.490593 0.767803 0.153704
0.52871 0.768231 0.153765
0.567346 0.768841 0.153628
0.605188 0.769192 0.152255
0.641886 0.76968 0.150195
0.677073 0.770397 0.147677
0.710613 0.771405 0.145281
0.742199 0.771817 0.161196
0.773083 0.77145 0.191012
0.803037 0.772259 0.19794
0.830167 0.774685 0.192905
0.85481 0.777417 0.192309
0.877684 0.780468 0.19556
0.898833 0.783917 0.203632
0.917388 0.787717 0.216068
0.934188 0.79147 0.23151
0.949325 0.795453 0.250019
0.962844 0.799771 0.27129
0.975067 0.804288 0.294499
0.985946 0.809201 0.320317
0.18912 0.727993 0.170306
0.202197 0.738796 0.168536
0.217197 0.749004 0.167224
0.234272 0.758389 0.16701
0.253147 0.766567 0.166903
0.273762 0.773907 0.167254
0.296925 0.780179 0.168063
0.322393 0.785611 0.169284
0.350622 0.790326 0.171176
0.381003 0.793896 0.172824
0.413031 0.796506 0.174441
0.447166 0.798245 0.175982
0.482582 0.799512 0.177386
0.51902 0.800259 0.178546
0.556298 0.800916 0.179339
0.593088 0.800977 0.179492
0.629114 0.801083 0.179522
0.664378 0.801389 0.179202
0.697963 0.802045 0.179187
0.730251 0.803265 0.179629
0.760098 0.804242 0.184237
0.788388 0.803586 0.213947
0.815686 0.802976 0.242069
0.841642 0.805035 0.243183
0.865232 0.807645 0.245884
0.8869 0.810468 0.252674
0.906554 0.813367 0.262852
0.92398 0.816724 0.276661
0.939941 0.820203 0.293629
0.954116 0.823835 0.313268
0.966934 0.827787 0.335363
0.978241 0.831907 0.359197
0.988098 0.83624 0.384298
0.218097 0.763272 0.20206
0.23209 0.77406 0.200183
0.247486 0.783551 0.198413
0.265049 0.792065 0.19736
0.284276 0.799924 0.196643
0.305928 0.806668 0.196735
0.329717 0.81268 0.197208
0.355428 0.817761 0.197864
0.383413 0.821653 0.198947
0.413321 0.824826 0.200259
0.445548 0.827054 0.201495
0.478965 0.828504 0.203128
0.51397 0.829526 0.205081
0.549401 0.829938 0.206485
0.585122 0.83006 0.207996
0.620539 0.83006 0.209201
0.655024 0.830014 0.210559
0.68806 0.830167 0.212253
0.720073 0.8309 0.214923
0.750179 0.831708 0.218235
0.778363 0.832853 0.222843
0.804715 0.832685 0.246052
0.829633 0.832105 0.27422
0.85359 0.832441 0.295293
0.875731 0.834974 0.301854
0.895949 0.837415 0.311803
0.913954 0.840085 0.324849
0.930053 0.843015 0.34078
0.944778 0.846143 0.359686
0.958099 0.849744 0.380789
0.969802 0.853376 0.403647
0.980087 0.857023 0.42797
0.988861 0.860914 0.453483
0.248325 0.797055 0.235264
0.262776 0.806882 0.232883
0.278874 0.8159 0.23061
0.296834 0.823911 0.228962
0.316625 0.831022 0.227634
0.338766 0.8374 0.227512
0.363088 0.842847 0.227573
0.389487 0.847059 0.228183
0.417502 0.850401 0.229053
