luts/Cliff-CLog.cube
TITLE "Generated by Resolve"
LUT_3D_SIZE 5
0 0 0
0.23241 0 0
0.369558 0 0
0.350835 0.00047303 0
0.154757 0.0831311 0.0756847
0 0.201511 0
0.232258 0.20444 0
0.535866 0.177508 0
0.670604 0.186389 0
0.476341 0.175784 0.0651102
0 0.451026 0
0.269764 0.518791 0.0174105
0.574304 0.515175 0
0.796857 0.527199 0
0.912779 0.560128 0.0204471
0.226261 0.745052 0.153399
0.459831 0.784482 0.165225
0.686564 0.786908 0.163272
0.866529 0.791897 0.21677
0.986557 0.815244 0.333791
0.654047 0.94641 0.454734
0.7664 0.944274 0.503075
0.86746 0.94522 0.5879
0.943236 0.95198 0.719295
0.995911 0.971939 0.853712
0 0 0.255009
0.221851 0 0.247547
0.453712 0 0.0631113
0.505867 0 0
0.360571 0.0373846 0.070161
0 0.199451 0.17644
0.222599 0.212497 0.188968
0.628367 0.18558 0.0572671
0.796902 0.194018 0.0182803
0.669367 0.114427 0.0607004
0 0.471046 0.046479
0.243061 0.543999 0.0704356
0.591623 0.529458 0.0451667
0.840467 0.532845 0
0.968078 0.563058 0.0719005
0.210208 0.735973 0.152407
0.452811 0.783276 0.164233
0.684138 0.785855 0.162341
0.865644 0.790921 0.214969
0.986358 0.814404 0.33167
0.646815 0.946441 0.452369
0.763607 0.944305 0.501411
0.866743 0.945235 0.58703
0.943053 0.951965 0.718837
0.995911 0.971939 0.853712
0 0 0.382315
0.147646 0 0.458503
0.385138 0 0.354833
0.49308 0 0.218204
0.409094 0.0424048 0.161242
0 0.15523 0.467918
0.189349 0.166552 0.609033
0.608286 0.124224 0.54992
0.814023 0.094789 0.422415
0.521218 0.0389105 0.182513
0 0.477836 0.414923
0.164691 0.563195 0.474632
0.585443 0.545586 0.454719
0.880858 0.547326 0.435035
1 0.581537 0.496483
0.0882582 0.76286 0.420829
0.357961 0.836271 0.417655
0.657465 0.821805 0.42504
0.874434 0.813855 0.482506
1 0.834867 0.586954
0.624445 0.946685 0.44625
0.755642 0.94432 0.496864
0.864561 0.94519 0.584466
0.942565 0.951904 0.717571
0.995911 0.971939 0.853712
0 0 0.372946
0.0588083 0 0.492348
0.293828 0 0.475364
0.421027 0 0.374044
0.389105 0.0752575 0.252049
0 0.0318608 0.48127
0.0937514 0.0257267 0.64445
0.397513 0 0.609354
0.422278 0 0.372702
0.389731 0.0747234 0.250965
0.013611 0.441886 0.628855
0.133257 0.510704 0.758251
0.553307 0.5131 0.808118
0.872099 0.510536 0.791409
1 0.53875 0.760601
0.129091 0.760983 0.702434
0.292332 0.830228 0.758251
0.602106 0.830381 0.754925
0.851743 0.822461 0.759152
0.988373 0.846922 0.793271
0.521614 0.973159 0.801572
0.731792 0.969055 0.827405
0.866453 0.968551 0.866133
0.953277 0.978653 0.913863
1 1 0.970703
0 0 0.226596
0 0 0.226596
0.180362 0 0.456718
0.323842 0.0208133 0.405097
0.325811 0.108675 0.290578
0 0 0.226596
0 0 0.226596
0.181369 0 0.456794
0.32398 0.0208896 0.404959
0.32575 0.108751 0.290501
0.0703593 0.301488 0.656275
0.0701457 0.299306 0.655131
0.468986 0.361624 0.935164
0.824353 0.353887 0.940673
0.968429 0.351736 0.886549
0.190723 0.731762 0.827329
0.190524 0.73135 0.827176
0.557885 0.808515 0.930724
0.833127 0.807675 0.926055
0.982895 0.834119 0.91989
0.500206 0.961273 0.928634
0.634302 0.968139 0.937774
0.876143 0.975235 0.955352
0.963439 0.991058 0.978668
1 1 1
