luts/Cliff-DLog.cube
TITLE "Generated by Resolve"
LUT_3D_SIZE 5
0 0 0.000244144
0.115511 0 0
0.416724 0.0312963 0
0.722957 0.255238 0
0.894179 0.52639 0
0 0.0955978 0
0.109651 0.0906386 0
0.465812 0.104723 0
0.755245 0.311925 0
0.905943 0.550454 0
0.105837 0.440635 0
0.188281 0.451835 0
0.515099 0.459388 0
0.84123 0.549432 0
0.951965 0.668742 0.087541
0.639185 0.841718 0.223957
0.660914 0.841672 0.225376
0.76228 0.843931 0.238483
0.927764 0.857862 0.378042
0.98674 0.884092 0.52546
0.89604 0.94667 0.622736
0.899367 0.947066 0.627558
0.918975 0.949447 0.659358
0.96791 0.95729 0.783001
0.995911 0.971939 0.853712
0 0 0.14609
0.109163 0 0.14226
0.497368 0 0
0.796002 0.255909 0
0.893614 0.525444 0
0 0.0939956 0.10634
0.0962997 0.0968948 0.101442
0.538369 0.101961 0
0.816052 0.313176 0
0.905547 0.549584 0
0.0866102 0.459541 0.0131533
0.174029 0.471458 0.024567
0.527718 0.470298 0.00645457
0.841001 0.548653 0
0.951919 0.668406 0.0871443
0.638636 0.841642 0.223804
0.66041 0.841581 0.225269
0.762066 0.843885 0.238315
0.927733 0.857771 0.377783
0.986725 0.884031 0.525231
0.895964 0.946639 0.622553
0.899275 0.947036 0.627375
0.918898 0.949432 0.659236
0.96791 0.95729 0.782986
0.995911 0.971939 0.853712
0 0 0.363073
0.0527352 0 0.430777
0.396719 0 0.363561
0.91281 0.195651 0.340276
1 0.550622 0.424781
0 0.0486763 0.439109
0.071458 0.0538949 0.533181
0.528267 0.054963 0.479133
0.937789 0.272099 0.348409
1 0.574075 0.426825
0.0252079 0.474144 0.417456
0.109743 0.495155 0.430823
0.532967 0.495399 0.409766
0.931197 0.574411 0.382803
1 0.692134 0.455451
0.59794 0.878279 0.475227
0.624796 0.876493 0.477806
0.747539 0.871168 0.496147
0.928145 0.876875 0.606577
0.98764 0.901289 0.693889
0.895323 0.946487 0.62118
0.898619 0.946899 0.626169
0.918456 0.949264 0.658289
0.967834 0.957259 0.782818
0.995911 0.971939 0.853712
0 0 0.348898
0 0 0.348913
0.235065 0 0.496162
0.674372 0.0571145 0.602228
1 0.500053 0.817395
0 0 0.348989
0 0 0.351522
0.237095 0 0.495521
0.82472 0.170214 0.750652
1 0.533669 0.819989
0.0210575 0.360159 0.648325
0.0899367 0.410239 0.769894
0.500618 0.444038 0.865217
0.923552 0.54229 0.842939
1 0.685756 0.815503
0.558999 0.887221 0.834485
0.587152 0.886824 0.834043
0.714748 0.884474 0.833265
0.914565 0.895369 0.855955
0.979248 0.923796 0.889296
0.906859 0.975692 0.922728
0.910521 0.976135 0.924147
0.931777 0.978561 0.932982
0.98468 0.992798 0.963867
1 1 0.989212
0 0 0.226596
0 0 0.226596
0.149966 0 0.45153
0.343618 0.0374609 0.376028
0.891966 0.257847 0.814893
0 0 0.226596
0 0 0.226596
0.152026 0 0.452003
0.343664 0.0375372 0.375906
0.959655 0.340642 0.884184
0.0466621 0.163775 0.552178
0.0471199 0.166522 0.55552
0.398795 0.229526 0.889448
0.900771 0.407431 0.946944
1 0.62092 0.94493
0.502235 0.877928 0.926986
0.541619 0.878172 0.927214
0.700771 0.877928 0.924132
0.908949 0.894667 0.927657
0.977005 0.925216 0.938796
0.912459 0.97792 0.961303
0.916152 0.978561 0.962203
0.936996 0.982498 0.967865
0.988403 0.998734 0.989364
1 1 1
