luts/Cliff-DLog.cube
TITLE "Generated by Resolve"
LUT_3D_SIZE 33
0 0 0.000244144
0 0 0
0.00573739 0 0
0.0206149 0 0
0.0358587 0 0
0.0509651 0 0
0.069337 0 0
0.0912795 0 0
0.115511 0 0
0.144457 0 0
0.178088 0 0
0.2159 0 0
0.256016 0 0
0.296132 0 0
0.335729 0.00967422 0
0.374258 0.0231937 0
0.416724 0.0312963 0
0.459251 0.0413519 0
0.500923 0.0536355 0
0.542336 0.0684367 0
0.582437 0.0894484 0
0.618418 0.125582 0
0.654154 0.165774 0
0.689387 0.209689 0
0.722957 0.255238 0
0.755413 0.30135 0
0.784817 0.346044 0
0.811353 0.387701 0
0.834211 0.425025 0
0.853819 0.457664 0
0.870253 0.485191 0
0.88365 0.508171 0
0.894179 0.52639 0
0 0 0
0 0 0
0.0041352 0 0
0.0174411 0 0
0.031754 0 0
0.0462806 0 0
0.0640116 0 0
0.0859846 0 0
0.112917 0 0
0.144579 0 0
0.180133 0 0
0.21912 0 0
0.259831 0.0018616 0
0.300984 0.0102388 0
0.340917 0.0218357 0
0.3832 0.0312657 0
0.425956 0.0391241 0
0.467857 0.0488746 0
0.50927 0.0608682 0
0.550072 0.0753796 0
0.588556 0.0981613 0
0.624125 0.133501 0
0.659495 0.173266 0
0.693568 0.216083 0
0.726925 0.261204 0
0.75816 0.306279 0
0.787427 0.350347 0
0.813581 0.391424 0
0.836179 0.428656 0
0.855787 0.460807 0
0.871824 0.488045 0
0.884596 0.510414 0
0.895598 0.528771 0
0 0.00482185 0
0 0.00437934 0
0.00320439 0.00318914 0
0.018204 0.00236515 0
0.0324865 0.00213626 0
0.046891 0.00201419 0
0.0645304 0.00189212 0
0.0864424 0.00155642 0
0.113481 0.00154116 0
0.145159 0.00230411 0
0.181231 0.00408942 0
0.220264 0.00749218 0
0.261723 0.0133211 0
0.3037 0.021912 0
0.345495 0.0329442 0
0.390082 0.0390326 0
0.433692 0.0468757 0
0.475853 0.0562905 0
0.516808 0.0679637 0
0.556832 0.0821546 0
0.594461 0.106432 0
0.629679 0.141482 0
0.663737 0.180346 0
0.697856 0.222736 0
0.73022 0.266743 0
0.761501 0.311437 0
0.789807 0.355032 0
0.815549 0.395468 0
0.8383 0.432151 0
0.85745 0.463996 0
0.873182 0.490944 0
0.885985 0.512993 0
0.896819 0.531212 0
0 0.0178683 0
0 0.0171817 0
0.00155642 0.0161288 0
0.0179141 0.0149538 0
0.0336156 0.0136568 0
0.0480812 0.0129091 0
0.0657664 0.0125124 0
0.0873579 0.0121767 0
0.113603 0.0122377 0
0.1449 0.0129397 0
0.180713 0.0148623 0
0.220172 0.0185702 0
0.262028 0.0242466 0
0.305058 0.0330358 0
0.350103 0.0406806 0
0.39585 0.0467994 0
0.439597 0.0542611 0
0.482383 0.0634928 0
0.523644 0.0749065 0
0.563378 0.0885023 0
0.599603 0.114504 0
0.634211 0.148928 0
0.668345 0.18735 0
0.701732 0.228824 0
0.733928 0.272526 0
0.764248 0.316655 0
0.79237 0.359579 0
0.81767 0.399496 0
0.84004 0.435737 0
0.858656 0.466743 0
0.874617 0.493782 0
0.887495 0.515496 0
0.898009 0.533623 0
0 0.0307164 0
0 0.0297551 0
0 0.0287175 0
0.0158694 0.0278782 0
0.0324559 0.0265049 0
0.0482032 0.0251011 0
0.0663462 0.024094 0
0.0878462 0.0231785 0
0.113466 0.0227817 0
0.144137 0.0234226 0
0.179675 0.02533 0
0.219242 0.0287022 0
0.26183 0.0347448 0
0.306111 0.0434119 0
0.353292 0.0484474 0
0.400229 0.0542458 0
0.444892 0.0615854 0
0.487663 0.0705119 0
0.529442 0.0819257 0
0.569177 0.0948959 0
0.604456 0.122835 0
0.638666 0.156176 0
0.672496 0.194049 0
0.705516 0.235203 0
0.736721 0.277928 0
0.766766 0.321324 0
0.79469 0.363546 0
0.819913 0.403403 0
0.841459 0.438804 0
0.860243 0.469856 0
0.875654 0.496223 0
0.888762 0.518059 0
0.899184 0.536004 0
0 0.0428473 0
0 0.0419928 0
0 0.0411231 0
0.0144808 0.0404059 0
0.0300603 0.0394903 0
0.0468452 0.0377356 0
0.066041 0.0361486 0
0.0884108 0.0347906 0
0.113298 0.0339666 0
0.143465 0.0340276 0
0.178515 0.0355535 0
0.218235 0.0392004 0
0.261555 0.0449683 0
0.307805 0.051606 0
0.356466 0.0563211 0
0.403952 0.0620279 0
0.449744 0.0690471 0
0.492973 0.0777295 0
0.534585 0.0886702 0
0.574517 0.102403 0
0.609232 0.131029 0
0.643397 0.163989 0
0.676143 0.200885 0
0.708797 0.241352 0
0.740108 0.283818 0
0.769894 0.326497 0
0.797208 0.368154 0
0.821775 0.407034 0
0.843336 0.44239 0
0.862013 0.47303 0
0.877028 0.499046 0
0.890074 0.520714 0
0.900053 0.538155 0
0 0.0572213 0
0 0.0565194 0
0 0.055787 0
0.0131075 0.0552377 0
0.0284276 0.0545815 0
0.0438544 0.0537728 0
0.0645609 0.0517891 0
0.0878309 0.0497292 0
0.112779 0.0480964 0
0.142473 0.0475929 0
0.177523 0.0487221 0
0.217243 0.0518654 0
0.260777 0.0575265 0
0.309682 0.0618753 0
0.358862 0.0662394 0
0.408164 0.0716106 0
0.454398 0.0784161 0
0.499123 0.0869154 0
0.540673 0.0968032 0
0.579904 0.113344 0
0.615091 0.141299 0
0.648814 0.173556 0
0.681331 0.209934 0
0.713573 0.249516 0
0.744259 0.290959 0
0.773449 0.333074 0
0.800351 0.373983 0
0.82446 0.412222 0
0.84593 0.446845 0
0.863996 0.477134 0
0.879103 0.502617 0
0.891478 0.523934 0
0.901732 0.5411 0
0 0.0745861 0
0 0.0742046 0
0 0.07393 0
0.0116732 0.0734264 0
0.0267948 0.0728771 0
0.0420081 0.0722667 0
0.0607004 0.0713207 0
0.0860914 0.0690471 0
0.111894 0.0667887 0
0.141558 0.0652323 0
0.176089 0.0653544 0
0.215808 0.0680247 0
0.261036 0.0717632 0
0.311086 0.0749371 0
0.362158 0.0789807 0
0.411917 0.0842756 0
0.460349 0.0903182 0
0.505226 0.0977188 0
0.548272 0.107881 0
0.586267 0.127291 0
0.621424 0.154437 0
0.655192 0.185901 0
0.687602 0.221195 0
0.719097 0.259648 0
0.749187 0.300252 0
0.777615 0.341253 0
0.803922 0.381079 0
0.82797 0.418845 0
0.848478 0.452338 0
0.866178 0.482017 0
0.881437 0.507362 0
0.893507 0.528023 0
0.903471 0.54522 0
0 0.0955978 0
0 0.0957961 0
0 0.0958114 0
0.0108644 0.0957504 0
0.0257267 0.0956741 0
0.0404669 0.0951553 0
0.0588846 0.0945602 0
0.0819409 0.0934768 0
0.109651 0.0906386 0
0.140337 0.0881056 0
0.174929 0.0868849 0
0.214527 0.0879225 0
0.261891 0.0894331 0
0.31284 0.0916762 0
0.364752 0.0947738 0
0.416327 0.0991531 0
0.465812 0.104723 0
0.51281 0.112398 0
0.555734 0.123232 0
0.593957 0.145098 0
0.628946 0.170871 0
0.662898 0.201404 0
0.695003 0.235615 0
0.725734 0.272801 0
0.755245 0.311925 0
0.782986 0.351659 0
0.80911 0.390661 0
0.831769 0.426993 0
0.852277 0.459876 0
0.869734 0.488716 0
0.883986 0.513069 0
0.896223 0.5337 0
0.905943 0.550454 0
0 0.120821 0
0 0.121523 0
0 0.122042 0
0.0110933 0.122347 0
0.0255894 0.122652 0
0.0399786 0.122515 0
0.0581216 0.122286 0
0.0803082 0.121553 0
0.105943 0.120394 0
0.138552 0.11754 0
0.174685 0.115068 0
0.216587 0.113329 0
0.263645 0.112764 0
0.314992 0.113619 0
0.368338 0.115587 0
0.42118 0.11902 0
0.472313 0.124315 0
0.52015 0.131655 0
0.563134 0.146654 0
0.601862 0.16701 0
0.638163 0.192035 0
0.671489 0.220737 0
0.703319 0.253544 0
0.733867 0.289418 0
0.762722 0.326833 0
0.789593 0.36492 0
0.814954 0.402441 0
0.837247 0.43769 0
0.856489 0.469169 0
0.87335 0.4972 0
0.88777 0.520912 0
0.899474 0.540459 0
0.908873 0.556649 0.000885023
0 0.150713 0
0 0.151873 0
0 0.153063 0
0.0130922 0.153674 0
0.0271763 0.154284 0
0.0410773 0.154467 0
0.0588083 0.154681 0
0.0807965 0.154345 0
0.105776 0.153597 0
0.135027 0.152438 0
0.174456 0.150011 0
0.21944 0.147082 0
0.267048 0.144198 0
0.318624 0.142809 0
0.372869 0.143267 0
0.426719 0.145602 0
0.47953 0.150072 0
0.527062 0.160708 0
0.570855 0.175235 0
0.61088 0.194476 0
0.647654 0.217655 0
0.681453 0.244923 0
0.71313 0.275975 0
0.742885 0.309636 0
0.771344 0.345602 0
0.79736 0.381674 0
0.821759 0.41738 0
0.843305 0.450919 0
0.862272 0.481239 0
0.878477 0.507851 0
0.892164 0.530434 0
0.903426 0.549676 0
0.91249 0.565194 0.00483711
0 0.185489 0
0 0.187503 0
0.00411994 0.18883 0
0.0180972 0.190036 0
0.0315709 0.1906 0
0.0450752 0.191348 0
0.0619059 0.191684 0
0.083711 0.192081 0
0.107683 0.191867 0
0.135775 0.191196 0
0.170428 0.190097 0
0.21529 0.18735 0
0.2663 0.184939 0
0.320714 0.182223 0
0.376089 0.181064 0
0.430854 0.182696 0
0.483894 0.187778 0
0.53315 0.196704 0
0.579156 0.210254 0
0.620569 0.227466 0
0.658122 0.249195 0
0.692317 0.274495 0
0.724163 0.303212 0
0.75375 0.334981 0
0.780804 0.368215 0
0.806668 0.40235 0
0.829786 0.435889 0
0.850675 0.467338 0
0.868818 0.495979 0
0.884215 0.521035 0
0.897459 0.542458 0
0.908293 0.560616 0
0.916991 0.575402 0.00972
0 0.225986 0
0 0.228321 0
0.0131685 0.229923 0
0.0267643 0.231312 0
0.0396124 0.232273 0
0.0528878 0.233066 0
0.0693217 0.233997 0
0.0899062 0.234562 0
0.112581 0.235019 0
0.139651 0.235065 0
0.172839 0.234546 0
0.212848 0.233692 0
0.263447 0.231052 0
0.319097 0.229404 0
0.376394 0.228077 0
0.433295 0.228382 0
0.488365 0.232395 0
0.53959 0.239551 0
0.587381 0.251255 0
0.629999 0.266773 0
0.668711 0.286168 0
0.703944 0.309407 0
0.735759 0.335927 0
0.765316 0.365057 0
0.792279 0.395911 0
0.817044 0.427039 0
0.839078 0.457786 0
0.858961 0.486976 0
0.876387 0.513726 0
0.891478 0.537301 0
0.90367 0.557305 0
0.913909 0.574304 0
0.922301 0.588296 0.0169833
0.0016022 0.272099 0
0.0153048 0.274586 0
0.0283665 0.276265 0
0.0412909 0.277852 0
0.0538491 0.279149 0
0.0661631 0.280018 0
0.0822766 0.281209 0
0.100862 0.282124 0
0.121614 0.283223 0
0.147158 0.283711 0
0.179065 0.283696 0
0.217731 0.283238 0
0.263233 0.283009 0
0.31841 0.280659 0
0.377005 0.280049 0
0.43595 0.28043 0
0.493187 0.283268 0
0.546334 0.289067 0
0.595544 0.298848 0
0.640116 0.312245 0
0.680049 0.329503 0
0.716152 0.350408 0
0.748272 0.374212 0
0.777676 0.400336 0
0.804334 0.428122 0
0.828214 0.456504 0
0.849683 0.484474 0
0.868605 0.510903 0
0.884779 0.535256 0
0.899474 0.55697 0
0.910948 0.575296 0
0.921065 0.590982 0.00613413
0.928954 0.603952 0.0263676
0.0258793 0.323919 0
0.038941 0.326284 0
0.0512856 0.327901 0
0.0635843 0.329534 0
0.0755627 0.330922 0
0.0873732 0.331884 0
0.101457 0.333196 0
0.117418 0.334722 0
0.13637 0.335775 0
0.160632 0.336721 0
0.191394 0.337606 0
0.228321 0.337728 0
0.271931 0.337652 0
0.321447 0.337453 0
0.379934 0.336217 0
0.439704 0.337133 0
0.498192 0.339254 0
0.553491 0.344091 0
0.604395 0.352209 0
0.650263 0.363378 0
0.691569 0.378607 0
0.728099 0.396521 0
0.760906 0.417243 0
0.790082 0.440269 0
0.816693 0.464912 0
0.839857 0.490227 0
0.860624 0.5149 0
0.87866 0.538521 0
0.89453 0.560525 0
0.907958 0.57969 0
0.919295 0.596735 0
0.92871 0.610971 0.0199283
0.936156 0.622568 0.0406195
0.0606851 0.380606 0
0.0728313 0.382345 0
0.0848859 0.384161 0
0.0958572 0.385748 0
0.105623 0.386984 0
0.115023 0.388083 0
0.126024 0.389548 0
0.140108 0.391135 0
0.158053 0.392432 0
0.180972 0.393744 0
0.210086 0.394965 0
0.245197 0.395514 0
0.286687 0.395834 0
0.333974 0.396323 0
0.386404 0.396277 0
0.445884 0.396323 0
0.505364 0.398627 0
0.561669 0.40296 0
0.613306 0.4094 0
0.660594 0.419074 0
0.70312 0.431769 0
0.74049 0.446983 0
0.773495 0.464668 0
0.802884 0.484733 0
0.829084 0.505699 0
0.851713 0.527352 0
0.872297 0.549249 0
0.889464 0.569818 0
0.904921 0.589044 0
0.917311 0.606088 0
0.9281 0.621012 0.0142977
0.936782 0.6336 0.0380102
0.943755 0.644083 0.0593271
0.105837 0.440635 0
0.115389 0.442451 0
0.123964 0.444129 0
0.131975 0.44538 0
0.139483 0.446448 0
0.147555 0.447669 0
0.157931 0.449027 0
0.171099 0.450187 0
0.188281 0.451835 0
0.210101 0.453101 0
0.237369 0.454551 0
0.270237 0.455436 0
0.309117 0.456123 0
0.354101 0.457084 0
0.403754 0.458198 0
0.457115 0.457771 0.00650034
0.515099 0.459388 0
0.571252 0.46334 0
0.62388 0.469108 0
0.671595 0.477287 0
0.714305 0.487343 0
0.752529 0.500206 0
0.785977 0.514916 0
0.815564 0.531731 0
0.84123 0.549432 0
0.864195 0.568154 0
0.883574 0.586267 0
0.900771 0.604242 0
0.914992 0.620752 0
0.926955 0.63537 0.0133974
0.937194 0.648417 0.0394141
0.945388 0.659495 0.0647898
0.951965 0.668742 0.087541
0.151736 0.503319 0
0.159426 0.504799 0.000961318
0.166766 0.505714 0.00187686
0.174411 0.506889 0.00317388
0.181857 0.507973 0.00445563
0.189563 0.508995 0.00570687
0.199359 0.51017 0.00729381
0.21178 0.511055 0.00877394
0.227817 0.512581 0.0111696
0.247959 0.513664 0.0134127
0.27335 0.51516 0.0162051
0.303792 0.516106 0.0185092
0.340002 0.516884 0.019852
0.381964 0.51809 0.0198825
0.428412 0.519081 0.0162356
0.478065 0.520729 0.00852979
0.53077 0.520058 0.0381781
0.585138 0.523812 0.00114443
0.636362 0.528664 0
0.684092 0.535088 0
0.726711 0.543877 0
0.765042 0.554376 0
0.798444 0.5664 0
0.828229 0.580301 0
0.853697 0.594903 0
0.876112 0.61033 0
0.895506 0.625925 0
0.911421 0.640497 0
0.925383 0.654566 0.0198062
0.937118 0.667216 0.0489052
0.946349 0.678264 0.0771191
0.953719 0.687663 0.102388
0.959457 0.695583 0.121843
0.206302 0.565484 0.0276188
0.213718 0.566506 0.0288548
0.220966 0.567452 0.0300603
0.228 0.568353 0.0312352
0.234897 0.569177 0.0323949
0.241932 0.569604 0.0330816
0.250904 0.570382 0.0342565
0.262592 0.57142 0.0358282
0.277195 0.572671 0.0378271
0.295644 0.573449 0.0395361
0.318517 0.574807 0.0419928
0.34638 0.575601 0.0436255
0.379156 0.576471 0.0449378
0.417441 0.5776 0.0449378
0.459907 0.5785 0.0420081
0.50544 0.579965 0.0359045
0.552987 0.581704 0.0356451
0.602914 0.581872 0.0615091
0.652399 0.586221 0.0261692
0.698589 0.591867 0
0.740353 0.599054 0
0.777966 0.607355 0
0.811261 0.617365 0
0.840436 0.628809 0
0.865736 0.640772 0
0.887556 0.653223 0
0.906569 0.66601 0.00988785
0.922271 0.678492 0.0377508
0.935256 0.689998 0.0680705
0.945907 0.700359 0.0988632
0.954879 0.70985 0.124865
0.961776 0.717784 0.145922
0.966949 0.724392 0.163119
0.271855 0.625544 0.061738
0.278294 0.626276 0.0626688
0.284596 0.626917 0.0635386
0.290745 0.6271 0.0638895
0.29691 0.62768 0.0646525
0.303502 0.628153 0.0653697
0.311528 0.628779 0.0663157
0.321813 0.629511 0.0675212
0.334585 0.629938 0.0684825
0.35108 0.630884 0.0700999
0.371756 0.6318 0.0717479
0.396338 0.63238 0.0727092
0.425437 0.633173 0.0734875
0.459785 0.634028 0.0729686
0.497688 0.634836 0.0703746
0.538628 0.636103 0.0652171
0.581979 0.637995 0.0571145
0.626169 0.638926 0.0799115
0.671931 0.640482 0.0883955
0.715557 0.645212 0.0565194
0.755856 0.651164 0.0329442
0.792279 0.65832 0.0179904
0.824735 0.666392 0.0119326
0.852781 0.675502 0.0151064
0.877577 0.685206 0.0260929
0.898726 0.69546 0.0457618
0.916655 0.705745 0.0715953
0.931899 0.715908 0.101198
0.943999 0.725551 0.128771
0.953887 0.734157 0.153429
0.961959 0.741695 0.175235
0.968277 0.748287 0.19353
0.97348 0.754116 0.209491
0.344289 0.680735 0.0977493
0.349844 0.681178 0.0983291
0.355596 0.681498 0.0987564
0.360952 0.681895 0.0992294
0.366461 0.68217 0.0996262
0.371817 0.682551 0.100114
0.378882 0.682887 0.100618
0.387304 0.682979 0.100923
0.398642 0.683513 0.101686
0.413031 0.684092 0.102495
0.430549 0.684474 0.103014
0.451942 0.68513 0.103456
0.477409 0.685679 0.103441
0.507179 0.686366 0.10248
0.540276 0.687022 0.10016
0.576837 0.688106 0.0960403
0.615579 0.689876 0.0896162
0.655009 0.691844 0.08925
0.695247 0.691951 0.126833
0.735485 0.694972 0.118959
0.773358 0.699794 0.0995956
0.807568 0.705531 0.0861677
0.838392 0.712032 0.0817426
0.865217 0.719371 0.0866102
0.888853 0.727367 0.100511
0.909072 0.735759 0.120027
0.92575 0.744152 0.142763
0.940047 0.752224 0.165759
0.951431 0.760037 0.189609
0.960861 0.767132 0.21091
0.968093 0.773388 0.230167
0.974105 0.778943 0.247532
0.978332 0.783429 0.261845
0.421363 0.73048 0.128878
0.426169 0.730663 0.129091
0.430594 0.730922 0.129366
0.435218 0.731075 0.129549
0.43975 0.731228 0.129717
0.443824 0.731167 0.129717
0.449638 0.731258 0.129824
0.456947 0.731563 0.130129
0.466423 0.731868 0.130404
0.478401 0.732235 0.130663
0.492744 0.732341 0.130632
0.511009 0.73283 0.130495
0.53254 0.733349 0.13022
0.557565 0.733791 0.129091
0.586099 0.734356 0.12726
0.6177 0.735378 0.124712
0.651514 0.736553 0.120592
0.68632 0.738476 0.11632
0.721294 0.739284 0.142184
0.757427 0.73962 0.169802
0.791928 0.743572 0.157885
0.823545 0.748425 0.151736
0.852506 0.753826 0.151843
0.877592 0.759838 0.15877
0.89955 0.766217 0.171801
0.918196 0.773098 0.189456
0.934173 0.779873 0.20972
0.947311 0.786389 0.231052
0.95761 0.79266 0.252476
0.966247 0.798383 0.27245
0.973037 0.803784 0.290944
0.978317 0.808225 0.307042
0.982361 0.81207 0.32079
0.498329 0.773907 0.158038
0.501854 0.774075 0.158206
0.505531 0.774075 0.15819
0.50901 0.773907 0.158038
0.512444 0.773983 0.158114
0.51606 0.77409 0.158206
0.520821 0.774182 0.158251
0.526635 0.77438 0.158404
0.534463 0.774502 0.158434
0.544045 0.774762 0.158541
0.555749 0.774731 0.158145
0.570596 0.775082 0.15816
0.588266 0.775586 0.158114
0.609186 0.775753 0.157229
0.633219 0.776471 0.156649
0.659861 0.77702 0.155276
0.688579 0.777935 0.15404
0.718822 0.779644 0.153521
0.749767 0.780774 0.169451
0.780819 0.780941 0.199908
0.811673 0.782666 0.211994
0.84036 0.786542 0.210727
0.866514 0.791043 0.215137
0.889738 0.795956 0.224826
0.909712 0.801175 0.239231
0.926818 0.806622 0.257206
0.941344 0.812207 0.277348
0.953307 0.817639 0.298344
0.962905 0.82266 0.319249
0.970382 0.827314 0.338506
0.976654 0.831678 0.356542
0.981186 0.835309 0.371923
0.984985 0.83859 0.385321
0.571298 0.811109 0.18854
0.574228 0.811078 0.188556
0.576989 0.810925 0.188464
0.579812 0.810849 0.188464
0.582391 0.810956 0.188663
0.585351 0.810956 0.188739
0.58912 0.810971 0.188846
0.59379 0.811078 0.188922
0.599939 0.811139 0.189044
0.607492 0.811307 0.189334
0.617212 0.811322 0.189441
0.628824 0.811353 0.189639
0.64303 0.811765 0.190005
0.660044 0.811872 0.190265
0.679667 0.812451 0.190799
0.701885 0.813046 0.191409
0.72604 0.813916 0.192996
0.751797 0.814984 0.19498
0.777966 0.816037 0.207599
0.804715 0.816129 0.236423
0.831708 0.816556 0.265553
0.85713 0.819669 0.269322
0.8804 0.82327 0.277974
0.901122 0.82742 0.290959
0.919203 0.831769 0.307729
0.9346 0.836225 0.326879
0.947372 0.840757 0.347875
0.957961 0.845289 0.369116
0.966705 0.849515 0.389715
0.973587 0.853635 0.409445
0.978958 0.856962 0.426703
0.982986 0.859968 0.441581
0.986419 0.862531 0.454429
0.639185 0.841718 0.223957
0.641474 0.841733 0.224109
0.643717 0.841733 0.224262
0.64596 0.841733 0.224414
0.647761 0.841733 0.224598
0.649882 0.841596 0.224613
0.652689 0.841535 0.22475
0.656413 0.84155 0.225025
0.660914 0.841672 0.225376
0.667002 0.841718 0.225742
0.674357 0.841886 0.226505
0.683558 0.842084 0.227497
0.694682 0.842069 0.228199
0.708431 0.84239 0.229801
0.724269 0.842695 0.231525
0.742367 0.843259 0.234638
0.76228 0.843931 0.238483
0.783734 0.845029 0.243778
0.805783 0.845823 0.256626
0.828107 0.845884 0.283757
0.850965 0.845914 0.312474
0.873182 0.847791 0.330678
0.893446 0.850813 0.343099
0.911818 0.854139 0.358984
0.927764 0.857862 0.378042
0.941436 0.861677 0.398962
0.952621 0.865522 0.420722
0.961883 0.86923 0.442298
0.969299 0.872892 0.463218
0.975479 0.876402 0.482048
0.98024 0.879286 0.498939
0.983932 0.882048 0.513527
0.98674 0.884092 0.52546
0.699016 0.866728 0.266361
0.70074 0.866728 0.266636
0.702449 0.866728 0.266911
0.704128 0.866728 0.26717
0.705791 0.866743 0.267445
0.707393 0.866773 0.267781
0.709407 0.866835 0.268223
0.712245 0.866865 0.268513
0.715892 0.866896 0.269078
0.720211 0.866987 0.270039
0.725795 0.866804 0.270939
0.732845 0.866987 0.272602
0.74168 0.867216 0.274434
0.752422 0.867506 0.277256
0.764828 0.867689 0.280461
0.779538 0.868269 0.285328
0.795651 0.868788 0.291386
0.813275 0.869917 0.299092
0.831525 0.87039 0.314748
0.85005 0.870283 0.340566
0.869307 0.870207 0.368368
0.887816 0.871138 0.395163
0.905409 0.873838 0.410819
0.921202 0.876677 0.429343
0.93492 0.879805 0.449973
0.946807 0.883146 0.472007
0.956893 0.886534 0.494102
0.965072 0.890105 0.515801
0.971649 0.893156 0.535744
0.976776 0.89601 0.553674
0.981079 0.898756 0.569787
0.984085 0.901015 0.583261
0.986755 0.903075 0.594568
0.750027 0.887098 0.316625
0.751339 0.887114 0.317037
0.752392 0.88719 0.317449
0.753674 0.887221 0.317723
0.75494 0.887221 0.31809
0.756237 0.887236 0.318517
0.75787 0.887251 0.319051
0.759976 0.887266 0.319768
0.762509 0.887114 0.320562
0.765713 0.887175 0.321889
0.770169 0.887251 0.323568
0.775555 0.887434 0.325567
0.782345 0.887633 0.328527
0.790768 0.887739 0.332219
0.800519 0.887953 0.33669
0.811841 0.888563 0.34287
0.824887 0.889021 0.350301
0.839338 0.890013 0.360296
0.854231 0.890272 0.378866
0.869947 0.890135 0.403723
0.885588 0.890394 0.430381
0.901183 0.890486 0.459022
0.915816 0.892653 0.47924
0.929335 0.895354 0.49926
0.941329 0.898177 0.520714
0.951751 0.90135 0.542733
0.960311 0.904387 0.564477
0.967544 0.907423 0.584833
0.973419 0.910307 0.603601
0.978256 0.9131 0.620768
0.981735 0.915419 0.635264
0.984771 0.917556 0.647669
0.98706 0.919234 0.657618
0.79147 0.903304 0.373129
0.792264 0.903365 0.373709
0.79324 0.90338 0.374228
0.794202 0.903395 0.374746
0.795132 0.903426 0.375265
0.796124 0.903441 0.375799
0.79736 0.903471 0.376486
0.798917 0.903441 0.37734
0.800855 0.903349 0.378393
