luts/Cliff-CLog3.cube
TITLE "Generated by Resolve"
LUT_3D_SIZE 9
0 0 0
0.0307622 0 0
0.196429 0 0
0.31873 0 0
0.373632 0 0
0.369955 0.000549325 0
0.322683 0.00561532 0
0.236774 0.0457771 0.0226291
0.154757 0.0831311 0.0756847
0 0.0349279 0
0.0243687 0.0251469 0
0.205615 0.0139162 0
0.355245 0.0209201 0
0.420859 0.0139467 0
0.369924 0.000549325 0
0.322621 0.0056611 0
0.236713 0.0458076 0.0226596
0.154757 0.0831311 0.0756847
0 0.169223 0
0 0.175113 0
0.187472 0.165881 0
0.391546 0.142672 0
0.546395 0.132525 0
0.622248 0.134157 0
0.602655 0.122179 0
0.307362 0.0618753 0.0168917
0.154757 0.0831311 0.0756847
0 0.315419 0
0.0163424 0.340703 0
0.183688 0.355169 0
0.387182 0.345586 0
0.580346 0.337041 0
0.705547 0.340734 0
0.771862 0.347051 0
0.779553 0.338216 0
0.700511 0.294224 0.0227817
0.0080415 0.476844 0
0.106493 0.521798 0.00302129
0.242008 0.546166 0.0243229
0.423514 0.548821 0.0306554
0.60827 0.546273 0.0103761
0.751522 0.552224 0
0.843427 0.562448 0
0.895567 0.569741 0
0.915785 0.566415 0.0231327
0.123522 0.636408 0.0990311
0.234028 0.695705 0.105272
0.358236 0.712993 0.116991
0.513878 0.717021 0.120745
0.666621 0.719265 0.102785
0.795071 0.721447 0.121065
0.885695 0.730892 0.106813
0.943664 0.740459 0.150912
0.975982 0.745983 0.203952
0.235325 0.780056 0.210483
0.4094 0.832242 0.208316
0.509529 0.837232 0.213001
0.63035 0.837858 0.218692
0.748211 0.838834 0.228534
0.844587 0.838819 0.297948
0.916777 0.845472 0.339757
0.963333 0.854154 0.39855
0.988876 0.861067 0.453864
0.49659 0.910018 0.325154
0.607401 0.911971 0.338628
0.672145 0.911482 0.351583
0.750683 0.910246 0.375555
0.828962 0.911269 0.418662
0.893187 0.912932 0.497169
0.940032 0.915892 0.588968
0.970916 0.924269 0.656519
0.98854 0.931807 0.707958
0.70425 0.945388 0.47248
0.756161 0.944305 0.497063
0.790158 0.943999 0.518105
0.835065 0.944121 0.554147
0.884031 0.946349 0.608652
0.926848 0.950408 0.678782
0.958724 0.954269 0.760693
0.981949 0.963684 0.816205
0.995911 0.971939 0.853712
0 0 0.0922866
0.0149538 0 0.0949264
0.209094 0 0.0368811
0.362768 0 0
0.43801 0 0
0.451743 0 0
0.416709 0 0
0.34139 0.0198978 0.00500496
0.258762 0.0633555 0.0605173
0 0.0213626 0.0329137
0.0120851 0.0140078 0.0322118
0.223117 0 0
0.379263 0 0
0.442664 0 0
0.419409 0 0
0.378988 0 0
0.299596 0.0322271 0.0115053
0.21735 0.0726787 0.0660868
0 0.163714 0
0 0.167987 0
0.183719 0.158877 0
0.389197 0.136034 0
0.544518 0.124849 0
0.618723 0.126223 0
0.59353 0.112963 0
0.272969 0.0519722 0.0199741
0.162509 0.0821698 0.0745098
0 0.312703 0
0.00633249 0.335531 0
0.178286 0.351324 0
0.384482 0.341543 0
0.578912 0.332631 0
0.704204 0.33666 0
0.769482 0.342504 0
0.775891 0.332952 0
0.691432 0.287587 0.0243992
0.00715648 0.475319 0
0.0978408 0.517571 0.00111391
0.236942 0.544076 0.0229953
0.4206 0.54699 0.0299992
0.606729 0.544503 0.00915541
0.750805 0.550347 0
0.842924 0.560662 0
0.894896 0.567834 0
0.914778 0.56437 0.0222171
0.123033 0.635706 0.0985275
0.227649 0.693507 0.10428
0.353933 0.711955 0.116182
0.511574 0.716258 0.120333
0.665461 0.718563 0.102434
0.794553 0.72076 0.120256
0.88542 0.73022 0.105577
0.943481 0.739803 0.149737
0.975814 0.745312 0.203082
0.22855 0.774823 0.211414
0.404166 0.831647 0.207904
0.505974 0.836957 0.212512
0.628504 0.837629 0.218311
0.747387 0.838575 0.228061
0.844221 0.83859 0.297276
0.916625 0.845243 0.339101
0.963241 0.853941 0.397833
0.988861 0.860853 0.453361
0.490364 0.909743 0.324559
0.604074 0.911894 0.337865
0.669932 0.911452 0.350866
0.749477 0.910185 0.374853
0.828412 0.911192 0.418021
0.892958 0.912856 0.496529
0.939925 0.915801 0.58851
0.970886 0.924178 0.656123
0.988556 0.931746 0.707668
0.701579 0.945464 0.471427
0.754498 0.94432 0.496361
0.788998 0.944015 0.517449
0.83444 0.944106 0.553567
0.883741 0.946334 0.60827
0.926741 0.950408 0.678523
0.958679 0.954253 0.760586
0.981933 0.963668 0.816159
0.995911 0.971939 0.853712
0 0 0.231525
0 0 0.247456
0.179782 0 0.231235
0.360433 0 0.13193
0.467597 0 0.00401312
0.504265 0 0
0.486824 0 0
0.427039 0 0.00448615
0.349569 0.039353 0.0641489
0 0 0.235279
0 0 0.252857
0.200153 0 0.22356
0.395254 0 0.101823
0.477272 0 0
0.501732 0 0
0.480278 0 0
0.418845 0 0.00213626
0.340734 0.0409247 0.060914
0 0.161807 0.146365
0 0.168948 0.155032
0.171756 0.16672 0.155016
0.447669 0.14284 0.0711223
0.638148 0.136522 0
0.730144 0.137377 0
0.725521 0.105318 0
0.40856 0 0.00103761
0.330282 0.0428779 0.0578927
0 0.331197 0.0454719
0 0.354177 0.047303
0.153506 0.377371 0.0621347
0.402487 0.358923 0.047776
0.637827 0.340063 0
0.782361 0.341024 0
0.859098 0.345632 0
0.88069 0.334432 0
0.823606 0.28246 0.0565957
0.00628672 0.473777 0
0.0888838 0.513344 0
0.23151 0.542062 0.0215763
0.417441 0.54548 0.0294804
0.60528 0.542672 0.00799573
0.749859 0.548562 0
0.842329 0.55877 0
0.894301 0.565866 0
0.913802 0.562295 0.0213321
0.122515 0.635019 0.0980087
0.221027 0.690974 0.103105
0.349371 0.71107 0.115496
0.509026 0.715572 0.120027
0.664286 0.717876 0.102098
0.794018 0.720058 0.119432
0.88513 0.729549 0.104326
0.943297 0.739147 0.148547
0.975677 0.74464 0.202045
0.226688 0.773236 0.211582
0.398978 0.830747 0.207355
0.502434 0.836652 0.21207
0.626642 0.8374 0.217945
0.7467 0.838285 0.227512
0.843839 0.838361 0.296605
0.916457 0.84506 0.338476
0.963134 0.853742 0.397116
0.98883 0.860639 0.452842
0.484245 0.909239 0.323964
0.600809 0.912047 0.337331
0.667674 0.911406 0.350134
0.748241 0.910124 0.374136
0.827878 0.911101 0.41735
0.892729 0.912779 0.495888
0.939834 0.915709 0.588037
0.970871 0.924117 0.655756
0.988556 0.93167 0.707408
0.698833 0.945525 0.470344
0.752834 0.944335 0.495445
0.787823 0.944015 0.516899
0.833799 0.944091 0.552972
0.883482 0.946303 0.607874
0.926619 0.950393 0.678248
0.958633 0.954253 0.760464
0.981918 0.963668 0.816114
0.995911 0.971939 0.853712
0 0 0.333288
0 0 0.347646
0.139025 0 0.382437
0.314473 0 0.31577
0.4421 0 0.217472
0.502419 0 0.123461
0.504005 0 0.0710155
0.460685 0 0.0781262
0.394354 0.0353857 0.110094
0 0 0.339345
0 0 0.353307
0.144579 0 0.376791
0.318074 0 0.306905
0.444938 0 0.20647
0.503532 0 0.111391
0.503822 0 0.061738
0.459648 0 0.0716716
0.392477 0.0352331 0.106615
0 0.137606 0.353368
0 0.140322 0.376745
0.153674 0.142061 0.441688
0.434119 0.109728 0.398657
0.660716 0.0648356 0.293919
0.768063 0.0122225 0.201022
0.752377 0 0.11458
0.458289 0 0.0655528
0.390372 0.0351568 0.103243
0 0.323903 0.276143
0 0.341253 0.289815
0.111574 0.379995 0.316533
0.391012 0.363806 0.30193
0.662745 0.347387 0.246281
0.81944 0.352392 0.231388
0.902419 0.360006 0.250401
0.937514 0.33518 0.262425
0.909499 0.229252 0.219547
0 0.512947 0.22533
0 0.551003 0.225452
0.162997 0.594751 0.229892
0.389425 0.593545 0.230838
0.636942 0.574441 0.218173
0.817578 0.570275 0.167391
0.922728 0.576104 0.191562
0.982589 0.582177 0.243961
1 0.577417 0.290852
0.108095 0.650935 0.127062
0.193332 0.703822 0.128237
0.32549 0.72755 0.138796
0.495781 0.729778 0.145083
0.664179 0.728099 0.130907
0.802121 0.727535 0.148302
0.898238 0.735302 0.139467
0.957717 0.744137 0.185779
0.991485 0.749493 0.239307
0.226139 0.77261 0.210971
0.387167 0.828779 0.206271
0.49514 0.835981 0.211185
0.623056 0.837064 0.217273
0.7449 0.837736 0.22649
0.84303 0.837873 0.295171
0.916167 0.844724 0.337194
0.962921 0.8533 0.39559
0.988815 0.860166 0.45153
0.469627 0.907912 0.322255
0.593515 0.911849 0.335729
0.66305 0.911223 0.348547
0.745724 0.910124 0.372763
0.826902 0.910826 0.41619
0.892256 0.912612 0.494514
0.939635 0.915511 0.58706
0.970855 0.92398 0.654932
0.988571 0.931533 0.706935
0.693095 0.945602 0.467933
0.749172 0.944396 0.493492
0.78558 0.943954 0.515175
0.832425 0.94406 0.55169
0.882994 0.946227 0.606989
0.92639 0.950378 0.677684
0.958541 0.954223 0.76022
0.981888 0.963653 0.816022
0.995911 0.971939 0.853712
0 0 0.38735
0 0 0.38735
0.0937667 0 0.474189
0.26331 0 0.432578
0.393835 0 0.360494
0.470298 0 0.275029
0.491432 0 0.208148
0.464073 0 0.175509
0.409934 0.0447089 0.17116
0 0 0.386481
0 0 0.386481
0.0970169 0 0.472511
0.265446 0 0.429999
0.395438 0 0.357382
0.471611 0 0.271321
0.49218 0 0.204791
0.464317 0 0.172885
0.409842 0.0442817 0.169375
0 0.0969253 0.486534
0 0.0944533 0.486366
0.125887 0.097734 0.619837
0.385306 0.0686809 0.603555
0.594705 0.0438239 0.538796
0.695552 0.0322881 0.435096
0.61059 0 0.263294
0.464546 0 0.17023
0.409689 0.0438849 0.167895
0 0.301839 0.460822
0 0.300664 0.460975
0.102541 0.350484 0.575418
0.367666 0.341787 0.597421
0.652018 0.322972 0.564538
0.838117 0.314336 0.514794
0.936538 0.302495 0.485588
0.96936 0.270787 0.460822
0.905409 0.179416 0.390646
0 0.50692 0.442725
0 0.520424 0.453162
0.122606 0.587488 0.50106
0.338064 0.598291 0.502281
0.618387 0.577554 0.484916
0.815625 0.574716 0.46511
0.925063 0.583841 0.477989
0.986679 0.591791 0.50248
1 0.588098 0.523705
0.0434882 0.687617 0.45304
0.0865949 0.728969 0.463203
0.221546 0.770459 0.466697
0.419623 0.774609 0.460899
0.640467 0.759884 0.456733
0.808728 0.750362 0.474067
0.916655 0.755093 0.489418
0.978195 0.763165 0.524544
1 0.769024 0.5561
0.144488 0.818921 0.382864
0.297215 0.868849 0.378042
0.428748 0.875517 0.382315
0.584894 0.869551 0.392569
0.731334 0.861814 0.411246
0.842496 0.858686 0.461311
0.920272 0.861051 0.523247
0.96759 0.869032 0.576562
0.993606 0.876295 0.622065
0.435157 0.903822 0.319783
0.576196 0.911345 0.332555
0.652186 0.910918 0.345418
0.74023 0.909865 0.369833
0.824338 0.91043 0.413306
0.891157 0.91223 0.491875
0.939223 0.915084 0.58497
0.970825 0.923659 0.653498
0.988617 0.931258 0.705715
0.679454 0.945907 0.463127
0.741238 0.944549 0.489189
0.779965 0.944015 0.511528
0.829587 0.943938 0.549081
0.881651 0.946136 0.605219
0.925872 0.950347 0.676463
0.958358 0.954192 0.759686
0.981796 0.963607 0.815808
0.995911 0.971939 0.853712
0 0 0.391333
0 0 0.391333
0.0373693 0 0.485924
0.204807 0 0.498054
0.341985 0 0.441169
0.424338 0 0.374502
0.456458 0 0.303212
0.443732 0.0240635 0.253346
0.401556 0.0635538 0.227802
0 0 0.391623
0 0 0.391623
0.0400397 0 0.487739
0.206394 0 0.497292
0.343038 0 0.440162
0.424872 0 0.373556
0.457023 0 0.302312
0.444129 0.0237278 0.252399
0.40177 0.0632792 0.227222
0 0.00535592 0.457206
0 0.00215152 0.451789
0.0559091 0 0.573007
0.248554 0 0.575692
0.378012 0 0.479347
0.425467 0 0.372595
0.457603 0 0.301213
0.444526 0.0233768 0.251438
0.401968 0.0629892 0.226612
0 0.259541 0.573251
0 0.258244 0.572976
0.0732891 0.29456 0.703868
0.340383 0.294728 0.76849
0.625406 0.273182 0.755703
0.804837 0.266941 0.728573
0.899092 0.272023 0.68159
0.917632 0.229999 0.614801
0.724178 0.101457 0.401953
0.00349432 0.489342 0.584466
0.00337224 0.488777 0.584375
0.0978561 0.555428 0.678248
0.322744 0.576669 0.720928
0.595926 0.5626 0.720424
0.804105 0.559106 0.70251
0.93228 0.563317 0.686427
1 0.564324 0.683314
1 0.552834 0.683406
0.0702525 0.683909 0.621088
0.0701305 0.68368 0.620996
0.193484 0.756863 0.678599
0.385 0.772 0.686229
0.599603 0.764736 0.675776
0.789883 0.753628 0.673579
0.904524 0.759289 0.677028
0.967681 0.768841 0.69337
1 0.775677 0.709529
0.160998 0.829618 0.661128
0.21738 0.864347 0.678691
0.357183 0.886412 0.687785
0.524498 0.885634 0.686534
0.693263 0.876799 0.692821
0.824567 0.872465 0.708873
0.908293 0.874342 0.742611
0.959136 0.883192 0.768078
0.986587 0.891325 0.791119
0.281498 0.928328 0.650629
0.477272 0.948287 0.664942
0.578927 0.945602 0.674205
0.702205 0.937209 0.695567
0.807385 0.93283 0.725383
0.88539 0.934844 0.762844
0.937148 0.939376 0.811307
0.97055 0.947784 0.848798
0.989624 0.956115 0.874342
0.645228 0.946456 0.451911
0.722423 0.9449 0.480171
0.767727 0.944259 0.503883
0.82298 0.944045 0.54345
0.878614 0.945922 0.601785
0.924788 0.950271 0.673915
0.957946 0.954116 0.758556
0.981628 0.963516 0.815381
0.995911 0.971939 0.853712
0 0 0.348638
0 0 0.348638
0 0 0.348638
0.13727 0 0.506065
0.282734 0 0.479774
0.374762 0 0.421881
0.413153 0.00320439 0.362173
0.408667 0.0463874 0.304402
0.376272 0.0849928 0.267369
0 0 0.348974
0 0 0.348974
0 0 0.348989
0.138552 0 0.506371
0.283406 0 0.47953
0.375235 0 0.421592
0.413474 0.00320439 0.361868
0.408942 0.0462654 0.304097
0.376486 0.0848554 0.267155
0 0 0.349447
0 0 0.349447
0 0 0.349447
0.13994 0 0.50663
0.284138 0 0.479271
0.375692 0 0.421332
0.413779 0.00323491 0.361593
0.409216 0.0461433 0.303807
0.376715 0.0847028 0.266926
0.00418097 0.159304 0.58819
0.00393683 0.157443 0.587076
0.0037232 0.15555 0.585992
0.267597 0.174838 0.814923
0.548455 0.151293 0.812131
0.71487 0.134905 0.771664
0.758038 0.106752 0.686366
0.475257 0.0512551 0.350561
0.377203 0.0843824 0.266468
0.0331121 0.450492 0.663233
0.0329747 0.449821 0.663127
0.0332341 0.45008 0.664714
0.281804 0.533471 0.83801
0.575235 0.524346 0.855482
0.794568 0.517723 0.850706
0.920333 0.523934 0.842054
0.992874 0.529335 0.826169
1 0.513115 0.813916
0.100008 0.670726 0.717342
0.099855 0.670497 0.717235
0.121187 0.70042 0.751461
0.34873 0.757046 0.819898
0.584237 0.753048 0.820676
0.773556 0.74638 0.816373
0.895491 0.751766 0.808835
0.968353 0.75967 0.807141
1 0.764706 0.81004
0.190127 0.826581 0.772427
0.190066 0.826505 0.772396
0.287953 0.871885 0.811246
0.496468 0.882261 0.819577
0.675105 0.877638 0.817044
0.806806 0.876814 0.821149
0.900481 0.879103 0.833875
0.953201 0.88838 0.846479
0.981277 0.897017 0.859754
0.30425 0.922927 0.810636
0.387747 0.941314 0.825727
0.544427 0.945632 0.833585
0.685496 0.942245 0.839246
0.796902 0.941329 0.85124
0.880964 0.943404 0.871199
0.937133 0.95021 0.892592
0.971405 0.958541 0.916686
0.991104 0.966934 0.931762
0.54284 0.972656 0.828458
0.68394 0.970138 0.841657
0.748852 0.969009 0.851286
0.818631 0.969268 0.866789
0.884291 0.971267 0.889067
0.935821 0.976761 0.914092
0.971786 0.985473 0.938338
0.994995 0.994095 0.962402
1 1 0.977386
0 0 0.274571
0 0 0.274571
0 0 0.274571
0.0442969 0 0.406531
0.21915 0 0.477516
0.321614 0 0.435721
0.368032 0.0233616 0.380591
0.36968 0.059678 0.328954
0.343771 0.102007 0.286244
0 0 0.274937
0 0 0.274937
0 0 0.274922
0.0458534 0 0.409216
0.219745 0 0.477546
0.321935 0 0.435691
0.368261 0.0232853 0.380545
0.369833 0.0596017 0.328908
0.343908 0.101946 0.286183
0 0 0.275288
0 0 0.275288
0 0 0.275288
0.0474708 0 0.411322
0.220371 0 0.477607
0.322271 0 0.435645
0.36846 0.023209 0.380468
0.370001 0.0595254 0.328862
0.344045 0.101884 0.286137
0 0 0.276051
0 0 0.276051
0 0 0.276051
0.0509041 0 0.416602
0.221668 0 0.477699
0.322957 0 0.435538
0.368933 0.0230564 0.380346
0.370367 0.0593729 0.328786
0.344335 0.101762 0.28603
0.0576333 0.361715 0.679683
0.0574807 0.360769 0.679347
0.0573281 0.359823 0.679026
0.163348 0.418982 0.848371
0.526543 0.428687 0.924956
0.771878 0.421195 0.927764
0.906126 0.421088 0.920394
0.972625 0.40943 0.903639
0.983993 0.369345 0.859159
0.127016 0.642084 0.767712
0.126909 0.641794 0.767605
0.126802 0.641505 0.767498
0.249226 0.717708 0.875837
0.54757 0.729259 0.904952
0.760937 0.723964 0.903212
0.889891 0.727901 0.899718
0.961868 0.738064 0.89427
1 0.744274 0.889601
0.217029 0.816922 0.833173
0.216983 0.816846 0.833143
0.216922 0.816785 0.833112
0.410437 0.872999 0.891691
0.650172 0.871992 0.891112
0.798886 0.871824 0.890196
0.892607 0.877302 0.894606
0.949966 0.886519 0.897292
0.981964 0.894972 0.902785
0.335164 0.91902 0.875776
0.335119 0.91899 0.875746
0.349477 0.924086 0.880491
0.637705 0.940993 0.899626
0.787594 0.940642 0.904753
0.877272 0.945846 0.916213
0.935103 0.953445 0.93051
0.971283 0.962539 0.945144
0.991653 0.971374 0.95639
0.465385 0.963638 0.89395
0.511162 0.967758 0.898955
0.694621 0.969558 0.909468
0.810025 0.970459 0.920424
0.887266 0.975341 0.935515
0.939605 0.983307 0.952743
0.976455 0.992309 0.970428
1 1 0.985718
1 1 0.998611
0 0 0.226596
0 0 0.226596
0 0 0.226596
0 0 0.226596
0.157565 0 0.453468
0.286152 0.00750744 0.434241
0.340993 0.0341192 0.381918
0.347448 0.0707408 0.330861
0.324941 0.110063 0.289403
0 0 0.226596
0 0 0.226596
0 0 0.226596
0 0 0.226596
0.158206 0 0.453605
0.28629 0.00753796 0.434165
0.341024 0.0341497 0.381872
0.347433 0.0707713 0.330831
0.324926 0.110063 0.289387
0 0 0.226596
0 0 0.226596
0 0 0.226596
0 0 0.226596
0.158846 0 0.453758
0.286442 0.00758373 0.434089
0.341039 0.0341802 0.381811
0.347433 0.0707866 0.3308
0.324926 0.110079 0.289372
0 0 0.226596
0 0 0.226596
0 0 0.226596
0 0 0.226596
0.160204 0 0.454047
0.286748 0.00764477 0.433906
0.3411 0.0342412 0.381704
0.347417 0.0708324 0.330739
0.324895 0.110124 0.289342
0.0405127 0.133135 0.515908
0.0400702 0.131044 0.51313
0.0394751 0.129 0.510124
0.0387579 0.124712 0.504509
0.347173 0.134569 0.823514
0.582208 0.109026 0.794476
0.588693 0.0731975 0.648524
0.347402 0.0709239 0.330632
0.324834 0.110185 0.289265
0.133562 0.58761 0.77232
0.133379 0.587259 0.772137
0.133196 0.586908 0.771939
0.132815 0.58616 0.771511
0.457603 0.680186 0.938796
0.737453 0.675288 0.945251
0.887022 0.67921 0.943206
0.966949 0.686 0.939559
1 0.689326 0.934798
0.229496 0.800351 0.856168
0.229404 0.800244 0.856123
0.229343 0.800137 0.856062
0.229175 0.799908 0.855955
0.58233 0.861357 0.926925
0.779248 0.860609 0.923156
0.885863 0.866575 0.924041
0.944686 0.876371 0.925307
0.978027 0.88603 0.925704
0.352453 0.912749 0.90544
0.352392 0.912718 0.905425
0.352331 0.912688 0.905425
0.419196 0.929747 0.922301
0.751675 0.937163 0.930877
0.868315 0.943099 0.938033
0.931273 0.952483 0.94844
0.9691 0.962386 0.959167
0.990265 0.971649 0.968093
0.500221 0.961273 0.928634
0.500221 0.961273 0.928634
0.500221 0.961273 0.928634
0.739483 0.968902 0.941726
0.87834 0.975525 0.955795
0.941512 0.985428 0.970764
0.978714 0.996078 0.985367
1 1 0.998642
1 1 1
