luts/Cliff-SLog2.cube
TITLE "Generated by Resolve"
LUT_3D_SIZE 5
0 0 0
0.19411 0 0
0.369467 0 0
0.334691 7.62951e-05 0
0.154757 0.0831311 0.0756847
0 0.155306 0
0.181079 0.152514 0
0.525292 0.131823 0
0.669947 0.182239 0
0.656703 0.2636 0.03093
0 0.437201 0
0.200595 0.500542 0.00451667
0.566567 0.50309 0
0.822766 0.531685 0
0.923903 0.584543 0.0319524
0.198886 0.740291 0.181201
0.398184 0.805432 0.182483
0.692241 0.812268 0.190631
0.896757 0.820768 0.275959
0.988602 0.845075 0.407431
0.419577 0.929259 0.419181
0.650797 0.94638 0.453559
0.84889 0.944381 0.567864
0.95024 0.952956 0.737881
0.995911 0.971939 0.853712
0 0 0.196612
0.195285 0 0.181735
0.455467 0 0
0.480156 0 0
0.329503 0.0430304 0.0577096
0 0.159121 0.148974
0.173327 0.167956 0.156008
0.618997 0.149325 0
0.801785 0.196338 0
0.831525 0.269154 0.111696
0 0.471565 0.12372
0.165515 0.546532 0.132662
0.598291 0.531746 0.114458
0.89427 0.547845 0.0207065
1 0.598321 0.198962
0.139025 0.783825 0.320912
0.350469 0.846693 0.315221
0.682124 0.838773 0.332784
0.905455 0.837461 0.431128
0.996292 0.859724 0.557687
0.367468 0.958709 0.567468
0.63331 0.963699 0.614359
0.848859 0.95584 0.712016
0.954833 0.966766 0.827176
1 0.984863 0.913893
0 0 0.371572
0.139406 0 0.441459
0.400763 0 0.322026
0.501305 0 0.166415
0.406714 0.0395819 0.145998
0 0.146151 0.449195
0.162737 0.160418 0.578424
0.621866 0.137499 0.506859
0.871702 0.139666 0.387137
0.93901 0.213077 0.365682
0 0.476967 0.417853
0.130114 0.559304 0.47686
0.589624 0.54963 0.458488
0.912505 0.568017 0.445075
1 0.619745 0.506142
0.124025 0.8 0.554742
0.302586 0.864485 0.566751
0.656168 0.854444 0.573999
0.897581 0.849714 0.637385
0.991424 0.873686 0.718578
0.389242 0.965606 0.736309
0.638712 0.97116 0.766888
0.853941 0.964874 0.828443
0.96054 0.977554 0.899275
1 0.996292 0.957519
0 0 0.372229
0.0972915 0 0.506401
0.310552 0 0.467552
0.430045 0 0.349233
0.388724 0.0755779 0.252659
0 0.146304 0.577554
0.170748 0.168933 0.775097
0.574456 0.150942 0.786221
0.837873 0.189776 0.733394
0.937133 0.270146 0.671321
0.0248722 0.477333 0.643565
0.177081 0.556817 0.77969
0.580087 0.558709 0.813596
0.90576 0.575555 0.792294
1 0.623697 0.775967
0.168948 0.804562 0.750896
0.336263 0.864149 0.800717
0.64715 0.863005 0.799146
0.886915 0.863005 0.812451
0.982254 0.888228 0.845685
0.439033 0.964904 0.85832
0.680583 0.970153 0.877638
0.867933 0.972534 0.9084
0.968002 0.987045 0.951598
1 1 0.988571
0 0 0.226596
0.0767987 0 0.405417
0.229526 0 0.453696
0.341451 0.0346685 0.381003
0.323476 0.111971 0.287633
0.0453956 0.157076 0.545159
0.189029 0.187823 0.811536
0.528603 0.187549 0.876356
0.803754 0.216983 0.863203
0.918791 0.285908 0.832654
0.104387 0.480339 0.73286
0.239933 0.56231 0.900969
0.592981 0.575341 0.951736
0.895827 0.590219 0.95375
1 0.638056 0.941482
0.233005 0.80592 0.858686
0.392874 0.862196 0.922881
0.677623 0.864836 0.924498
0.886244 0.87332 0.924254
0.978531 0.899123 0.929015
0.500221 0.961273 0.928649
0.725155 0.968887 0.941344
0.890242 0.976822 0.957809
0.975967 0.995254 0.9841
1 1 1
