luts/Cliff-CLog3.cube
TITLE "Generated by Resolve"
LUT_3D_SIZE 33
0 0 0
0 0 0
0 0 0
0 0 0
0.0307622 0 0
0.0764935 0 0
0.118944 0 0
0.158328 0 0
0.196429 0 0
0.232563 0 0
0.265324 0 0
0.294148 0 0
0.31873 0 0
0.339101 0 0
0.355016 0 0
0.3664 0 0
0.373632 0 0
0.376989 0 0
0.377676 0.000274662 0
0.375311 0.000488289 0
0.369955 0.000549325 0
0.361761 0.000518807 0
0.351034 0.00047303 0
0.338857 0.000228885 0
0.322683 0.00561532 0
0.302968 0.015259 0
0.281651 0.0252384 0
0.25951 0.0355688 0.00708019
0.236774 0.0457771 0.0226291
0.214435 0.055848 0.037705
0.192554 0.0659037 0.0523079
0.171511 0.075227 0.0654154
0.154757 0.0831311 0.0756847
0 0 0
0 0 0
0 0 0
0 0 0
0.0325017 0 0
0.0780499 0 0
0.120119 0 0
0.159274 0 0
0.197208 0 0
0.233158 0 0
0.265766 0 0
0.294438 0 0
0.318929 0 0
0.339239 0 0
0.355077 0 0
0.366445 0 0
0.373663 0 0
0.377005 0 0
0.377676 0.000274662 0
0.375311 0.000488289 0
0.36994 0.000549325 0
0.36173 0.000518807 0
0.351034 0.00047303 0
0.338842 0.000228885 0
0.322652 0.00563058 0
0.302953 0.0152743 0
0.281636 0.0252537 0
0.25951 0.035584 0.00709545
0.236759 0.0457923 0.0226444
0.21442 0.055848 0.0377203
0.192523 0.0659037 0.0523232
0.171511 0.0752422 0.0654154
0.154757 0.0831311 0.0756847
0 0 0
0 0 0
0 0 0
0 0 0
0.0339971 0 0
0.0793317 0 0
0.121141 0 0
0.160037 0 0
0.197848 0 0
0.233585 0 0
0.266117 0 0
0.294697 0 0
0.319097 0 0
0.339361 0 0
0.355138 0 0
0.366476 0 0
0.373663 0 0
0.377005 0 0
0.377676 0.000274662 0
0.375296 0.000488289 0
0.36994 0.000549325 0
0.36173 0.000518807 0
0.351003 0.00047303 0
0.338827 0.000228885 0
0.322652 0.00564584 0
0.302937 0.0152743 0
0.281621 0.0252537 0
0.259495 0.035584 0.00709545
0.236744 0.0457923 0.0226444
0.214405 0.0558633 0.0377203
0.192523 0.0659037 0.0523232
0.171496 0.0752422 0.0654307
0.154757 0.0831311 0.0756847
0 0 0
0 0 0
0 0 0
0 0 0
0.029633 0 0
0.0735943 0 0
0.116487 0 0
0.159182 0 0
0.200153 0 0
0.237995 0 0
0.271519 0 0
0.300328 0 0
0.323491 0 0
0.341024 0 0
0.355184 0 0
0.366506 0 0
0.373693 0 0
0.37702 0 0
0.377676 0.000274662 0
0.37528 0.000488289 0
0.369924 0.000549325 0
0.361715 0.000518807 0
0.350988 0.00047303 0
0.338811 0.000228885 0
0.322637 0.00564584 0
0.302922 0.0152895 0
0.281605 0.0252689 0
0.259464 0.035584 0.0071107
0.236728 0.0458076 0.0226596
0.214389 0.0558633 0.0377203
0.192523 0.065919 0.0523232
0.171496 0.0752422 0.0654307
0.154757 0.0831311 0.0756847
0 0.0349279 0
0 0.0337835 0
0 0.0328374 0
0 0.03093 0
0.0243687 0.0251469 0
0.0728466 0.0191653 0
0.115724 0.0159457 0
0.160571 0.0142672 0
0.205615 0.0139162 0
0.24889 0.0146334 0
0.289097 0.0163577 0
0.324773 0.0184787 0
0.355245 0.0209201 0
0.380987 0.021088 0
0.400961 0.0191043 0
0.414405 0.0167697 0
0.420859 0.0139467 0
0.419364 0.0107424 0
0.409522 0.00703441 0
0.38938 0.0030518 0
0.369924 0.000549325 0
0.361715 0.000518807 0
0.350988 0.00047303 0
0.338796 0.000228885 0
0.322621 0.0056611 0
0.302907 0.0152895 0
0.281605 0.0252689 0
0.259449 0.0355993 0.0071107
0.236713 0.0458076 0.0226596
0.214389 0.0558633 0.0377356
0.192508 0.065919 0.0523232
0.171481 0.0752422 0.0654307
0.154757 0.0831311 0.0756847
0 0.0702678 0
0 0.0693828 0
0 0.0686961 0
0 0.0670787 0
0.0148165 0.0632334 0
0.06598 0.0578164 0
0.111528 0.051667 0
0.15552 0.0482185 0
0.200809 0.0473793 0
0.24625 0.0484474 0
0.290669 0.0507973 0
0.333837 0.0500343 0
0.373159 0.0488746 0
0.406958 0.0473487 0
0.435508 0.0453498 0
0.457832 0.0428931 0
0.473869 0.039765 0
0.483497 0.0359503 0
0.484993 0.0311437 0
0.476463 0.0251926 0
0.45597 0.0182498 0
0.422965 0.0109102 0
0.375311 0.00366217 0
0.338796 0.000213626 0
0.322606 0.0056611 0
0.302892 0.0153048 0
0.28159 0.0252689 0
0.259449 0.0355993 0.00712596
0.236698 0.0458076 0.0226749
0.214374 0.0558633 0.0377356
0.192493 0.065919 0.0523384
0.171466 0.0752575 0.0654459
0.154757 0.0831311 0.0756847
0 0.10251 0
0 0.101823 0
0 0.101228 0
0 0.100649 0
0.00787366 0.099321 0
0.0565042 0.0962997 0
0.104875 0.0905318 0
0.150195 0.0841535 0
0.195407 0.0806592 0
0.242618 0.0800946 0
0.29163 0.0787976 0
0.338613 0.0774243 0
0.381826 0.0760967 0
0.420996 0.0745098 0
0.45481 0.0724956 0
0.483589 0.0701152 0
0.506691 0.067216 0
0.524041 0.0637522 0
0.535332 0.0594186 0
0.53962 0.0540322 0
0.53576 0.0473945 0
0.521782 0.0391852 0
0.492363 0.0324254 0
0.441321 0.0238193 0
0.369574 0.0161135 0
0.302876 0.0153048 0
0.281575 0.0252842 0
0.259434 0.0356146 0.00712596
0.236698 0.0458076 0.0226749
0.214359 0.0558785 0.0377356
0.192493 0.065919 0.0523384
0.171466 0.0752575 0.0654459
0.154757 0.0831311 0.0756847
0 0.135409 0
0 0.134783 0
0 0.134264 0
0 0.134981 0
0.0024567 0.136675 0
0.0500954 0.135653 0
0.0968032 0.132631 0
0.144091 0.126772 0
0.193362 0.120378 0
0.242512 0.115404 0
0.291997 0.11162 0
0.34052 0.108675 0
0.386511 0.106325 0
0.429175 0.104128 0
0.467643 0.101961 0
0.50074 0.0996567 0
0.529458 0.0970932 0
0.552438 0.0940414 0
0.570565 0.0903944 0
0.582086 0.0890059 0
0.586801 0.0882429 0
0.584405 0.0863508 0
0.573663 0.0826734 0
0.550973 0.0762646 0
0.511971 0.0670176 0
0.44564 0.0538643 0
0.345251 0.0396429 0
0.259419 0.0356146 0.00714122
0.236683 0.0458228 0.0226902
0.214343 0.0558785 0.0377508
0.192477 0.0659342 0.0523537
0.17145 0.0752575 0.0654459
0.154757 0.0831311 0.0756847
0 0.169223 0
0 0.168719 0
0 0.168276 0
0 0.170489 0
0 0.175113 0
0.0459449 0.175952 0
0.0922866 0.174426 0
0.136446 0.171328 0
0.187472 0.165881 0
0.242206 0.159121 0
0.293904 0.15227 0
0.343587 0.146883 0
0.391546 0.142672 0
0.436805 0.139406 0
0.477897 0.136431 0
0.514443 0.133822 0
0.546395 0.132525 0
0.572625 0.132799 0
0.594415 0.133593 0
0.610941 0.134203 0
0.622248 0.134157 0
0.628077 0.133516 0
0.627894 0.131731 0
0.619837 0.128099 0
0.602655 0.122179 0
0.572045 0.113405 0
0.521691 0.100801 0
0.438514 0.0839094 0
0.307362 0.0618753 0.0168917
0.214328 0.0558938 0.0377661
0.192462 0.0659342 0.0523537
0.17145 0.0752575 0.0654612
0.154757 0.0831311 0.0756847
0 0.204288 0
0 0.20383 0
0 0.203449 0
0 0.207431 0
0 0.214496 0
0.0444038 0.217517 0
0.0899825 0.217243 0
0.13312 0.215412 0
0.179644 0.212467 0
0.232959 0.206867 0
0.288502 0.20116 0
0.342565 0.194858 0
0.393256 0.189212 0
0.440787 0.184695 0
0.483803 0.181704 0
0.522911 0.180285 0
0.557168 0.17966 0
0.587289 0.180011 0
0.612665 0.18088 0
0.633555 0.181979 0
0.649821 0.182666 0
0.661433 0.183078 0
0.667872 0.182605 0
0.668879 0.180758 0
0.663325 0.177081 0
0.650034 0.171328 0
0.626245 0.162539 0
0.587747 0.150576 0
0.525887 0.133669 0
0.425498 0.111635 0.0151369
0.266773 0.0843977 0.0518044
0.171435 0.0752728 0.0654612
0.154757 0.0831311 0.0756847
0 0.24036 0
0 0.239979 0
0 0.239643 0
0 0.245899 0
0.000701915 0.25536 0
0.0456703 0.259831 0
0.090898 0.261402 0
0.132525 0.261006 0
0.177768 0.259113 0
0.227008 0.256168 0
0.281804 0.250721 0
0.337682 0.245731 0
0.391623 0.240757 0
0.441444 0.236332 0
0.487312 0.232959 0
0.528908 0.230762 0
0.566155 0.229969 0
0.598932 0.230167 0
0.627298 0.230884 0
0.65182 0.232349 0
0.671489 0.233555 0
0.687617 0.234745 0
0.69929 0.235355 0
0.706371 0.235019 0
0.708629 0.233295 0
0.705501 0.229709 0
0.695399 0.224125 0
0.676921 0.215564 0
0.647898 0.204196 0
0.602365 0.188708 0
0.531853 0.168429 0.0130312
0.420417 0.142794 0.0544594
0.247974 0.107576 0.0829328
0 0.277485 0
0 0.27718 0
0 0.27689 0
0 0.285527 0
0.00596628 0.297292 0
0.0505989 0.303471 0
0.0950942 0.306569 0
0.135256 0.307469 0
0.178851 0.306783 0
0.226993 0.304799 0
0.277806 0.302205 0
0.333227 0.297154 0
0.3888 0.293126 0
0.441428 0.289296 0
0.490013 0.286183 0
0.534203 0.283879 0
0.57377 0.282673 0
0.608972 0.282689 0
0.64007 0.283558 0
0.666758 0.284794 0
0.689952 0.286687 0
0.708965 0.288106 0
0.724498 0.289555 0
0.73611 0.290333 0
0.74377 0.29012 0
0.747219 0.288487 0
0.745602 0.285283 0
0.738521 0.279927 0
0.724971 0.272435 0
0.703243 0.261845 0
0.670451 0.247822 0
0.621897 0.230076 0.0166629
0.55227 0.20679 0.0524147
0 0.315419 0
0 0.315145 0
0 0.314916 0
0 0.326986 0
0.0163424 0.340703 0
0.0598611 0.348119 0
0.102983 0.352422 0
0.141299 0.354742 0
0.183688 0.355169 0
0.230564 0.354131 0
0.280354 0.352346 0
0.331746 0.349844 0
0.387182 0.345586 0
0.441276 0.342657 0
0.492241 0.340246 0
0.538506 0.338201 0
0.580346 0.337041 0
0.617716 0.336797 0
0.651057 0.337819 0
0.680186 0.33901 0
0.705547 0.340734 0
0.727352 0.34284 0
0.745342 0.34461 0
0.760357 0.34612 0
0.771862 0.347051 0
0.779477 0.347097 0
0.783841 0.345769 0
0.7841 0.342901 0
0.779553 0.338216 0
0.770596 0.331518 0
0.754757 0.322087 0
0.731792 0.310201 0
0.700511 0.294224 0.0227817
0 0.354849 0
0 0.354665 0
0 0.354498 0
0 0.369863 0
0.0309453 0.385275 0
0.0743114 0.393637 0
0.114244 0.398932 0
0.150805 0.402304 0
0.192279 0.4038 0
0.237873 0.403723 0
0.286687 0.402625 0
0.337026 0.40119 0
0.388266 0.398642 0
0.442618 0.395483 0
0.494331 0.393668 0
0.542718 0.392477 0
0.586343 0.391592 0
0.625559 0.391455 0
0.660456 0.392172 0
0.691524 0.393851 0
0.718868 0.395529 0
0.742809 0.39794 0
0.763073 0.399924 0
0.780667 0.402106 0
0.794461 0.403479 0
0.805798 0.404562 0
0.814145 0.404654 0
0.819028 0.403693 0
0.820478 0.401358 0
0.818555 0.397284 0
0.812634 0.391394 0
0.802747 0.383886 0
0.787717 0.373022 0.00627146
0 0.395209 0
0 0.395041 0
0 0.394888 0
0.00358587 0.414328 0
0.0513924 0.43032 0
0.0938277 0.439582 0
0.12929 0.445563 0
0.164477 0.449638 0
0.204883 0.452033 0
0.249485 0.452888 0
0.296834 0.452613 0
0.346166 0.451713 0
0.396109 0.450706 0
0.446479 0.447883 0.00273136
0.498558 0.446097 0
0.547814 0.445686 0
0.592218 0.445304 0
0.632746 0.445426 0
0.6692 0.446174 0
0.701976 0.447929 0
0.730861 0.449714 0
0.755795 0.451896 0
0.778271 0.45452 0
0.797269 0.456596 0
0.813703 0.4589 0
0.827283 0.460624 0
0.837842 0.461479 0
0.846143 0.461799 0
0.851698 0.461082 0
0.854551 0.459144 0
0.854429 0.455894 0
0.85156 0.451148 0
0.845487 0.44419 0.00030518
0 0.435904 0
0 0.435737 0
0 0.435599 0
0.029221 0.459861 0
0.0770123 0.47599 0
0.115587 0.485588 0
0.147143 0.492119 0
0.181857 0.496757 0.00115969
0.221363 0.499672 0.00643931
0.264591 0.501259 0.0111391
0.310872 0.501656 0.0140841
0.35903 0.501305 0.0142672
0.407874 0.500633 0.0105287
0.456397 0.500084 0.00242618
0.505531 0.49688 0.026566
0.554314 0.496971 0
0.599496 0.497108 0
0.640711 0.497581 0
0.677913 0.498512 0
0.711513 0.500374 0
0.741405 0.50219 0
0.767895 0.504326 0
0.791516 0.507103 0
0.811902 0.509468 0
0.829755 0.512108 0
0.844572 0.514061 0
0.857588 0.515877 0
0.86804 0.517082 0
0.875822 0.517174 0
0.881941 0.51667 0
0.885618 0.515236 0
0.887022 0.512779 0
0.885878 0.508171 0.00517281
0.0080415 0.476844 0
0.00794995 0.476707 0
0.0108492 0.47892 0
0.0605936 0.505791 0
0.106493 0.521798 0.00302129
0.138811 0.531273 0.00825513
0.168933 0.537881 0.0136568
0.203464 0.542824 0.0190585
0.242008 0.546166 0.0243229
0.28423 0.548119 0.028809
0.329198 0.548974 0.0320592
0.375921 0.549096 0.0329442
0.423514 0.548821 0.0306554
0.470832 0.548516 0.0245975
0.517159 0.548669 0.0197147
0.563577 0.545678 0.045182
0.60827 0.546273 0.0103761
0.649393 0.547158 0
0.687175 0.548287 0
0.72134 0.550271 0
0.751522 0.552224 0
0.77879 0.554345 0
0.80325 0.557168 0
0.824613 0.559655 0
0.843427 0.562448 0
0.859739 0.564797 0
0.874006 0.567056 0
0.885588 0.568505 0
0.895567 0.569741 0
0.903761 0.570245 0
0.909834 0.570047 0
0.913878 0.568841 0.00463874
0.915785 0.566415 0.0231327
0.0337987 0.517662 0.0162509
0.0337072 0.517555 0.0161593
0.0442817 0.525093 0.0158694
0.097673 0.552102 0.0196231
0.135424 0.567224 0.0248417
0.164019 0.576303 0.0296635
0.194324 0.582757 0.0345922
0.228473 0.587701 0.0396582
0.266514 0.591119 0.0446174
0.307546 0.593317 0.0491035
0.351049 0.594476 0.0522927
0.396109 0.594873 0.0535897
0.441978 0.594842 0.0521248
0.487892 0.594965 0.0476234
0.532677 0.5953 0.0399176
0.575525 0.594598 0.0498817
0.618814 0.592798 0.063386
0.659419 0.593896 0.0304875
0.697139 0.595682 0.00262455
0.731044 0.597421 0
0.761715 0.599374 0
0.789273 0.601724 0
0.814252 0.604257 0
0.835996 0.606744 0
0.85568 0.609628 0
0.872618 0.6121 0
0.887495 0.61445 0
0.900557 0.616526 0
0.911711 0.61828 0
0.920729 0.619165 0
0.928481 0.619821 0.0155947
0.9346 0.619852 0.0363622
0.938354 0.618402 0.053315
0.0625315 0.558022 0.0410925
0.0624399 0.557931 0.0410315
0.0844434 0.572396 0.0413367
0.132738 0.598062 0.0452583
0.164416 0.611704 0.0496986
0.193378 0.620066 0.0542458
0.223621 0.626154 0.0586099
0.257115 0.630869 0.0632639
0.294102 0.634165 0.0677348
0.333761 0.636378 0.071809
0.375692 0.637675 0.074815
0.419364 0.638193 0.0762036
0.463737 0.638758 0.0756695
0.50782 0.638712 0.0717327
0.550805 0.63888 0.0649882
0.592081 0.63946 0.0559396
0.631876 0.638025 0.0859083
0.671778 0.637949 0.0849165
0.708278 0.63946 0.054139
0.741756 0.641138 0.0289769
0.772213 0.643183 0.00909438
0.799741 0.645777 0
0.824613 0.648249 0
0.846555 0.650736 0
0.866529 0.653529 0
0.883909 0.65594 0
0.899519 0.658412 0
0.913115 0.660655 0.00972
0.92488 0.662821 0.0254215
0.934844 0.664164 0.0423133
0.943435 0.665415 0.062089
0.950576 0.666194 0.0828565
0.955459 0.66566 0.0981003
0.0944076 0.59765 0.0693675
0.0943618 0.597589 0.0693217
0.124788 0.619959 0.0695048
0.165942 0.64303 0.0732128
0.197482 0.654765 0.0773632
0.226291 0.662104 0.0816968
0.256062 0.667552 0.0855268
0.289067 0.671778 0.0894484
0.324773 0.674922 0.0932326
0.363241 0.67689 0.0964828
0.4038 0.678004 0.0987869
0.445502 0.67895 0.10013
0.487984 0.679347 0.0993973
0.530098 0.679469 0.0963302
0.570855 0.679774 0.0910506
0.610376 0.680262 0.0831464
0.648112 0.680735 0.0859846
0.68513 0.67921 0.121004
0.720577 0.680125 0.107774
0.753353 0.681819 0.0843671
0.783185 0.683925 0.0644083
0.810391 0.686305 0.0504463
0.834958 0.68864 0.0413214
0.856886 0.691127 0.037995
0.876799 0.693965 0.0395209
0.894087 0.696391 0.0455177
0.909667 0.699031 0.0563363
0.923201 0.701198 0.0690166
0.935256 0.703487 0.0865339
0.94548 0.705135 0.10396
0.954635 0.706767 0.121248
0.962203 0.707759 0.137255
0.967346 0.707897 0.149187
0.123522 0.636408 0.0990311
0.123491 0.636347 0.0990005
0.162753 0.66714 0.0988632
0.202808 0.686107 0.102052
0.234028 0.695705 0.105272
0.262638 0.702098 0.1084
0.291829 0.706645 0.111299
0.323735 0.710246 0.114183
0.358236 0.712993 0.116991
0.395117 0.714824 0.119402
0.434287 0.716213 0.121355
0.473945 0.716716 0.121813
0.513878 0.717021 0.120745
0.553765 0.71725 0.118471
0.592859 0.717571 0.114519
0.630854 0.718456 0.109407
0.666621 0.719265 0.102785
0.700496 0.718685 0.125856
0.734234 0.717342 0.151873
0.765957 0.719127 0.134768
0.795071 0.721447 0.121065
0.821378 0.723476 0.110307
0.844785 0.725734 0.104585
0.866606 0.728389 0.103517
0.885695 0.730892 0.106813
0.902876 0.733333 0.113756
0.918395 0.735973 0.124437
0.931838 0.738109 0.136767
0.943664 0.740459 0.150912
0.95378 0.742245 0.165148
0.962951 0.744091 0.179416
0.970596 0.745449 0.193362
0.975982 0.745983 0.203952
0.149615 0.673304 0.125811
0.155077 0.679133 0.125475
0.204456 0.711772 0.12546
0.243961 0.726604 0.128084
0.274388 0.734249 0.130205
0.302113 0.739559 0.13254
0.330327 0.743267 0.134859
0.361028 0.746166 0.13698
0.393942 0.748318 0.13901
0.429343 0.750179 0.141146
0.466102 0.75108 0.142504
0.503655 0.751598 0.142947
0.541588 0.751797 0.142229
0.57911 0.751934 0.140581
0.616312 0.752575 0.138155
0.652033 0.753124 0.134737
0.686061 0.753933 0.130999
0.718151 0.754345 0.137774
0.749172 0.75346 0.16759
0.779355 0.753353 0.178882
0.806806 0.755322 0.16965
0.832227 0.757336 0.163348
0.855116 0.759869 0.161578
0.875776 0.76202 0.162753
0.894286 0.764263 0.16733
0.91104 0.766918 0.175845
0.925612 0.769299 0.18616
0.93875 0.771527 0.197711
0.950179 0.773953 0.211688
0.96022 0.77586 0.224979
0.969207 0.777707 0.238819
0.976791 0.779416 0.252476
0.981979 0.779995 0.262058
0.17467 0.708949 0.153918
0.19675 0.726848 0.151919
0.250599 0.753292 0.152056
0.288014 0.764096 0.15375
0.317433 0.770092 0.155657
0.344045 0.774044 0.157275
0.370733 0.777005 0.159091
0.4 0.779309 0.160678
0.431464 0.781384 0.162539
0.464454 0.782452 0.16379
0.498863 0.783093 0.164599
0.534325 0.783413 0.165164
0.570062 0.783734 0.165042
0.605722 0.784115 0.16463
0.64033 0.784283 0.163272
0.673793 0.784634 0.16173
0.706188 0.785199 0.160281
0.737026 0.78648 0.160113
0.765332 0.785992 0.185657
0.793164 0.784772 0.213077
0.819074 0.785855 0.215
0.843381 0.788067 0.212467
0.864973 0.790188 0.213596
0.884703 0.792294 0.217929
0.902663 0.794797 0.224674
0.91812 0.797009 0.234302
0.932052 0.799191 0.245228
0.944671 0.801648 0.258152
0.95555 0.803723 0.272053
0.965438 0.805966 0.285863
0.973617 0.807782 0.299535
0.980957 0.809628 0.31313
0.986053 0.81062 0.323095
0.200412 0.742168 0.182879
0.24744 0.772702 0.178866
0.299199 0.790616 0.178973
0.334783 0.798428 0.180285
0.362814 0.80296 0.181933
0.387579 0.805722 0.182971
0.412604 0.807813 0.184024
0.440314 0.809476 0.185382
0.469947 0.810956 0.186786
0.500816 0.811765 0.187945
0.532952 0.812177 0.188769
0.566598 0.812451 0.189807
0.599878 0.812436 0.190311
0.632898 0.812543 0.190707
0.665644 0.812619 0.191028
0.697246 0.81326 0.191714
0.727016 0.813779 0.192813
0.755398 0.814542 0.194553
0.782132 0.814588 0.211429
0.807355 0.813993 0.238285
0.832059 0.813657 0.260151
0.854353 0.815412 0.26125
0.874601 0.817273 0.265278
0.893431 0.819516 0.272282
0.910002 0.821653 0.281514
0.924712 0.823865 0.292638
0.938186 0.826215 0.30573
0.949523 0.828367 0.319326
0.959854 0.830442 0.334066
0.968765 0.832486 0.348882
0.976471 0.834379 0.36318
0.983352 0.836255 0.37705
0.988174 0.837476 0.387488
0.235325 0.780056 0.210483
0.303014 0.812467 0.206027
0.35053 0.823896 0.206088
0.383291 0.829221 0.207095
0.4094 0.832242 0.208316
0.432776 0.83418 0.20943
0.456245 0.835462 0.210269
0.482048 0.836698 0.211704
0.509529 0.837232 0.213001
0.538293 0.837613 0.214405
0.568856 0.838041 0.215946
0.599374 0.838071 0.217227
0.63035 0.837858 0.218692
0.661128 0.837842 0.220478
0.691447 0.837964 0.222553
0.720455 0.838285 0.225101
0.748211 0.838834 0.228534
0.774731 0.839719 0.233387
0.799268 0.84033 0.244724
0.822507 0.839551 0.271534
0.844587 0.838819 0.297948
0.865309 0.839673 0.311254
0.884398 0.841733 0.31873
0.901488 0.84358 0.327993
0.916777 0.845472 0.339757
0.930709 0.847761 0.352972
0.942855 0.849836 0.36762
0.953506 0.851972 0.382605
0.963333 0.854154 0.39855
0.971206 0.856123 0.414298
0.978531 0.858152 0.429114
0.984573 0.8598 0.443381
0.988876 0.861067 0.453864
0.293263 0.825528 0.235508
0.360327 0.84593 0.233021
0.403891 0.852888 0.233997
0.434058 0.855894 0.235218
0.458106 0.857816 0.23653
0.479576 0.858824 0.2374
0.50164 0.859586 0.238865
0.525231 0.860197 0.240421
0.550378 0.860349 0.241947
0.577203 0.860578 0.243839
0.60441 0.860487 0.245823
0.632792 0.860197 0.248188
0.661479 0.860349 0.251041
0.689525 0.860258 0.2542
0.717205 0.860151 0.257954
0.743725 0.860441 0.262791
0.76965 0.860914 0.268818
0.793774 0.861631 0.276249
0.816495 0.862486 0.285832
0.837537 0.862181 0.312413
0.857374 0.861585 0.338979
0.876265 0.861021 0.364157
0.893614 0.862745 0.37438
0.909468 0.864866 0.386725
0.923445 0.866835 0.40061
0.935958 0.868727 0.415717
0.947204 0.870909 0.43183
0.956817 0.872908 0.448173
0.96527 0.874922 0.46479
0.972961 0.877119 0.481132
0.979416 0.878981 0.496696
0.985107 0.880949 0.511589
0.988952 0.882277 0.522042
0.360555 0.863005 0.261372
0.419791 0.873274 0.262119
0.458991 0.877028 0.264103
0.486412 0.878523 0.265415
0.508232 0.879423 0.267201
0.527611 0.879683 0.268467
0.547372 0.880171 0.270298
0.568627 0.880232 0.271931
0.591943 0.880369 0.274464
0.616037 0.88014 0.276921
0.640955 0.880064 0.280171
0.666285 0.879835 0.283528
0.691859 0.879545 0.287449
0.71751 0.879332 0.292287
0.742641 0.879683 0.298726
0.766964 0.879835 0.305699
0.790204 0.880156 0.313924
0.812131 0.88101 0.324224
0.832944 0.881758 0.335286
0.852003 0.881468 0.360189
0.870024 0.88101 0.386847
0.886732 0.880919 0.413779
0.902419 0.881544 0.432959
0.916594 0.883192 0.4477
0.929458 0.885145 0.463279
0.940719 0.887312 0.480232
0.950652 0.889342 0.497337
0.959808 0.891508 0.514626
0.967391 0.893477 0.531487
0.973877 0.89543 0.547829
0.97998 0.897475 0.563455
0.984878 0.89929 0.578012
0.988479 0.900664 0.588159
0.429007 0.890471 0.291737
0.480491 0.894835 0.294194
0.514992 0.896437 0.296742
0.539269 0.897139 0.299046
0.558404 0.897444 0.301106
0.575814 0.897673 0.302922
0.593194 0.897444 0.304906
0.612207 0.897444 0.307774
0.632334 0.897108 0.310613
