luts/Cliff-SLog3.cube
TITLE "Generated by Resolve"
LUT_3D_SIZE 33
0 0 0.00285344
0 0 0.00215152
0.00936904 0 0.000732433
0.0249027 0 0
0.0400702 0 0
0.0545357 0 0
0.0715496 0 0
0.0934615 0 0
0.119829 0 0
0.148623 0 0
0.181186 0 0
0.216327 0 0
0.252872 0 0
0.288685 0 0
0.32163 0 0
0.3505 0 0
0.373831 0 0
0.391791 0 0
0.404334 0.00062562 0
0.410559 0.00111391 0
0.411246 0.00144961 0
0.40647 0.00167849 0
0.397467 0.00151064 0
0.38407 0.00140383 0
0.363561 0.0128481 0
0.340688 0.0248264 0
0.316594 0.0366827 0
0.292378 0.048127 0.0128939
0.269093 0.058793 0.0297704
0.248081 0.068452 0.0445411
0.229465 0.0767224 0.0572976
0.213291 0.0842603 0.0677958
0.200092 0.090013 0.0767681
0 0 0
0 0 0
0.00630198 0 0
0.0217594 0 0
0.0370794 0 0
0.0509499 0 0
0.0672007 0 0
0.0885939 0 0
0.114534 0 0
0.145068 0 0
0.179828 0 0
0.217792 0 0
0.256916 0 0
0.295171 0 0
0.330541 0 0
0.361425 0.00178531 0
0.387869 0.00485237 0
0.408927 0.0056611 0
0.424063 0.0061799 0
0.433356 0.00662242 0
0.436698 0.00689708 0
0.434501 0.00677501 0
0.427375 0.00665293 0
0.415641 0.00961318 0
0.397436 0.0212253 0
0.376028 0.0331426 0
0.353079 0.0449531 0
0.329412 0.0564889 0.00817884
0.307057 0.0674754 0.0264591
0.286076 0.077409 0.0427253
0.267475 0.0861982 0.0563973
0.251347 0.0933242 0.0685283
0.237858 0.0994888 0.0788891
0 0.00598154 0
0 0.00520333 0
0.0031281 0.00360113 0
0.0180362 0.00251774 0
0.0324865 0.00202945 0
0.0465095 0.00164797 0
0.0632181 0.000900282 0
0.0853132 0 0
0.112703 0 0
0.144594 0 0
0.180728 0 0
0.220081 0 0
0.260792 0 0
0.300694 0.00257877 0
0.338033 0.00723278 0
0.372045 0.0105898 0
0.40148 0.0113527 0
0.425193 0.0120394 0
0.443183 0.0125429 0
0.454978 0.0128328 0
0.460716 0.0129549 0
0.461387 0.0129244 0
0.457008 0.0125582 0
0.446189 0.0190127 0
0.429892 0.0304875 0
0.410758 0.0424659 0
0.389471 0.0544747 0
0.367422 0.0661173 0.00268559
0.345724 0.0771038 0.0216983
0.325429 0.0872816 0.0391546
0.306828 0.0954452 0.054078
0.29102 0.102922 0.0675975
0.27747 0.109316 0.079057
0 0.0181888 0
0 0.0174258 0
0 0.0157015 0
0.0165103 0.0139162 0
0.0320134 0.0121309 0
0.0458534 0.0112459 0
0.0623026 0.0102846 0
0.084184 0.00921645 0
0.111315 0.00831617 0
0.143542 0.00755322 0
0.180438 0.00726329 0
0.22063 0.00794995 0
0.262928 0.0100252 0
0.304829 0.0136263 0
0.34464 0.0172274 0
0.381857 0.0179446 0
0.414099 0.0185855 0
0.440696 0.0191653 0
0.461128 0.0196078 0
0.475486 0.0198825 0
0.484199 0.0199741 0
0.487282 0.0197604 0
0.485008 0.0195315 0
0.475761 0.0297704 0
0.462257 0.0413825 0
0.444892 0.0532998 0
0.425589 0.0651255 0
0.405097 0.0766766 0
0.384817 0.0879988 0.0159152
0.365301 0.0973831 0.0340124
0.347768 0.105974 0.0503243
0.332143 0.113588 0.0651255
0.31928 0.120012 0.0778973
0 0.0303044 0
0 0.0293278 0
0 0.0276646 0
0.0125429 0.0261234 0
0.0295109 0.0240787 0
0.0447242 0.0224002 0
0.0617075 0.0208438 0
0.0835584 0.01944 0
0.109911 0.0181277 0
0.141833 0.0172885 0
0.178927 0.017258 0
0.219989 0.0182803 0
0.263508 0.0205386 0
0.307134 0.0242161 0
0.3505 0.0248722 0
0.390402 0.0255283 0
0.424979 0.0261234 0
0.453956 0.0266575 0
0.47689 0.0270237 0
0.493904 0.0271916 0
0.504585 0.0273442 0
0.510048 0.0271305 0
0.509773 0.0302739 0
0.502373 0.0411231 0
0.490822 0.0524758 0
0.476005 0.0642863 0
0.458625 0.0762493 0
0.439933 0.0880293 0
0.421378 0.0983749 0.00981155
0.403067 0.107759 0.0280613
0.386374 0.116503 0.0455787
0.371374 0.123934 0.0614023
0.35877 0.130495 0.0754711
0 0.0413825 0
0 0.0404059 0
0 0.0390478 0
0.00926223 0.0375219 0
0.0255741 0.0361334 0
0.0419318 0.0339361 0
0.0602426 0.031693 0
0.0826429 0.0296483 0
0.108522 0.0279088 0
0.140093 0.0269017 0
0.177081 0.0268406 0
0.21854 0.0278935 0
0.262959 0.0304875 0
0.309575 0.0319219 0
0.354803 0.0324407 0
0.396429 0.0328832 0
0.433371 0.0334478 0
0.464805 0.0338903 0
0.489662 0.0342412 0
0.508629 0.0344701 0
0.521737 0.0345617 0
0.529534 0.0343023 0
0.5299 0.04094 0
0.524849 0.0517433 0
0.515496 0.0632944 0
0.502449 0.0752728 0
0.486976 0.0872358 0
0.470359 0.0980392 0
0.45275 0.108248 0.00340276
0.436057 0.117754 0.0221256
0.420432 0.126513 0.04065
0.406806 0.134249 0.0573739
0.394522 0.140566 0.0716869
0 0.0544137 0
0 0.0533913 0
0 0.0521553 0
0.00517281 0.0507668 0
0.0215305 0.0495155 0
0.0369726 0.0481117 0
0.0569619 0.0456245 0
0.0805524 0.0428016 0
0.106706 0.0402838 0
0.137835 0.0386664 0
0.174502 0.0383307 0
0.216419 0.0394293 0
0.262943 0.0407568 0
0.311315 0.0410773 0
0.358801 0.0414893 0
0.402991 0.0419623 0
0.442359 0.0423896 0
0.475502 0.0428626 0
0.502907 0.0431067 0
0.524483 0.0432593 0
0.539727 0.0433509 0
0.549233 0.0438087 0
0.5514 0.0539559 0
0.548638 0.0650034 0
0.541436 0.0764782 0
0.530739 0.0883345 0
0.5178 0.0994736 0
0.502953 0.110246 0
0.487587 0.120378 0
0.472465 0.130068 0.0156405
0.457969 0.138506 0.0343175
0.445258 0.146136 0.051545
0.433646 0.152422 0.0664988
0 0.0708171 0
0 0.0699168 0
0 0.0691997 0
0.000564584 0.0681621 0
0.016907 0.0671244 0
0.0320897 0.0658732 0
0.0503853 0.064332 0
0.0762493 0.0610056 0
0.10399 0.0575723 0
0.134981 0.0549477 0
0.171328 0.0537575 0
0.21384 0.0538643 0
0.262242 0.053727 0
0.312627 0.0537881 0
0.362371 0.0539254 0
0.409049 0.0541848 0
0.45153 0.0544289 0
0.487877 0.054902 0
0.518181 0.0551308 0
0.542107 0.0552071 0
0.56054 0.0551919 0
0.571481 0.0612497 0
0.57612 0.0714275 0
0.575906 0.0827344 0
0.571679 0.0937209 0
0.563714 0.104829 0
0.553368 0.115694 0
0.541436 0.126513 0
0.528191 0.136507 0
0.514931 0.145953 0.00650034
0.502663 0.15465 0.0260014
0.491524 0.162295 0.0440986
0.481239 0.168582 0.0596933
0 0.0904097 0
0 0.090013 0
0 0.0894179 0
0 0.0889601 0
0.0115358 0.0882124 0
0.0266575 0.0875715 0
0.0446479 0.0862593 0
0.0686961 0.0841993 0
0.0992294 0.0799573 0
0.131411 0.0758221 0
0.168139 0.0734264 0
0.212207 0.0715801 0
0.261158 0.0704814 0
0.312978 0.0699321 0
0.365148 0.0697185 0
0.415061 0.069749 0
0.460456 0.0698558 0
0.499931 0.0700236 0
0.533349 0.0702983 0
0.560601 0.0703746 0
0.580804 0.0729229 0
0.594034 0.0827649 0
0.601633 0.092668 0
0.604501 0.103151 0
0.603204 0.114046 0
0.598795 0.125185 0
0.59147 0.136172 0
0.582391 0.146715 0
0.572122 0.156802 0
0.561364 0.166217 0
0.550805 0.174472 0.0155795
0.541115 0.182086 0.0344396
0.532891 0.18851 0.0513924
0 0.113588 0
0 0.11371 0
0 0.113848 0
0 0.113802 0
0.00602731 0.113542 0
0.0207675 0.113359 0
0.0386053 0.11252 0
0.0625925 0.111269 0
0.0916609 0.109117 0
0.126314 0.104524 0
0.165621 0.0996109 0
0.209735 0.0955978 0
0.259464 0.0926375 0
0.312673 0.0907759 0
0.366812 0.0896925 0
0.419348 0.0891585 0
0.468238 0.0890059 0
0.510994 0.0890364 0
0.547707 0.0889906 0
0.578073 0.0903639 0
0.600198 0.0985428 0
0.616648 0.107591 0
0.627649 0.117556 0
0.634043 0.128206 0
0.636133 0.139208 0
0.634638 0.150195 0
0.630518 0.161013 0
0.624247 0.171633 0
0.617044 0.181933 0
0.609186 0.191104 0
0.601602 0.199603 0.00556954
0.593881 0.206668 0.0243992
0.586969 0.213031 0.0413519
0 0.140444 0
0 0.141253 0
0 0.142199 0
0 0.142855 0
0.000808728 0.143236 0
0.0155337 0.143481 0
0.0330358 0.143145 0
0.0564736 0.142596 0
0.0856031 0.1411 0
0.117571 0.138735 0
0.159609 0.134066 0
0.207706 0.128161 0
0.258091 0.122637 0
0.312215 0.118486 0
0.368154 0.115572 0
0.423285 0.113725 0
0.475135 0.112779 0
0.521569 0.112535 0
0.561379 0.114168 0
0.593149 0.120607 0
0.619013 0.128634 0
0.63917 0.137774 0
0.65359 0.147677 0
0.663111 0.158312 0
0.668742 0.16939 0
0.670832 0.180529 0
0.669993 0.191333 0
0.666682 0.201831 0
0.662715 0.212024 0
0.657496 0.221073 0
0.652247 0.229526 0
0.646922 0.236454 0.0133822
0.641962 0.242695 0.0305791
0 0.17142 0
0 0.172915 0
0 0.174502 0
0 0.176104 0
0 0.177264 0
0.0108186 0.178149 0
0.0279545 0.178485 0
0.051133 0.178622 0
0.0798657 0.177844 0
0.111833 0.176379 0
0.149523 0.173831 0
0.198032 0.16878 0
0.253269 0.162768 0
0.311315 0.156008 0
0.370306 0.150195 0
0.427527 0.146487 0
0.481376 0.145342 0
0.52987 0.147097 0
0.572183 0.151186 0
0.607767 0.157122 0
0.63682 0.164843 0
0.66041 0.173907 0
0.678523 0.183886 0
0.691463 0.194476 0
0.700435 0.205432 0
0.70573 0.216587 0
0.708339 0.227451 0
0.708507 0.237858 0
0.707546 0.247913 0
0.704524 0.256855 0
0.701701 0.265064 0
0.698589 0.271748 0.00215152
0.695476 0.277836 0.0195163
0 0.206439 0
0 0.208957 0
0 0.211246 0
0 0.213642 0
0 0.215488 0
0.00759899 0.217014 0
0.024567 0.218235 0
0.0472725 0.219028 0
0.0754711 0.219471 0
0.107942 0.218921 0
0.144121 0.217395 0
0.18819 0.214801 0
0.243214 0.209461 0
0.304158 0.203815 0
0.366293 0.197894 0
0.426856 0.193332 0
0.483711 0.191119 0
0.535653 0.191714 0
0.581582 0.195041 0
0.620478 0.200198 0
0.653437 0.20734 0
0.680079 0.216144 0
0.701915 0.225925 0
0.717983 0.23653 0
0.730175 0.247349 0
0.739361 0.258579 0
0.74493 0.269383 0
0.748165 0.279683 0
0.749249 0.289296 0
0.749523 0.298314 0
0.748745 0.305837 0
0.747753 0.312703 0
0.746258 0.318563 0.00956741
0 0.245762 0
0 0.249042 0
0 0.25243 0
0 0.255406 0
0 0.258274 0
0.0065919 0.260273 0
0.0235142 0.26244 0
0.0458839 0.264286 0
0.0738079 0.265507 0
0.106386 0.265934 0
0.141192 0.265599 0
0.184085 0.264164 0
0.234592 0.261524 0
0.29546 0.256016 0
0.360342 0.251484 0
0.424521 0.246708 0
0.485344 0.243656 0
0.540459 0.243244 0
0.589654 0.245609 0
0.632715 0.250324 0
0.668818 0.257023 0
0.698894 0.265263 0
0.723537 0.274754 0
0.743465 0.284947 0
0.758648 0.295552 0
0.770169 0.306172 0
0.778561 0.316655 0
0.784909 0.327062 0
0.78851 0.336385 0
0.790814 0.344656 0
0.792203 0.352377 0
0.792737 0.358587 0
0.792798 0.36405 0.00129702
0 0.288746 0
0 0.293355 0
0 0.297383 0
0 0.301411 0
0 0.304768 0
0.00994888 0.307759 0
0.0263523 0.31043 0
0.0485847 0.313191 0
0.0765698 0.315862 0
0.108202 0.317571 0
0.141482 0.318334 0
0.183062 0.317937 0
0.232685 0.316365 0
0.288884 0.314 0
0.354284 0.309102 0
0.421851 0.305592 0
0.486137 0.302724 0
0.544823 0.301671 0
0.597391 0.30309 0
0.643366 0.306859 0
0.68249 0.312551 0
0.71574 0.320089 0
0.743069 0.329015 0
0.765759 0.338689 0
0.783963 0.348806 0
0.798535 0.35938 0
0.809567 0.369375 0
0.817792 0.378882 0
0.823606 0.387732 0
0.828275 0.395972 0
0.831067 0.402838 0
0.833371 0.409033 0
0.835065 0.414191 0
0 0.335698 0
0 0.340963 0
0 0.346197 0
0 0.350881 0
0.00424201 0.354971 0
0.018143 0.358557 0
0.0344701 0.361975 0
0.0568093 0.365972 0
0.0844434 0.369451 0
0.114427 0.37229 0
0.146304 0.374273 0
0.186603 0.375067 0
0.234913 0.374685 0
0.289891 0.373404 0
0.350454 0.371221 0
0.418814 0.367239 0
0.486046 0.365347 0
0.548074 0.364401 0
0.603815 0.36527 0
0.652674 0.368429 0
0.694926 0.373602 0
0.731029 0.380301 0
0.761013 0.388418 0
0.786191 0.397284 0
0.806622 0.406744 0
0.823362 0.41622 0
0.836332 0.425605 0
0.846967 0.434638 0
0.854719 0.442939 0
0.860624 0.450156 0
0.865309 0.45687 0
0.868513 0.462165 0
0.871092 0.466972 0
0 0.385412 0
0 0.391852 0
0 0.397681 0
0.00514229 0.403204 0
0.0196231 0.40827 0
0.03299 0.412161 0
0.0498207 0.41648 0
0.0718853 0.42092 0
0.0984512 0.42533 0
0.126253 0.429603 0
0.157107 0.432761 0
0.195911 0.434821 0
0.242786 0.435691 0
0.296895 0.435325 0
0.356466 0.434226 0
0.419425 0.432212 0
0.487511 0.42974 0
0.551476 0.429206 0
0.609842 0.430091 0
0.661234 0.432746 0
0.705837 0.437171 0
0.743954 0.443183 0
0.776699 0.450217 0
0.80351 0.458274 0
0.826139 0.466667 0
0.844312 0.47538 0
0.859754 0.483986 0
0.871611 0.492226 0
0.88098 0.49955 0
0.888548 0.506477 0
0.893919 0.512184 0
0.898802 0.517266 0
0.901701 0.521263 0.00531014
0 0.437766 0
0.000457771 0.444755 0
0.0132601 0.451194 0
0.0276951 0.457694 0
0.0418708 0.46305 0
0.0560159 0.467781 0
0.0725719 0.472251 0
0.0943618 0.477577 0
0.117937 0.482994 0
0.142657 0.487892 0
0.173037 0.491966 0.00263981
0.211093 0.494942 0.0078584
0.256718 0.496773 0.0128939
0.309422 0.497368 0.0164187
0.367834 0.496986 0.0159152
0.42948 0.496437 0.0091249
0.492378 0.494362 0.0220645
0.557336 0.493935 0
0.617182 0.495247 0
0.670268 0.497719 0
0.716381 0.501534 0
0.756008 0.506447 0
0.790158 0.512551 0
0.819074 0.519905 0
0.842985 0.527489 0
0.863081 0.535073 0
0.879072 0.542702 0
0.892424 0.549783 0
0.903395 0.55668 0
0.911452 0.562493 0
0.918181 0.56759 0
0.923247 0.572061 0.00933852
0.927459 0.575891 0.0259861
0.0171969 0.49131 0.00170901
0.0289006 0.49868 0.00195315
0.0424964 0.50602 0.0033875
0.0571145 0.512627 0.0043946
0.0716869 0.518502 0.00573739
0.0861372 0.523644 0.00735485
0.101671 0.528527 0.00932326
0.12047 0.534569 0.0122225
0.140734 0.540352 0.0154269
0.164355 0.545892 0.0194095
0.194797 0.550637 0.0241703
0.232044 0.554452 0.0293889
0.276905 0.557046 0.0347448
0.32813 0.558236 0.038819
0.385061 0.558495 0.0400244
0.444892 0.558419 0.0364233
0.505486 0.558618 0.0262913
0.566171 0.556039 0.0573129
0.625666 0.557733 0.0133211
0.679606 0.560159 0
0.72668 0.563638 0
0.767605 0.568154 0
0.802655 0.573693 0
0.832578 0.579767 0
0.857511 0.586267 0
0.878065 0.592981 0
0.895644 0.599481 0
0.909697 0.605844 0
0.921294 0.611902 0
0.930541 0.616876 0.00527962
0.937957 0.621607 0.0258183
0.943313 0.625299 0.0443122
0.947814 0.628672 0.0617533
0.0516518 0.545007 0.0312505
0.064683 0.552956 0.0319982
0.0781262 0.560342 0.0323644
0.0929122 0.567239 0.033463
0.106828 0.573724 0.0348058
0.118364 0.57882 0.0359503
0.131807 0.584451 0.0379034
0.147539 0.590387 0.0401923
0.166781 0.59649 0.0431983
0.191638 0.60267 0.0473335
0.222248 0.607813 0.0518349
0.259525 0.611917 0.0570993
0.303212 0.614923 0.062211
0.353277 0.616602 0.0662852
0.408148 0.617319 0.0683604
0.466148 0.617502 0.0663767
0.524681 0.617823 0.0589914
0.581613 0.618265 0.0492866
0.637934 0.616144 0.0841993
0.69102 0.618784 0.0410925
0.738033 0.622034 0.00721752
0.779141 0.626001 0
0.814527 0.630838 0
0.844694 0.636286 0
0.870146 0.641917 0
0.891646 0.647578 0
0.909743 0.653635 0
0.924208 0.659144 0.0166629
0.936339 0.664027 0.0378576
0.945968 0.668818 0.0605936
0.953231 0.672633 0.0819562
0.959487 0.676081 0.100496
0.963882 0.678767 0.114702
0.0923934 0.597864 0.066743
0.103975 0.605829 0.0666514
0.11577 0.613275 0.0668956
0.128054 0.620813 0.0678416
0.139513 0.626947 0.0687419
0.149859 0.632517 0.0700694
0.161318 0.637919 0.0712291
0.177493 0.644175 0.0734722
0.197772 0.650446 0.0765087
0.222858 0.65626 0.0798199
0.253391 0.661524 0.084123
0.290471 0.665721 0.0888228
0.333593 0.668818 0.0932174
0.382055 0.670741 0.096849
0.435218 0.671595 0.0985885
0.491142 0.671962 0.0974441
0.547326 0.672374 0.0924086
0.602213 0.673121 0.0823987
0.6542 0.673182 0.097261
0.705303 0.672831 0.111299
0.751278 0.675944 0.0790112
0.791516 0.679561 0.0545205
0.826627 0.683772 0.0399634
0.856718 0.688472 0.0360723
0.882216 0.693431 0.0408026
0.903563 0.69836 0.0527504
0.921187 0.703258 0.0707103
0.935775 0.707942 0.0928054
0.947814 0.712657 0.114641
0.957076 0.716609 0.133303
0.96495 0.72018 0.150484
0.970748 0.722927 0.16437
0.975296 0.725521 0.176913
0.129534 0.648508 0.104433
0.139361 0.656321 0.104051
0.149691 0.664225 0.104234
0.159991 0.67126 0.104433
0.171099 0.677791 0.10518
0.181323 0.682872 0.105608
0.194263 0.688457 0.107027
0.210925 0.694408 0.108446
0.231769 0.700374 0.11043
0.257694 0.706294 0.113252
0.288731 0.711376 0.116228
0.325231 0.715541 0.119524
0.367697 0.718532 0.122942
0.415015 0.720424 0.125597
0.466041 0.72134 0.126619
0.519417 0.721599 0.125765
0.573007 0.721721 0.122194
0.625513 0.722332 0.116167
0.674678 0.723705 0.108217
0.721096 0.722744 0.146777
0.765499 0.724147 0.14522
0.804364 0.727413 0.12903
0.838483 0.731029 0.119585
0.867811 0.735119 0.118914
0.892409 0.739528 0.126009
0.913161 0.743877 0.138247
0.930571 0.748196 0.15433
0.944656 0.752453 0.171893
0.955901 0.756313 0.189471
0.965408 0.759823 0.205753
0.972641 0.762905 0.220325
0.978378 0.765682 0.233188
0.982681 0.767636 0.243854
0.162158 0.696208 0.139345
0.171572 0.703914 0.138491
0.182055 0.711147 0.138003
0.193576 0.718441 0.138079
0.20499 0.72433 0.138186
0.216251 0.729564 0.138567
0.229206 0.734585 0.139055
0.247028 0.740551 0.140475
0.268345 0.746288 0.141817
0.294377 0.751629 0.143648
0.32546 0.756222 0.146151
0.361746 0.759945 0.148592
0.403128 0.762783 0.151034
0.44921 0.764477 0.153429
0.498405 0.765316 0.154559
0.549355 0.765576 0.154406
0.600473 0.765911 0.152743
0.650339 0.766461 0.149813
0.6972 0.767483 0.14609
0.740169 0.768017 0.162387
0.78117 0.766781 0.201266
0.818265 0.769772 0.191745
0.850706 0.772915 0.188525
0.878431 0.776501 0.191867
0.901961 0.780377 0.201114
0.921798 0.784192 0.214527
0.938094 0.787884 0.23035
0.951171 0.791501 0.246891
0.962219 0.795041 0.264134
0.970871 0.798047 0.279408
0.977813 0.800961 0.293599
0.983001 0.803143 0.305821
0.987457 0.805127 0.316289
0.194553 0.73959 0.175067
0.204852 0.747417 0.174151
0.216022 0.754314 0.173297
0.228092 0.761273 0.172915
0.240269 0.766918 0.172641
0.251972 0.771847 0.172854
0.265538 0.776486 0.172915
0.283299 0.78172 0.173251
0.305516 0.787289 0.174426
0.331884 0.792157 0.175906
0.362951 0.796429 0.177539
0.399115 0.799634 0.179461
0.439796 0.801892 0.181384
0.484306 0.803433 0.183124
0.531807 0.804059 0.184695
0.580667 0.804074 0.185397
0.629175 0.804105 0.185611
0.676188 0.804517 0.185733
0.720439 0.805356 0.186023
0.760845 0.806439 0.189868
0.797482 0.805478 0.227817
0.832166 0.80589 0.249943
0.862425 0.80882 0.252186
0.888365 0.811887 0.259998
0.910292 0.81529 0.272297
0.928985 0.818998 0.287861
0.944289 0.822324 0.30515
0.956451 0.825498 0.322957
0.966369 0.828382 0.339757
0.974395 0.831266 0.356191
0.98056 0.833585 0.37023
0.985595 0.835813 0.382605
0.989624 0.837644 0.392874
0.22742 0.779049 0.211261
0.238117 0.78645 0.209964
0.24976 0.79292 0.208591
0.262394 0.799069 0.207645
0.275364 0.804578 0.207385
0.287144 0.80885 0.206851
0.301549 0.813489 0.20708
0.319783 0.81825 0.206989
0.34229 0.823026 0.207462
0.36875 0.827543 0.20827
0.400259 0.831174 0.209384
0.43624 0.833906 0.211185
0.47602 0.835691 0.213184
0.519768 0.836439 0.215228
0.565728 0.836698 0.217594
0.612299 0.836622 0.21976
0.658106 0.836423 0.222187
0.702556 0.836408 0.225101
0.743496 0.836912 0.229526
0.781109 0.838148 0.236439
0.814893 0.838026 0.26566
0.845991 0.837247 0.302617
0.874022 0.839323 0.315847
0.897841 0.842176 0.328145
0.918059 0.845075 0.343755
0.935027 0.848173 0.361837
0.948943 0.851469 0.381506
0.960327 0.854337 0.400427
0.969223 0.857008 0.418204
0.976333 0.859648 0.434928
0.981903 0.861677 0.449317
0.986572 0.86363 0.461784
0.989914 0.865263 0.472099
0.259602 0.813672 0.246311
0.270802 0.82063 0.2448
0.282795 0.826673 0.243137
0.296086 0.832624 0.241962
0.309224 0.837278 0.241169
0.321553 0.841337 0.240574
0.336233 0.845411 0.240208
0.355169 0.849607 0.240269
0.37818 0.854002 0.240742
0.405524 0.857374 0.241443
0.436835 0.860258 0.24271
0.472801 0.862318 0.244831
0.512535 0.863508 0.24712
0.554711 0.863874 0.250126
0.599023 0.863584 0.253437
0.643305 0.863355 0.257572
0.686534 0.863127 0.262654
0.728008 0.862974 0.269047
0.766171 0.863447 0.277455
0.800793 0.864332 0.28893
0.831922 0.86482 0.313588
0.859831 0.864042 0.351156
0.884825 0.864454 0.381003
0.906615 0.867185 0.397208
0.925139 0.869993 0.416251
0.9402 0.872969 0.436927
0.952575 0.875731 0.457877
0.962722 0.878447 0.477974
0.970703 0.881025 0.496406
0.977264 0.883497 0.513329
0.982269 0.885405 0.527794
0.986313 0.887251 0.540063
0.989334 0.888838 0.550225
0.289967 0.843839 0.279332
0.301732 0.849836 0.277592
0.314168 0.855497 0.275792
0.328054 0.860883 0.275044
0.34168 0.865095 0.273899
0.35494 0.868635 0.273579
0.369909 0.871916 0.27306
0.389715 0.875792 0.273396
0.413306 0.879088 0.274037
0.441047 0.881926 0.275074
0.472816 0.883986 0.276982
0.508385 0.885267 0.2795
0.547494 0.885832 0.282841
0.588769 0.885847 0.287175
0.630716 0.885481 0.292165
0.672908 0.884779 0.298512
0.713436 0.88452 0.306447
0.751705 0.884581 0.316594
0.787198 0.884871 0.329259
0.819226 0.88574 0.344839
0.847715 0.886717 0.36791
0.872831 0.886198 0.40618
0.895048 0.885756 0.443534
0.91458 0.887755 0.466255
0.93109 0.890455 0.487999
0.94461 0.893233 0.51014
0.955627 0.895933 0.531579
0.96466 0.898436 0.551949
0.971939 0.901106 0.570642
0.9776 0.903319 0.586892
0.982345 0.905455 0.601007
0.985885 0.907057 0.612528
0.988647 0.908598 0.62237
0.318654 0.868742 0.310384
0.331044 0.874525 0.308644
0.344427 0.879332 0.307424
0.358862 0.883772 0.306249
0.373312 0.887831 0.306065
0.386679 0.8907 0.305653
0.402716 0.893751 0.305791
0.422736 0.89662 0.306233
0.446967 0.899168 0.307179
