luts/Cliff-CLog2.cube
TITLE "Generated by Resolve"
LUT_3D_SIZE 9
0.00321965 0.00520333 0.023743
0.0618906 0 0.0127413
0.169177 0 0
0.315129 0 0
0.413581 0 0
0.412055 0 0
0.363134 0 0
0.274601 0.0416419 0.0229343
0.205798 0.074876 0.0677043
0 0.049424 0
0.0486152 0.0429847 0
0.159701 0.0307469 0
0.325322 0.0260929 0
0.461845 0.0197147 0
0.454032 0.000457771 0
0.352438 0.0019379 0
0.263142 0.0442664 0.024979
0.194919 0.0767529 0.0692607
0 0.128695 0
0.0325322 0.128344 0
0.13875 0.118318 0
0.312322 0.101961 0
0.494423 0.0924086 0
0.582422 0.0788586 0
0.475288 0.0505074 0
0.232731 0.0508278 0.0306096
0.16643 0.0816358 0.0738842
0 0.264958 0
0.0297093 0.272618 0
0.127031 0.27602 0
0.300465 0.265309 0
0.520485 0.247959 0
0.668193 0.249821 0
0.720745 0.250721 0
0.656443 0.218647 0
0.373144 0.142 0.0783246
0.0500954 0.457954 0
0.0953689 0.470039 0
0.171435 0.483711 0
0.323995 0.488426 0.00982681
0.540429 0.483558 0
0.724834 0.487404 0
0.829816 0.498543 0
0.87335 0.502266 0
0.876661 0.492042 0.00349432
0.202808 0.67216 0.0905928
0.23328 0.680293 0.0940719
0.301885 0.691585 0.10219
0.433875 0.698543 0.111254
0.611322 0.700023 0.0984512
0.775418 0.702373 0.102296
0.886381 0.713878 0.0748302
0.946258 0.724224 0.129671
0.972152 0.728222 0.177462
0.412192 0.838621 0.215335
0.4365 0.840513 0.216281
0.489738 0.843183 0.218936
0.589349 0.844541 0.224445
0.719738 0.844419 0.23386
0.837842 0.845823 0.295491
0.922454 0.852216 0.359625
0.968856 0.861326 0.425956
0.988891 0.866987 0.472297
0.629679 0.919753 0.362173
0.644221 0.919692 0.365347
0.676234 0.919036 0.372793
0.736263 0.918166 0.392294
0.817761 0.91809 0.435416
0.89337 0.920775 0.51902
0.945861 0.924346 0.629038
0.975692 0.933715 0.69929
0.989059 0.939925 0.739071
0.75256 0.94435 0.495293
0.760678 0.944335 0.499718
0.778958 0.94403 0.510887
0.815518 0.943969 0.537453
0.86894 0.94522 0.589715
0.92224 0.950057 0.668254
0.960449 0.954742 0.76582
0.984527 0.964996 0.823148
0.995911 0.971939 0.853712
0.000350958 0.000793469 0.0895705
0.0540932 0 0.0846723
0.173983 0 0.0460822
0.337209 0 0
0.440208 0 0
0.450294 0 0
0.408911 0 0
0.32488 0.0279393 0.014725
0.255283 0.0641184 0.0609751
0 0.0465248 0.0597696
0.0406348 0.0427253 0.0576638
0.171206 0.0232395 0.0243687
0.350149 0.00669871 0
0.495827 0 0
0.492103 0 0
0.402472 0 0
0.317586 0.0301061 0.0157626
0.247852 0.0658885 0.0619059
0 0.133043 0
0.0211337 0.13286 0.00202945
0.138064 0.122469 0
0.340093 0.0945907 0
0.53608 0.0819409 0
0.628733 0.0804761 0
0.529625 0.047013 0
0.29543 0.0364843 0.0194095
0.226093 0.0709544 0.0648508
0 0.263874 0
0.0278935 0.271504 0
0.125811 0.275029 0
0.299687 0.264302 0
0.520134 0.246799 0
0.667857 0.248753 0
0.719753 0.249516 0
0.65449 0.217243 0
0.365805 0.139635 0.0788128
0.0479744 0.456916 0
0.0936294 0.469245 0
0.170459 0.483253 0
0.323186 0.487968 0.00965896
0.540063 0.48307 0
0.724666 0.4869 0
0.829648 0.498024 0
0.873137 0.501717 0
0.87631 0.491447 0.00347906
0.201678 0.671748 0.090425
0.232105 0.679988 0.0939345
0.300801 0.691356 0.101976
0.433295 0.698344 0.111116
0.611063 0.69984 0.0983444
0.775296 0.70222 0.102129
0.886336 0.713726 0.0745708
0.946212 0.724071 0.129427
0.972107 0.728069 0.177234
0.411109 0.838468 0.215244
0.435569 0.840467 0.216236
0.489052 0.843091 0.21883
0.588876 0.844495 0.224353
0.719524 0.844404 0.233783
0.837766 0.845777 0.295354
0.922438 0.852171 0.359503
0.968826 0.86128 0.425818
0.988891 0.866941 0.47216
0.629038 0.919753 0.362005
0.643778 0.919646 0.365133
0.675761 0.919036 0.372641
0.735973 0.918166 0.392126
0.817655 0.918059 0.435279
0.893324 0.92076 0.518883
0.945861 0.924331 0.628962
0.975677 0.9337 0.699229
0.989059 0.93991 0.73901
0.752224 0.94435 0.495109
0.760372 0.944335 0.499535
0.778714 0.94403 0.510735
0.815366 0.943969 0.537316
0.868879 0.94522 0.589624
0.922225 0.950057 0.668193
0.960433 0.954742 0.765805
0.984527 0.964996 0.823148
0.995911 0.971939 0.853712
0 0 0.201358
0.041474 0 0.206394
0.153033 0 0.183688
0.331945 0 0.0864729
0.452811 0 0
0.491188 0 0
0.461311 0 0
0.386954 0.00529488 0.00929274
0.320562 0.044831 0.0559091
0 0.0347753 0.189883
0.033463 0.0318761 0.196017
0.153979 0.016968 0.17731
0.36466 0 0.0711681
0.525322 0 0
0.522759 0 0
0.459205 0 0
0.384039 0.00650034 0.0093843
0.317357 0.0459449 0.0559854
0 0.127275 0.123018
0.00968948 0.130495 0.127062
0.125093 0.124132 0.122499
0.354589 0.103593 0.0565957
0.574289 0.0921645 0
0.676707 0.0889601 0
0.586175 0.0153506 0
0.375784 0.0100404 0.00958267
0.308644 0.0490578 0.056199
0 0.278172 0.0254826
0 0.288045 0.0293278
0.105669 0.294362 0.0380713
0.310903 0.277607 0.0297856
0.575051 0.252201 0
0.744442 0.251911 0
0.811856 0.251331 0
0.769818 0.214313 0
0.501564 0.118776 0.0524605
0.0428779 0.45449 0
0.0891585 0.467109 0
0.167437 0.481788 0
0.321141 0.486839 0.009308
0.539147 0.481819 0
0.724224 0.485603 0
0.829282 0.496788 0
0.872602 0.500298 0
0.87538 0.489921 0.00343328
0.197986 0.670283 0.0896468
0.229023 0.679179 0.0935836
0.298009 0.69073 0.101396
0.43154 0.697932 0.110842
0.61033 0.699413 0.0980545
0.77499 0.701808 0.101686
0.886183 0.713344 0.0738231
0.94612 0.72369 0.128756
0.972015 0.727687 0.176669
0.408286 0.838071 0.215
0.433188 0.840375 0.216175
0.487221 0.842847 0.218555
0.587823 0.844327 0.224094
0.71902 0.844358 0.2336
0.837552 0.84567 0.294987
0.922393 0.852094 0.359197
0.968795 0.861173 0.425452
0.988891 0.86685 0.471824
0.627359 0.919738 0.361563
0.642359 0.919615 0.36466
0.674556 0.91902 0.372244
0.735225 0.918135 0.39173
0.817349 0.918013 0.434897
0.893202 0.920729 0.518547
0.94583 0.9243 0.628748
0.975662 0.933654 0.699092
0.989044 0.939879 0.738903
0.751339 0.944366 0.494636
0.759579 0.94435 0.499077
0.778042 0.944045 0.510307
0.814923 0.943969 0.53698
0.868711 0.945205 0.58938
0.922179 0.950042 0.668055
0.960418 0.954726 0.765743
0.984512 0.964996 0.823117
0.995911 0.971939 0.853712
0 0 0.314504
0.0189364 0 0.336736
0.115023 0 0.336095
0.273243 0 0.276448
0.430457 0 0.160189
0.504967 0 0.0348821
0.497856 0 0.00628672
0.438727 0 0.0426795
0.377142 0.0356298 0.0854353
0 0.00988785 0.347433
0.0166171 0.00691234 0.372396
0.12369 0 0.373861
0.314168 0 0.313375
0.489372 0 0.178058
0.505058 0 0.0314641
0.49752 0 0.00460822
0.438102 0 0.0414893
0.376379 0.0357061 0.084596
0 0.105089 0.31873
0.00369268 0.108309 0.344091
0.111299 0.103853 0.363424
0.341329 0.0762188 0.326635
0.6 0.0148013 0.195529
0.716426 0 0.0412757
0.590204 0 0
0.436423 0 0.0383612
0.374273 0.0358892 0.0823835
0 0.267308 0.230228
0 0.281346 0.240803
0.0724041 0.294453 0.250614
0.299184 0.281224 0.239796
0.60325 0.259785 0.165042
0.788632 0.263325 0.125017
0.863142 0.263096 0.143099
0.844266 0.179202 0.110567
0.553552 0.0381018 0.059556
0 0.485176 0.140932
0.0243076 0.503853 0.142657
0.118135 0.524437 0.146746
0.292653 0.530205 0.153475
0.568673 0.509514 0.133761
0.795422 0.501717 0.0168307
0.915694 0.509407 0.0495766
0.969238 0.511467 0.137881
0.983352 0.499245 0.190188
0.188052 0.665766 0.0878157
0.219928 0.675898 0.0917525
0.290623 0.688807 0.0998245
0.426642 0.696757 0.110063
0.607965 0.698344 0.0975967
0.77435 0.700938 0.100755
0.885771 0.712245 0.0718242
0.94583 0.722606 0.126894
0.971786 0.726604 0.175128
0.400641 0.836835 0.214267
0.426383 0.839536 0.215534
0.481544 0.842359 0.217975
0.584497 0.843976 0.223499
0.717586 0.844205 0.233066
0.836973 0.845365 0.29398
0.922271 0.851865 0.358343
0.968673 0.860914 0.424475
0.988891 0.86656 0.470939
0.62269 0.919676 0.360372
0.638086 0.9196 0.363424
0.671199 0.91899 0.371115
0.733135 0.918059 0.390631
0.816419 0.917922 0.433921
0.892882 0.920638 0.517632
0.945724 0.924208 0.628275
0.975601 0.933532 0.698711
0.989029 0.939773 0.738598
0.748882 0.944396 0.493324
0.75761 0.944305 0.497704
0.776425 0.943984 0.509041
0.813733 0.943969 0.536019
0.868193 0.94519 0.588769
0.922042 0.950011 0.667659
0.960357 0.954726 0.765591
0.984497 0.964981 0.823056
0.995911 0.971939 0.853712
0 0 0.374548
0 0 0.404761
0.0681468 0 0.450431
0.217456 0 0.424842
0.377295 0 0.346075
0.478798 0 0.23975
0.49752 0 0.164172
0.458076 0 0.14406
0.407401 0.0401923 0.150225
0 0 0.378576
0 0 0.408957
0.0690013 0 0.450706
0.218082 0 0.424186
0.377707 0 0.34519
0.479042 0 0.238727
0.497627 0 0.163302
0.458076 0 0.143404
0.407355 0.040116 0.149783
0 0.0607004 0.457053
0 0.0625315 0.499397
0.0832837 0.0598001 0.564034
0.288975 0.0360266 0.556359
0.523903 0.00456245 0.47866
0.631144 0 0.334813
0.497887 0 0.161257
0.45803 0 0.141665
0.407172 0.0399481 0.148638
0 0.229526 0.431296
0 0.243641 0.472068
0.0636149 0.261295 0.533043
0.275715 0.25449 0.561013
0.591684 0.227695 0.520592
0.81297 0.207309 0.441321
0.901106 0.173205 0.386542
0.851911 0.0897993 0.306462
0.406622 0.0395056 0.145388
0 0.460548 0.396765
0 0.48603 0.415351
0.0679179 0.518166 0.437644
0.2392 0.535439 0.445579
0.553109 0.514397 0.426169
0.805905 0.508507 0.396063
0.931411 0.52018 0.414191
0.987747 0.524483 0.443442
1 0.508019 0.456428
0.0695354 0.70927 0.383688
0.101991 0.726253 0.38407
0.173938 0.747158 0.382391
0.342428 0.756558 0.381765
0.582071 0.744045 0.377966
0.795163 0.731334 0.392065
0.925002 0.736538 0.409506
0.988357 0.745129 0.453651
1 0.748898 0.483162
0.378622 0.833387 0.212573
0.406409 0.836789 0.213657
0.466239 0.841138 0.216678
0.575158 0.843061 0.221851
0.713634 0.84332 0.23154
0.835615 0.844434 0.291676
0.921675 0.851011 0.356237
0.96849 0.860105 0.421881
0.989013 0.865919 0.468742
0.609827 0.91957 0.357198
0.626307 0.919387 0.360403
0.661967 0.918807 0.368307
0.727672 0.917769 0.387549
0.813825 0.917617 0.431662
0.891951 0.920363 0.515496
0.945373 0.923873 0.626932
0.975479 0.933227 0.697383
0.988968 0.939498 0.737743
0.742229 0.944457 0.489662
0.751217 0.944366 0.494575
0.771145 0.944045 0.506142
0.810697 0.943893 0.533349
0.866835 0.945235 0.587152
0.921599 0.949966 0.66659
0.960204 0.954681 0.765179
0.984421 0.96495 0.822904
0.995911 0.971939 0.853712
0 0 0.393713
0 0 0.393713
0.00526436 0 0.458228
0.14963 0 0.505104
0.313115 0 0.453193
0.423758 0 0.373388
0.462409 0 0.288411
0.442267 0.0265202 0.239277
0.403769 0.0607462 0.221134
0 0 0.393759
0 0 0.393759
0.00585946 0 0.458824
0.150042 0 0.504982
0.313375 0 0.452979
0.42388 0 0.373175
0.462531 0 0.288182
0.442344 0.0264439 0.239063
0.403815 0.0606851 0.220981
0 0 0.393881
0 0 0.393881
0.00749218 0 0.460594
0.150973 0 0.504692
0.314031 0 0.452369
0.424201 0 0.372595
0.462821 0 0.287648
0.442542 0.0262608 0.238544
0.403937 0.0605173 0.220554
0 0.171115 0.557885
0 0.170733 0.557855
0.0264897 0.186542 0.654017
0.236606 0.188998 0.74464
0.542062 0.160845 0.730266
0.74966 0.145205 0.678828
0.81323 0.132891 0.576028
0.549798 0.0311589 0.293629
0.404288 0.0600443 0.219394
0 0.424979 0.566339
0 0.424826 0.566323
0.0413367 0.471092 0.642954
0.221164 0.503532 0.709789
0.526177 0.491447 0.721462
0.795148 0.483696 0.699702
0.943816 0.488807 0.674769
1 0.482185 0.665904
1 0.458869 0.657679
0.0576333 0.664561 0.601587
0.0681926 0.681315 0.614771
0.141955 0.728084 0.651392
0.29427 0.753338 0.667689
0.529595 0.750637 0.659846
0.773342 0.736034 0.65272
0.912871 0.742565 0.656168
0.977539 0.752529 0.67512
1 0.757397 0.68893
0.231861 0.874983 0.659159
0.265507 0.882765 0.662104
0.338079 0.891249 0.664927
0.472938 0.893202 0.665309
0.656916 0.884138 0.67097
0.818296 0.877516 0.692393
0.915221 0.87982 0.735744
0.965225 0.889509 0.76643
0.986816 0.896391 0.787091
0.525246 0.949889 0.593271
0.549935 0.948608 0.596826
0.602014 0.945708 0.60592
0.691524 0.940002 0.625971
0.798245 0.935485 0.663737
0.887587 0.937194 0.718639
0.944274 0.941863 0.791241
0.976349 0.951431 0.835538
0.990936 0.958343 0.860182
0.723033 0.944884 0.480461
0.7337 0.944762 0.485725
0.757366 0.944305 0.497551
0.801892 0.943801 0.526757
0.862959 0.945098 0.582788
0.920394 0.949905 0.663722
0.959823 0.954589 0.76408
0.984268 0.964874 0.822492
0.995911 0.971939 0.853712
0 0 0.344732
0 0 0.344732
0 0 0.344732
0.0629892 0 0.479271
0.239658 0 0.494011
0.363622 0 0.431052
0.411231 0.00697337 0.360311
0.402655 0.0535897 0.300191
0.37435 0.0859846 0.269352
0 0 0.344823
0 0 0.344823
0 0 0.344823
0.0633707 0 0.479591
0.239841 0 0.49398
0.363714 0 0.431006
0.411276 0.00698863 0.36025
0.402701 0.0535744 0.300145
0.374395 0.0859541 0.269306
0 0 0.345052
0 0 0.345052
0 0 0.345052
0.0643778 0 0.480385
0.240284 0 0.493904
0.363973 0 0.430869
0.411444 0.00700389 0.360082
0.402838 0.0535134 0.300008
0.374487 0.085893 0.2692
0 0 0.367041
0 0 0.366018
0 0 0.363394
0.0730144 0 0.510735
0.241505 0 0.493645
0.364645 0 0.430488
0.411902 0.00704967 0.359609
0.403204 0.0533455 0.299626
0.374792 0.0859388 0.268894
0.0232242 0.363272 0.651209
0.0231937 0.363088 0.651164
0.0231327 0.3626 0.651057
0.153506 0.424384 0.812757
0.491356 0.426276 0.868971
0.778317 0.414664 0.864652
0.925307 0.416358 0.850965
0.986801 0.410788 0.82089
0.994385 0.372259 0.78381
0.0923476 0.646433 0.715038
0.0923171 0.646387 0.715023
0.092256 0.64625 0.714977
0.236683 0.72578 0.813535
0.504891 0.733883 0.831983
0.754498 0.724575 0.827649
0.902983 0.731106 0.818936
0.978469 0.739269 0.814969
1 0.742306 0.8159
0.199039 0.834699 0.781552
0.199023 0.834684 0.781537
0.239155 0.861921 0.805112
0.424979 0.888121 0.826947
0.633661 0.884855 0.825116
0.797803 0.882719 0.828229
0.906477 0.886107 0.843458
0.958999 0.896437 0.857206
0.981018 0.903685 0.868437
0.420523 0.948806 0.834623
0.462776 0.950912 0.837598
0.54287 0.951385 0.840955
0.662028 0.948974 0.845975
0.78558 0.947478 0.858488
0.883726 0.950378 0.881315
0.946532 0.958785 0.907012
0.97911 0.967788 0.931044
0.994095 0.974807 0.943221
0.676432 0.970321 0.848127
0.694301 0.970031 0.850492
0.730282 0.969467 0.855451
0.791455 0.968933 0.866377
0.864698 0.971191 0.886946
0.931105 0.976562 0.915618
0.974304 0.98677 0.943252
0.998398 0.996323 0.967788
1 1 0.979721
0 0 0.262577
0 0 0.262577
0 0 0.262577
0 0 0.262577
0.164324 0 0.473686
0.304845 0 0.441306
0.362921 0.0287327 0.377325
0.361746 0.0687572 0.323003
0.338872 0.104265 0.287633
0 0 0.262654
0 0 0.262654
0 0 0.262654
0 0 0.262654
0.164477 0 0.473732
0.304906 0 0.441306
0.362951 0.0287175 0.37731
0.361761 0.0687572 0.322988
0.338903 0.10425 0.287633
0 0 0.262821
0 0 0.262821
0 0 0.262821
0 0 0.262821
0.164889 0 0.473854
0.305074 0 0.441276
0.363058 0.028687 0.377295
0.361852 0.0687114 0.322988
0.338964 0.104219 0.287617
0 0 0.263325
0 0 0.263325
0 0 0.263325
0 0 0.263325
0.166033 0 0.474235
0.305516 0 0.441215
0.363348 0.0285954 0.377234
0.362066 0.0686198 0.322942
0.339147 0.104158 0.287572
0.0411383 0.20853 0.606271
0.0410925 0.208209 0.606043
0.0409857 0.20737 0.605493
0.0406653 0.205066 0.604273
0.385748 0.24004 0.885771
0.694774 0.221103 0.882612
0.811673 0.198077 0.830381
0.707378 0.121431 0.637858
0.339666 0.103944 0.287419
0.120714 0.608301 0.762798
0.120684 0.608225 0.762768
0.120638 0.608057 0.762707
0.120455 0.607569 0.762539
0.442344 0.699855 0.913619
0.737209 0.693187 0.91725
0.899107 0.697368 0.91339
0.97496 0.707179 0.908034
1 0.710948 0.902876
0.227848 0.824598 0.843626
0.227832 0.824582 0.843626
0.227787 0.824537 0.843595
0.257343 0.848447 0.868666
0.590539 0.878676 0.900587
0.78822 0.877394 0.898299
0.898756 0.884031 0.903365
0.955764 0.894438 0.906905
0.980941 0.901457 0.911055
0.359945 0.928191 0.886412
0.359945 0.928191 0.886412
0.359899 0.928176 0.886412
0.56527 0.94728 0.906416
0.768215 0.946487 0.911849
0.880674 0.952468 0.925078
0.944976 0.962341 0.942351
0.97966 0.972183 0.957565
0.995163 0.979507 0.966384
0.471351 0.963149 0.900694
0.488457 0.965255 0.903075
0.62211 0.969543 0.911635
0.760967 0.969467 0.920211
0.865599 0.973571 0.934798
0.935088 0.98262 0.954269
0.978912 0.99382 0.974517
1 1 0.990768
1 1 1
0 0 0.226596
0 0 0.226596
0 0 0.226596
0 0 0.226596
0.0946059 0 0.422141
0.2757 0.00527962 0.439078
0.342992 0.0364843 0.378058
0.345373 0.0766155 0.323522
0.324926 0.110063 0.289387
0 0 0.226596
0 0 0.226596
0 0 0.226596
0 0 0.226596
0.0948196 0 0.422309
0.275731 0.00527962 0.439063
0.343008 0.0364843 0.378058
0.345357 0.0766155 0.323507
0.324941 0.110063 0.289387
0 0 0.226596
0 0 0.226596
0 0 0.226596
0 0 0.226596
0.0953689 0 0.422721
0.275822 0.00531014 0.439017
0.343008 0.0364996 0.378027
0.345357 0.0766308 0.323507
0.324926 0.110079 0.289387
0 0 0.226596
0 0 0.226596
0 0 0.226596
0 0 0.226596
0.096849 0 0.423865
0.276081 0.00534066 0.438926
0.343038 0.0365454 0.377966
0.345357 0.0766613 0.323461
0.32491 0.110094 0.289372
0 0 0.226596
0 0 0.226596
0 0 0.226596
0 0 0.226596
0.10071 0 0.426764
0.276768 0.00546273 0.438636
0.343114 0.0366522 0.377783
0.345342 0.0767376 0.323384
0.324849 0.11017 0.289296
0.122835 0.552132 0.759197
0.122805 0.552041 0.759167
0.122728 0.551812 0.759075
0.122545 0.551171 0.758846
0.322545 0.641428 0.923461
0.712718 0.640818 0.949172
0.89839 0.64448 0.947784
0.981765 0.650339 0.944533
1 0.649577 0.940352
0.236667 0.81088 0.860914
0.236667 0.810864 0.860914
0.236622 0.810819 0.860899
0.23653 0.810681 0.860838
0.499275 0.869352 0.927169
0.768521 0.868406 0.923278
0.893263 0.875517 0.924681
0.951598 0.886503 0.926726
0.977905 0.894179 0.927886
0.37464 0.923613 0.910628
0.374624 0.923598 0.910628
0.374594 0.923598 0.910628
0.374502 0.923552 0.910597
0.72163 0.943893 0.93228
0.872511 0.950317 0.941558
0.942428 0.96173 0.955123
0.978424 0.97229 0.967224
0.99443 0.979889 0.974853
0.500221 0.961273 0.928634
0.500221 0.961273 0.928634
0.500221 0.961273 0.928634
0.599451 0.967605 0.936538
0.848981 0.972854 0.951156
0.935851 0.984085 0.968856
0.980819 0.996887 0.986236
1 1 1
1 1 1
