luts/Cliff-SLog3.cube
TITLE "Generated by Resolve"
LUT_3D_SIZE 9
0 0 0.00285344
0.0400702 0 0
0.119829 0 0
0.252872 0 0
0.373831 0 0
0.411246 0.00144961 0
0.363561 0.0128481 0
0.269093 0.058793 0.0297704
0.200092 0.090013 0.0767681
0 0.0303044 0
0.0295109 0.0240787 0
0.109911 0.0181277 0
0.263508 0.0205386 0
0.424979 0.0261234 0
0.504585 0.0273442 0
0.490822 0.0524758 0
0.421378 0.0983749 0.00981155
0.35877 0.130495 0.0754711
0 0.0904097 0
0.0115358 0.0882124 0
0.0992294 0.0799573 0
0.261158 0.0704814 0
0.460456 0.0698558 0
0.580804 0.0729229 0
0.603204 0.114046 0
0.572122 0.156802 0
0.532891 0.18851 0.0513924
0 0.206439 0
0 0.215488 0
0.0754711 0.219471 0
0.243214 0.209461 0
0.483711 0.191119 0
0.653437 0.20734 0
0.730175 0.247349 0
0.749249 0.289296 0
0.746258 0.318563 0.00956741
0 0.385412 0
0.0196231 0.40827 0
0.0984512 0.42533 0
0.242786 0.435691 0
0.487511 0.42974 0
0.705837 0.437171 0
0.826139 0.466667 0
0.88098 0.49955 0
0.901701 0.521263 0.00531014
0.0923934 0.597864 0.066743
0.139513 0.626947 0.0687419
0.197772 0.650446 0.0765087
0.333593 0.668818 0.0932174
0.547326 0.672374 0.0924086
0.751278 0.675944 0.0790112
0.882216 0.693431 0.0408026
0.947814 0.712657 0.114641
0.975296 0.725521 0.176913
0.22742 0.779049 0.211261
0.275364 0.804578 0.207385
0.34229 0.823026 0.207462
0.47602 0.835691 0.213184
0.658106 0.836423 0.222187
0.814893 0.838026 0.26566
0.918059 0.845075 0.343755
0.969223 0.857008 0.418204
0.989914 0.865263 0.472099
0.345586 0.889174 0.339437
0.403067 0.905852 0.336446
0.478447 0.915114 0.339635
0.610834 0.917723 0.356695
0.75993 0.915068 0.399405
0.874235 0.917647 0.482933
0.940932 0.920851 0.615198
0.974868 0.931472 0.693553
0.988998 0.938781 0.738094
0.428351 0.935378 0.427634
0.493263 0.945174 0.432059
0.572183 0.94844 0.44419
0.695506 0.94699 0.4795
0.818662 0.94493 0.550454
0.906981 0.949096 0.650416
0.957366 0.955001 0.76286
0.984115 0.965576 0.826917
0.996033 0.972808 0.858305
0 0 0.058793
0.0372473 0 0.0555886
0.122805 0 0.0324712
0.274846 0 0
0.408896 0 0
0.457847 0 0
0.419028 0.00155642 0
0.331014 0.0468147 0.0187839
0.261967 0.0798657 0.0663615
0 0.0290684 0.0453498
0.0235142 0.0256962 0.0428626
0.123659 0.0123293 0.0189822
0.291203 0 0
0.464332 0.00241093 0
0.552041 0.0134585 0
0.547158 0.0519722 0
0.489021 0.095079 0
0.431952 0.124514 0.0597543
0 0.0920119 0.0172732
0.00117494 0.0932937 0.0161593
0.0960861 0.0847028 0.0133822
0.286076 0.0622416 0
0.500053 0.0542763 0
0.624735 0.0768749 0
0.657649 0.115526 0
0.637476 0.15491 0
0.606195 0.184115 0.0332036
0 0.213321 0
0 0.223529 0
0.0660868 0.228244 0
0.247639 0.216068 0
0.51104 0.194171 0
0.692882 0.210071 0
0.776822 0.249027 0
0.801434 0.289845 0
0.802792 0.317968 0.00402838
0 0.39733 0
0.00714122 0.421393 0
0.086305 0.44004 0.00531014
0.236103 0.450187 0.0227512
0.498177 0.439536 0
0.731579 0.442512 0
0.857008 0.470497 0
0.913619 0.502846 0
0.936095 0.524514 0.0191348
0.0790112 0.613031 0.0987259
0.128542 0.642741 0.0996872
0.186038 0.66688 0.104952
0.321874 0.685069 0.117861
0.545708 0.684901 0.117433
0.760418 0.684337 0.107362
0.896361 0.699474 0.0755322
0.962737 0.717891 0.150744
0.989868 0.730388 0.209873
0.211261 0.794003 0.244022
0.259602 0.819379 0.23978
0.32668 0.837659 0.239292
0.463523 0.848569 0.244663
0.653574 0.84593 0.25626
0.816297 0.845121 0.299031
0.921096 0.850278 0.385321
0.972137 0.861662 0.460472
0.992538 0.869978 0.513222
0.326696 0.901915 0.377279
0.386297 0.917403 0.37615
0.465019 0.92549 0.380911
0.602747 0.925734 0.399985
0.757336 0.920836 0.445975
0.87361 0.921874 0.529351
0.941085 0.924849 0.654322
0.975158 0.935714 0.727001
0.989471 0.943099 0.767742
0.411582 0.945632 0.468223
0.480232 0.95404 0.475196
0.562936 0.955932 0.489006
0.691066 0.952285 0.526452
0.817823 0.948928 0.595987
0.907485 0.952605 0.689799
0.958495 0.959396 0.789929
0.985306 0.969543 0.849378
0.997543 0.976898 0.87808
0 0 0.131838
0.0315709 0 0.135897
0.114855 0 0.121889
0.278614 0 0.0447395
0.436774 0 0
0.4972 0 0
0.469398 0 0
0.390478 0.028809 0.00952163
0.323964 0.0646525 0.0576944
0 0.0255894 0.128313
0.0209506 0.0229648 0.133059
0.112337 0.0131685 0.12015
0.308446 0 0.0267491
0.495796 0 0
0.589395 0.0030518 0
0.595651 0.0482795 0
0.550256 0.0903639 0
0.50277 0.114961 0.0514992
0 0.0899214 0.0955673
0.000427253 0.0923629 0.0984817
0.0872053 0.0881361 0.0947585
0.29192 0.0720989 0.0391852
0.525154 0.0632486 0
0.660441 0.0852674 0
0.703502 0.120714 0
0.69308 0.157443 0
0.669352 0.184558 0.0445869
0 0.216632 0.0463569
0 0.229541 0.0458991
0.0532387 0.235966 0.0518196
0.250172 0.222263 0.0450752
0.535622 0.198489 0
0.727794 0.214267 0
0.816831 0.253117 0
0.846189 0.293568 0
0.85069 0.320821 0.0418708
0 0.406897 0.0427253
0 0.43238 0.044419
0.0718242 0.452827 0.051133
0.228168 0.463752 0.0658274
0.508141 0.448524 0.0392309
0.75552 0.447761 0
0.884779 0.475044 0
0.94258 0.507088 0
0.965896 0.528557 0.0813458
0.0645151 0.625986 0.142184
0.116747 0.656519 0.141161
0.17464 0.68127 0.143587
0.310063 0.700206 0.153292
0.54258 0.696773 0.155016
0.768505 0.692058 0.151354
0.908446 0.70515 0.139223
0.974853 0.722911 0.208804
1 0.735317 0.263508
0.192508 0.807477 0.291493
0.241856 0.832349 0.286427
0.310536 0.85037 0.285328
0.450446 0.860197 0.290028
0.647776 0.854658 0.304295
0.817029 0.851835 0.345388
0.92285 0.855161 0.437949
0.973434 0.866377 0.511742
0.993561 0.874601 0.561456
0.305684 0.913054 0.426673
0.368612 0.92755 0.427359
0.450614 0.934585 0.433616
0.593973 0.932662 0.45452
0.753902 0.925643 0.501732
0.872755 0.925719 0.581659
0.940597 0.929 0.695949
0.975448 0.940017 0.761196
0.989868 0.947616 0.797543
0.393866 0.954787 0.517739
0.466789 0.961776 0.526452
0.55407 0.96257 0.542092
0.687266 0.957046 0.579034
0.817411 0.95256 0.645167
0.908293 0.956146 0.729961
0.959991 0.963897 0.816999
0.986847 0.973663 0.871626
0.99913 0.981155 0.897276
0 0 0.254978
0.0211185 0 0.275547
0.096788 0 0.27393
0.255924 0 0.2262
0.441474 0 0.0809186
0.530709 0 0
0.523842 0 0
0.462058 0 0.0108186
0.402518 0.0371557 0.0595865
0 0.0186618 0.275334
0.014725 0.016495 0.297581
0.0969406 0.00918593 0.297765
0.282612 0 0.248142
0.512993 0 0.0866865
0.634714 0 0
0.657633 0 0
0.629999 0.0416419 0.00796521
0.594507 0.0719005 0.0538643
0 0.0826886 0.251514
0.00169375 0.0853895 0.273304
0.0819867 0.0827955 0.28333
0.286275 0.062211 0.248219
0.562875 0 0.0787823
0.70811 0.0322118 0
0.762005 0.0884565 0
0.765377 0.131472 0.0386664
0.752407 0.160159 0.0905318
0 0.213947 0.191821
0 0.227955 0.203021
0.0432898 0.238163 0.211032
0.241535 0.229587 0.201602
0.556527 0.211093 0.111604
0.763088 0.227817 0.0379034
0.859434 0.266743 0.0649577
0.894453 0.306157 0.136278
0.903624 0.332494 0.183795
0 0.415122 0.160357
0 0.443366 0.160739
0.0404059 0.465583 0.164294
0.21062 0.479942 0.169955
0.516808 0.459953 0.152575
0.783368 0.455711 0.0381781
0.915938 0.483207 0.0857099
0.974945 0.515465 0.175311
0.997696 0.536553 0.228733
0.0272526 0.641154 0.241215
0.0819715 0.67216 0.239841
0.147692 0.698085 0.240009
0.288533 0.718135 0.24271
0.534371 0.712016 0.243687
0.776074 0.701915 0.249622
0.920729 0.712978 0.260197
0.986603 0.730175 0.323354
1 0.742687 0.370901
0.149416 0.823423 0.385168
0.205264 0.847883 0.382422
0.279789 0.865431 0.381689
0.428107 0.874174 0.385748
0.636912 0.865187 0.401038
0.814527 0.859586 0.437766
0.92166 0.861448 0.529427
0.972671 0.872969 0.595056
0.99292 0.881422 0.637781
0.277974 0.925551 0.517693
0.337087 0.940047 0.519738
0.42678 0.945205 0.527276
0.580728 0.941131 0.54905
0.748058 0.931685 0.592981
0.870985 0.931212 0.662409
0.940139 0.935576 0.755611
0.975555 0.946532 0.809842
0.990311 0.954192 0.839536
0.382467 0.963729 0.60351
0.450141 0.970748 0.610986
0.541634 0.97026 0.626017
0.683207 0.963088 0.660456
0.817548 0.957534 0.717205
0.909804 0.961242 0.787213
0.962631 0.970504 0.854719
0.989471 0.979889 0.902144
1 0.987076 0.923247
0 0 0.375036
0.0107118 0 0.414374
0.0741741 0 0.431968
0.215015 0 0.405493
0.395132 0 0.321202
0.519738 0 0.19559
0.542779 0 0.114
0.502342 0 0.109117
0.45391 0.0339971 0.127962
0 0.0127718 0.421134
0.0101472 0.0115511 0.465583
0.0798657 0.00613413 0.488136
0.245884 0 0.467399
0.470665 0 0.383856
0.633097 0 0.257115
0.690044 0 0.169619
0.684321 0.000320439 0.149203
0.660517 0.0368048 0.160266
0 0.0746319 0.42826
0.00469978 0.0778821 0.476448
0.075639 0.0763409 0.50811
0.258396 0.060029 0.503777
0.525933 0.0451209 0.42829
0.722789 0.0159457 0.309529
0.80647 0.016434 0.235203
0.827207 0.0559396 0.218723
0.824155 0.0982071 0.226658
0 0.206302 0.395941
0 0.220035 0.436728
0.052018 0.22948 0.471138
0.231739 0.225437 0.492149
0.554299 0.205859 0.440131
0.804852 0.184619 0.343252
0.920424 0.205463 0.301747
0.966461 0.246738 0.307897
0.980728 0.277226 0.323613
0 0.415137 0.359228
0 0.442725 0.379644
0.0381628 0.467033 0.396963
0.185443 0.486946 0.407126
0.506416 0.470314 0.387869
0.792355 0.469917 0.34789
0.930083 0.499763 0.367117
0.990997 0.532174 0.404425
1 0.553063 0.431022
0.0218509 0.649073 0.411734
0.0553292 0.68127 0.419028
0.110323 0.70808 0.423011
0.242954 0.73286 0.421164
0.51133 0.725597 0.41593
0.773541 0.710506 0.420584
0.924239 0.720928 0.438514
0.989776 0.738918 0.487358
1 0.751675 0.52195
0.149416 0.832227 0.531716
0.189242 0.856947 0.533944
0.251942 0.875227 0.534752
0.389136 0.886473 0.533913
0.617838 0.874571 0.547112
0.806622 0.866682 0.576364
0.916854 0.869017 0.64538
0.969207 0.881117 0.694728
0.989731 0.889815 0.726757
0.285756 0.931533 0.641764
0.342535 0.94461 0.646998
0.421714 0.951125 0.652674
0.564294 0.949645 0.665156
0.742626 0.938445 0.700633
0.869673 0.937392 0.752239
0.940978 0.944121 0.816373
0.976226 0.954391 0.860975
0.991333 0.96199 0.883741
0.396338 0.967437 0.708415
0.465126 0.973068 0.716487
0.549966 0.97348 0.727062
0.681422 0.969192 0.749676
0.819821 0.963058 0.793759
0.913298 0.967056 0.846479
0.966491 0.977768 0.894514
0.992721 0.98703 0.933516
1 0.994202 0.950088
0 0 0.424735
0.00608835 0 0.476707
0.0575418 0 0.511788
0.172686 0 0.517968
0.3393 0 0.463981
0.467475 0 0.375265
0.517693 0 0.283589
0.499687 0.0192111 0.235142
0.465095 0.0532387 0.221653
0 0.0137179 0.488487
0.0122072 0.0134279 0.551507
0.0708782 0.0104677 0.594965
0.209689 0 0.6103
0.421592 0 0.563897
0.587579 0 0.48368
0.671305 0.0192874 0.394141
0.687449 0.044007 0.340826
0.677104 0.0706188 0.320439
0 0.0729076 0.53283
0.0144808 0.0770275 0.599023
0.0771649 0.0777447 0.6486
0.233249 0.0676585 0.676066
0.485878 0.0475166 0.641245
0.684062 0.0646525 0.57409
0.791272 0.0939345 0.498512
0.8309 0.118288 0.453986
0.839338 0.143694 0.436255
0 0.20209 0.55285
0.00926223 0.216037 0.614984
0.0704662 0.226154 0.667384
0.232151 0.226993 0.712932
0.528954 0.207813 0.702235
0.773892 0.220981 0.654795
0.907897 0.255085 0.602197
0.967468 0.287114 0.57705
0.989364 0.311452 0.569131
0 0.412909 0.547219
0.0111696 0.440162 0.591577
0.0642405 0.463127 0.631037
0.205417 0.48304 0.672663
0.49424 0.473869 0.681895
0.786389 0.473228 0.651209
0.948394 0.494163 0.624155
1 0.521553 0.621088
1 0.540978 0.625238
0.0494087 0.65156 0.588998
0.079118 0.682658 0.613413
0.130373 0.708888 0.633585
0.254795 0.732586 0.649943
0.486091 0.734218 0.643961
0.758404 0.71989 0.634012
0.913649 0.731746 0.638727
0.980179 0.750866 0.66276
1 0.764187 0.680964
0.169619 0.836164 0.677836
0.207752 0.859709 0.690929
0.267811 0.876783 0.699229
0.400732 0.887556 0.703883
0.599954 0.883162 0.70277
0.796048 0.873701 0.718379
0.910689 0.877501 0.756573
0.964569 0.889982 0.78735
0.985504 0.899107 0.80856
0.308598 0.93373 0.757336
0.365591 0.945785 0.765621
0.444083 0.950835 0.771496
0.583551 0.949798 0.779095
0.7411 0.945006 0.796262
0.869871 0.943618 0.831754
0.942779 0.952682 0.869749
0.977691 0.96228 0.905409
0.992782 0.969909 0.921843
0.424018 0.967834 0.802167
0.493629 0.97258 0.809827
0.577264 0.972686 0.81709
0.703655 0.969726 0.831739
0.825864 0.969055 0.858747
0.918456 0.973175 0.896941
0.970657 0.984222 0.931945
0.996811 0.994079 0.960616
1 1 0.973419
0 0 0.389776
0.00866712 0 0.452247
0.0496376 0 0.504112
0.141238 0 0.541848
0.283085 0 0.524254
0.411017 0 0.459602
0.467277 0.0110323 0.382605
0.464546 0.0532387 0.321645
0.440406 0.0827192 0.293217
0 0.0211337 0.47129
0.020676 0.0216831 0.552407
0.0694133 0.0204776 0.614832
0.184207 0.014023 0.661204
0.370474 0.00195315 0.650294
0.541512 0.00570687 0.596979
0.631388 0.0445869 0.531197
0.660426 0.0888838 0.471626
0.659953 0.111894 0.441077
0 0.0781567 0.551186
0.0305028 0.0828565 0.633295
0.0848859 0.085359 0.697139
0.218463 0.0815595 0.748745
0.444434 0.0675822 0.746792
0.650019 0.0712291 0.707774
0.763012 0.110399 0.660197
0.812406 0.158083 0.613245
0.827832 0.182162 0.588479
0.00657664 0.204196 0.622415
0.0382239 0.218631 0.69723
0.0948653 0.230152 0.759487
0.240558 0.235904 0.818448
0.505714 0.225223 0.832792
0.753231 0.22945 0.813687
0.890242 0.266514 0.787488
0.954711 0.314107 0.757229
0.980789 0.339544 0.742397
0.0238193 0.41352 0.66099
0.0506905 0.440604 0.717693
0.102373 0.464042 0.767773
0.237003 0.48455 0.821363
0.499825 0.482109 0.845457
0.775891 0.479332 0.839429
0.930465 0.507881 0.822873
1 0.540795 0.806577
1 0.560189 0.80032
0.0892958 0.653315 0.711696
0.116045 0.683848 0.747921
0.164889 0.708873 0.777935
0.285481 0.731914 0.807141
0.503792 0.734005 0.815229
0.749233 0.726787 0.810071
0.905699 0.738277 0.799344
0.980224 0.755444 0.798825
1 0.767926 0.802991
0.202319 0.838102 0.785306
0.238468 0.860121 0.8047
0.29778 0.876371 0.818296
0.427024 0.886152 0.826383
0.61622 0.88333 0.824491
0.789425 0.881422 0.827176
0.906447 0.886061 0.843412
0.960449 0.89897 0.859709
0.981003 0.908049 0.872282
0.341787 0.933608 0.841871
0.39881 0.944442 0.851347
0.476738 0.949294 0.857145
0.610864 0.948516 0.861219
0.758984 0.946365 0.870069
0.872267 0.950561 0.890135
0.945098 0.959136 0.916075
0.97998 0.969573 0.93933
0.994858 0.977279 0.951263
0.460288 0.966506 0.870298
0.529183 0.970413 0.87657
0.6103 0.970932 0.881819
0.729046 0.969467 0.890593
0.842832 0.971267 0.908385
0.924514 0.979187 0.933959
0.975525 0.990112 0.960235
1 1 0.981247
1 1 0.991257
0 0 0.311971
0.0148165 0 0.380728
0.0479744 0 0.446204
0.122515 0 0.510552
0.242222 0 0.523445
0.360678 0 0.480827
0.421393 0.0274968 0.41622
0.423865 0.0713054 0.359609
0.405905 0.103182 0.326406
0.00700389 0.0308995 0.407599
0.0313573 0.0321813 0.504036
0.0720684 0.0320897 0.583719
0.169192 0.0294194 0.65536
0.331731 0.022858 0.672847
0.497444 0.0276646 0.640604
0.595605 0.0554665 0.589014
0.629633 0.0997177 0.539696
0.633783 0.131914 0.507164
0.0194705 0.0856794 0.516625
0.0469215 0.0910964 0.614328
0.0944228 0.0948348 0.692546
0.210925 0.0950332 0.763668
0.41323 0.0875868 0.785321
0.616007 0.091722 0.76553
0.739025 0.120775 0.73196
0.793362 0.161852 0.699367
0.811826 0.196445 0.674113
0.0373236 0.208591 0.631388
0.0654765 0.223697 0.717998
0.117922 0.236545 0.78854
0.250446 0.246326 0.858274
0.490776 0.242725 0.888075
0.732769 0.24799 0.884733
0.877333 0.278904 0.870542
0.946014 0.316182 0.855543
0.973266 0.348592 0.839734
0.0644846 0.415656 0.709529
0.0888533 0.443046 0.774456
0.137972 0.467201 0.82977
0.266041 0.489372 0.888563
0.508263 0.492119 0.919676
0.76733 0.492821 0.923705
0.924575 0.51516 0.917723
0.998413 0.545876 0.908858
1 0.568841 0.899214
0.129213 0.654597 0.77792
0.153445 0.684947 0.819501
0.200427 0.709575 0.853773
0.317281 0.732403 0.887846
0.525216 0.735897 0.900771
0.752682 0.732341 0.89868
0.900404 0.742718 0.89424
0.969421 0.76347 0.886763
0.998337 0.776776 0.883818
0.235569 0.838483 0.847639
0.270466 0.860166 0.86978
0.329137 0.875456 0.885527
0.455772 0.884749 0.895216
0.635569 0.883528 0.893492
0.798199 0.88397 0.893034
0.904326 0.892378 0.90013
0.959884 0.904768 0.906523
0.979858 0.914321 0.913512
0.374334 0.932418 0.891936
0.431525 0.94258 0.901488
0.507836 0.947417 0.907118
0.636744 0.947478 0.909392
0.775708 0.947402 0.914305
0.881651 0.953506 0.926955
0.947555 0.964279 0.945037
0.982254 0.97499 0.961074
0.996918 0.982681 0.970214
0.493416 0.964324 0.910948
0.561212 0.968429 0.916426
0.639261 0.969268 0.920089
0.751064 0.969299 0.925948
0.856962 0.973053 0.938704
0.932692 0.982605 0.957687
0.979507 0.994781 0.978012
1 1 0.994049
1 1 1
0.000579843 0.000946059 0.250172
0.0198672 0.00251774 0.320241
0.0486305 0.00257877 0.391745
0.113863 0.0016022 0.471839
0.219806 0.00218204 0.503258
0.329717 0.0132906 0.475868
0.390616 0.0435187 0.418631
0.396384 0.0830243 0.366354
0.381262 0.114443 0.334676
0.0179141 0.0379644 0.351858
0.0392004 0.0399023 0.455451
0.0755932 0.04065 0.545968
0.16199 0.0397955 0.634363
0.310216 0.0368658 0.669856
0.469215 0.0428931 0.651225
0.570748 0.0698405 0.607401
0.608713 0.106584 0.563912
0.615 0.138811 0.53434
0.0339666 0.0915236 0.476097
0.0584268 0.0973983 0.584268
0.101488 0.101854 0.673411
0.208362 0.104479 0.758129
0.39585 0.100908 0.794324
0.593744 0.105882 0.785718
0.721202 0.133608 0.75938
0.779828 0.170169 0.731762
0.800916 0.198459 0.712993
0.0581979 0.21207 0.619303
0.0839399 0.228 0.714839
0.132509 0.241398 0.792111
0.257328 0.253864 0.869108
0.483436 0.25417 0.907851
0.718837 0.260655 0.912764
0.867124 0.290074 0.904418
0.939284 0.325963 0.892592
0.968597 0.350545 0.883818
0.0916609 0.417258 0.724727
0.114153 0.44535 0.794873
0.160678 0.469551 0.853193
0.284291 0.493141 0.914977
0.513939 0.498894 0.949203
0.762097 0.502007 0.957916
0.919493 0.523354 0.956405
0.995392 0.550958 0.950454
1 0.570947 0.945129
0.156161 0.654994 0.805997
0.178302 0.685527 0.850553
0.223728 0.710506 0.886946
0.338125 0.732845 0.922621
0.539101 0.737972 0.937667
0.755627 0.73637 0.936492
0.898802 0.747433 0.932036
0.967315 0.76556 0.928267
0.994736 0.780835 0.92256
0.257832 0.838315 0.876493
0.292668 0.859953 0.900282
0.350561 0.874632 0.916167
0.475044 0.88423 0.926726
0.648814 0.883757 0.925017
0.804807 0.885634 0.923613
0.906386 0.895079 0.927596
0.957366 0.908354 0.931823
0.979126 0.917556 0.93547
0.396078 0.931624 0.915969
0.452659 0.941268 0.925505
0.527916 0.945983 0.93048
0.652796 0.946899 0.932433
0.786282 0.947951 0.935378
0.887602 0.955169 0.945052
0.949966 0.967025 0.959609
0.983658 0.978317 0.972519
0.997925 0.985779 0.980255
0.514504 0.962997 0.930541
0.581552 0.967163 0.93576
0.656809 0.968322 0.938582
0.764248 0.969314 0.943328
0.865568 0.974151 0.953536
0.937865 0.984588 0.969573
0.982132 0.997482 0.986999
1 1 1
1 1 1
