luts/Cliff-Log3G10.cube
TITLE "Generated by Resolve"
LUT_3D_SIZE 9
0 0 0.0108644
0.0469978 0 0
0.183108 0 0
0.347326 0 0
0.408057 0.00662242 0
0.333272 0.00770581 0
0.224445 0.051545 0.0313726
0.167056 0.0772412 0.06804
0.154757 0.0831311 0.0756847
0 0.0363928 0
0.0350347 0.0302739 0
0.178729 0.0215915 0
0.378683 0.0332341 0
0.488548 0.0315862 0
0.454627 0.0422065 0
0.315419 0.0731365 0.0251164
0.207553 0.0876631 0.0706951
0.173571 0.0879988 0.0779431
0 0.143404 0
0.00062562 0.146365 0
0.156085 0.138399 0
0.405753 0.119539 0
0.594965 0.125154 0
0.649317 0.162493 0
0.622797 0.194751 0
0.581415 0.211063 0.0304417
0.56495 0.212772 0.0497444
0 0.323278 0
0 0.337942 0
0.130999 0.364752 0
0.396979 0.359304 0
0.661601 0.361379 0
0.790539 0.394156 0
0.835706 0.42649 0
0.84625 0.443351 0
0.847044 0.446357 0.000289921
0.0631418 0.558831 0.0416266
0.0631418 0.558816 0.0416266
0.170596 0.614496 0.0509194
0.439307 0.640238 0.0775158
0.707927 0.643442 0.0604868
0.866407 0.663005 0
0.935256 0.683162 0.0604257
0.959442 0.694148 0.1205
0.96405 0.696406 0.134081
0.218982 0.764202 0.203037
0.218967 0.764187 0.203037
0.218967 0.764187 0.203037
0.515465 0.83003 0.205676
0.776867 0.83328 0.223331
0.909636 0.83975 0.322133
0.965743 0.852079 0.395651
0.98497 0.8589 0.440864
0.98883 0.860578 0.45272
0.338079 0.879927 0.33228
0.338079 0.879927 0.33228
0.338064 0.879927 0.332265
0.470542 0.911009 0.329549
0.831495 0.913924 0.429999
0.933379 0.917693 0.59028
0.972366 0.928878 0.67631
0.985534 0.935134 0.716716
0.988952 0.937087 0.728084
0.405951 0.922576 0.404639
0.405951 0.922576 0.404639
0.405951 0.922576 0.404639
0.405936 0.92256 0.404623
0.854337 0.940581 0.554696
0.946334 0.947662 0.714549
0.979431 0.958206 0.795102
0.990799 0.964569 0.826612
0.994171 0.966705 0.836164
0.419577 0.929259 0.419181
0.419577 0.929259 0.419181
0.419577 0.929259 0.419181
0.419577 0.929259 0.419181
0.854368 0.94464 0.573373
0.948882 0.952667 0.73402
0.981155 0.963272 0.81413
0.992309 0.969665 0.844083
0.995911 0.971939 0.853712
0 0 0.0828412
0.043061 0 0.0765545
0.200214 0 0.0132753
0.367926 0 0
0.402808 0.00544747 0
0.325994 0.00631724 0
0.22446 0.051545 0.0313726
0.167056 0.0772412 0.06804
0.154757 0.0831311 0.0756847
0 0.0331579 0.0525978
0.0278782 0.0300145 0.0466926
0.197925 0.013611 0
0.394171 0.023621 0
0.485054 0.0300755 0
0.448005 0.0396124 0
0.307088 0.0709239 0.0257267
0.199893 0.0855573 0.0701457
0.166217 0.0859541 0.0770581
0 0.144411 0
0 0.147082 0
0.156359 0.137301 0
0.405295 0.118318 0
0.594171 0.123568 0
0.647684 0.160861 0
0.620188 0.193088 0
0.578088 0.209384 0.0312963
0.561669 0.211353 0.0507973
0 0.322698 0
0 0.337179 0
0.130724 0.364019 0
0.396796 0.358572 0
0.661418 0.360586 0
0.790249 0.393393 0
0.835294 0.425757 0
0.845762 0.442649 0
0.846525 0.44564 0.000289921
0.0629892 0.558618 0.0414893
0.062974 0.558618 0.0414893
0.170245 0.614206 0.0507515
0.439078 0.64004 0.0773785
0.707881 0.643275 0.0602884
0.866361 0.662806 0
0.935195 0.682979 0.0601358
0.959426 0.693996 0.120302
0.963989 0.696223 0.133898
0.218921 0.764141 0.202976
0.218906 0.764141 0.202976
0.218906 0.764126 0.20296
0.515312 0.829984 0.205631
0.776806 0.833234 0.22327
0.909621 0.839719 0.322026
0.965743 0.852033 0.395529
0.98497 0.858869 0.440787
0.98883 0.860533 0.452628
0.338048 0.879911 0.33225
0.338048 0.879911 0.33225
0.338033 0.879911 0.332235
0.470222 0.910979 0.329488
0.831464 0.913909 0.429923
0.933364 0.917678 0.590219
0.972366 0.928862 0.676234
0.985534 0.935119 0.716655
0.988937 0.937072 0.728038
0.405936 0.92256 0.404608
0.405936 0.92256 0.404608
0.405921 0.92256 0.404608
0.405921 0.92256 0.404593
0.854307 0.940566 0.554635
0.946319 0.947662 0.714504
0.979431 0.958206 0.795071
0.990799 0.964553 0.826581
0.994171 0.966705 0.836133
0.419577 0.929259 0.419181
0.419577 0.929259 0.419181
0.419577 0.929259 0.419181
0.419577 0.929259 0.419181
0.854353 0.94464 0.573358
0.948882 0.952667 0.734005
0.981155 0.963272 0.81413
0.992325 0.969665 0.844083
0.995911 0.971939 0.853712
0 0 0.227481
0.0301061 0 0.238453
0.176822 0 0.207477
0.397833 0 0.0375525
0.476127 0 0
0.322805 0.00555428 0
0.22446 0.051545 0.0313726
0.167071 0.0772412 0.0680247
0.154757 0.0831311 0.0756847
0 0.0160525 0.235294
0.022034 0.0134737 0.247501
0.187015 0 0.213352
0.45568 0 0.00972
0.561013 0 0
0.423911 0.0312047 0
0.278325 0.0639048 0.0284581
0.173281 0.0787976 0.0687114
0.154757 0.0831311 0.0756847
0 0.140642 0.143755
0 0.147311 0.148669
0.146975 0.14403 0.137728
0.47248 0.118685 0.00143435
0.65098 0.122438 0
0.641749 0.154971 0
0.610788 0.187137 0
0.566201 0.203555 0.0336767
0.548455 0.205158 0.0528573
0 0.333059 0
0 0.347433 0
0.121324 0.374411 0
0.398291 0.357946 0
0.660563 0.357839 0
0.789197 0.390661 0
0.833814 0.423133 0
0.844007 0.440055 0
0.844694 0.443061 0.000335698
0.0624094 0.557885 0.041001
0.0624094 0.55787 0.0409857
0.169085 0.613275 0.0502632
0.438224 0.639323 0.0768292
0.707683 0.642588 0.0594339
0.866163 0.662074 0
0.934905 0.682338 0.0590066
0.959304 0.693385 0.119493
0.96379 0.695537 0.133181
0.218708 0.763928 0.202747
0.218708 0.763928 0.202747
0.218708 0.763928 0.202731
0.514778 0.829877 0.205493
0.776577 0.833066 0.223011
0.90956 0.839551 0.321614
0.965713 0.851881 0.395056
0.984985 0.858747 0.440452
0.988815 0.86038 0.452186
0.337942 0.879835 0.332143
0.337942 0.879835 0.332143
0.337942 0.87982 0.332128
0.469093 0.910826 0.32929
0.831342 0.913863 0.429648
0.933333 0.917617 0.589944
0.972351 0.928801 0.67602
0.985534 0.935058 0.716442
0.988937 0.937026 0.727886
0.405844 0.92253 0.404517
0.405844 0.92253 0.404517
0.405844 0.922515 0.404517
0.405829 0.922515 0.404517
0.854215 0.940551 0.554406
0.946288 0.947616 0.714351
0.979416 0.958175 0.794949
0.990784 0.964523 0.826459
0.994156 0.966674 0.836027
0.419577 0.929259 0.419181
0.419577 0.929259 0.419181
0.419577 0.929259 0.419181
0.419577 0.929259 0.419181
0.854292 0.94464 0.573281
0.948867 0.952667 0.733989
0.981155 0.963272 0.814115
0.992309 0.96965 0.844068
0.995911 0.971939 0.853712
0 0 0.361227
0.0123751 0 0.393668
0.131167 0 0.402731
0.333013 0 0.320851
0.485939 0 0.157321
0.49984 0 0.00514229
0.313054 0.0312352 0.0158236
0.167102 0.0772259 0.0680095
0.154757 0.0831311 0.0756847
0 0 0.387762
0.0106203 0 0.424323
0.1393 0 0.435126
0.363348 0 0.347601
0.527901 0 0.17052
0.515496 0 0
0.300084 0.0349889 0.0180972
0.167117 0.0772259 0.0680095
0.154757 0.0831311 0.0756847
0 0.108446 0.403754
0 0.11397 0.446845
0.138369 0.111666 0.492164
0.462821 0.0803388 0.430152
0.734157 0.030518 0.246098
0.807523 0.0754711 0.0405127
0.591699 0.164401 0
0.517052 0.181476 0.0429084
0.495644 0.183032 0.0620584
0 0.335225 0.301381
0 0.350545 0.313359
0.0709544 0.392538 0.342519
0.411826 0.383124 0.317098
0.763699 0.373785 0.202258
0.898512 0.397147 0.0426032
0.828565 0.41416 0
0.837812 0.431235 0
0.838056 0.434104 0.000610361
0.0181735 0.594553 0.169436
0.018555 0.594369 0.168215
0.131548 0.652659 0.163149
0.416968 0.674632 0.162402
0.72108 0.652964 0.0944839
0.865461 0.65948 0
0.934142 0.679927 0.0552834
0.958618 0.690974 0.116274
0.96318 0.693187 0.130266
0.218006 0.76318 0.201968
0.218006 0.763165 0.201968
0.218006 0.763165 0.201953
0.512795 0.829419 0.204944
0.775814 0.832456 0.222126
0.909346 0.838972 0.320134
0.965637 0.851331 0.393439
0.984955 0.858213 0.438941
0.988815 0.859846 0.450553
0.33756 0.879545 0.331746
0.33756 0.879545 0.331746
0.33756 0.879545 0.331746
0.46508 0.910262 0.328588
0.830884 0.913664 0.428855
0.933211 0.917433 0.589075
0.972305 0.928618 0.675196
0.985504 0.934874 0.715694
0.988922 0.936843 0.727184
0.405539 0.922377 0.404196
0.405539 0.922377 0.404196
0.405539 0.922377 0.404196
0.405524 0.922362 0.404166
0.853834 0.940444 0.553613
0.946197 0.947494 0.713787
0.979355 0.958053 0.794491
0.990753 0.964401 0.826047
0.994125 0.966552 0.835645
0.419577 0.929259 0.419181
0.419577 0.929259 0.419181
0.419577 0.929259 0.419181
0.419577 0.929259 0.419181
0.854093 0.944625 0.573022
0.948837 0.952667 0.733928
0.98114 0.963272 0.814099
0.992309 0.96965 0.844053
0.995911 0.971939 0.853712
0 0 0.398886
0 0 0.447517
0.0912947 0 0.501228
0.26392 0 0.468116
0.418097 0 0.372595
0.476036 0 0.259174
0.454475 0.0117342 0.195529
0.419669 0.0376287 0.173281
0.409567 0.0435492 0.166445
0 0 0.396918
0 0 0.445991
0.0906081 0 0.500954
0.263783 0 0.467979
0.41828 0 0.372244
0.476249 0 0.258625
0.454582 0.0115663 0.194949
0.419654 0.0374914 0.172717
0.409522 0.0434119 0.165881
0 0.0290837 0.489448
0 0.0302586 0.548928
0.118135 0.0251164 0.635493
0.364614 0.00210575 0.618509
0.586725 0 0.528786
0.671656 0.0171359 0.392309
0.625559 0.0188907 0.267308
0.536889 0.0353552 0.203708
0.494469 0.0407111 0.183688
0 0.299504 0.543023
0 0.307225 0.562264
0.0937362 0.348379 0.675212
0.402716 0.346319 0.717494
0.758236 0.337896 0.677378
0.938155 0.365698 0.603479
1 0.384024 0.539696
1 0.392233 0.491035
1 0.391577 0.46659
0.021973 0.600763 0.547936
0.0219272 0.600763 0.547768
0.0834058 0.657008 0.593225
0.353323 0.696406 0.615427
0.718196 0.677913 0.587381
0.915984 0.688579 0.561288
0.989792 0.705089 0.542931
1 0.712978 0.516503
1 0.71368 0.496254
0.137377 0.818769 0.535134
0.137362 0.818753 0.534783
0.137224 0.818692 0.533516
0.42208 0.880949 0.533837
0.760235 0.861723 0.546136
0.911254 0.859434 0.579248
0.97174 0.862119 0.51783
0.984878 0.856413 0.433539
0.988815 0.858076 0.445212
0.336278 0.87866 0.330373
0.336278 0.87866 0.330373
0.336278 0.87866 0.330373
0.451713 0.908415 0.326467
0.829404 0.913054 0.426032
0.93283 0.916793 0.58616
0.972183 0.927993 0.672557
0.985428 0.934249 0.713252
0.988785 0.936263 0.724758
0.404562 0.921874 0.403159
0.404562 0.921874 0.403159
0.404562 0.921874 0.403143
0.404547 0.921859 0.403143
0.852567 0.940093 0.550927
0.945861 0.947097 0.711925
0.979187 0.957656 0.792981
0.99057 0.964019 0.824964
0.994018 0.966186 0.834394
0.419577 0.929259 0.419181
0.419577 0.929259 0.419181
0.419577 0.929259 0.419181
0.419577 0.929259 0.419181
0.853483 0.944549 0.572198
0.94873 0.952651 0.73373
0.981109 0.963256 0.814023
0.992294 0.969635 0.844007
0.995911 0.971939 0.853712
0 0 0.340414
0 0 0.356374
0.0594797 0 0.474022
0.201587 0 0.501625
0.346929 0 0.443214
0.411078 0.0059968 0.361624
0.405386 0.0526589 0.296498
0.385336 0.0767529 0.269718
0.379904 0.0825971 0.263706
0 0 0.340551
0 0 0.354162
0.058732 0 0.473548
0.201328 0 0.501701
0.34696 0 0.443214
0.41117 0.00593576 0.361578
0.405463 0.0526131 0.296437
0.385397 0.0766918 0.269642
0.379965 0.0825513 0.26363
0 0 0.341024
0 0 0.346563
0.0561379 0 0.471717
0.200427 0 0.50193
0.347066 0 0.443259
0.411475 0.00573739 0.361425
0.405783 0.05243 0.296162
0.385672 0.0765087 0.269352
0.380224 0.0823682 0.263355
0.0101472 0.197299 0.606714
0.010132 0.197253 0.606683
0.10576 0.227512 0.773953
0.390082 0.228595 0.849485
0.710018 0.222629 0.837476
0.875868 0.249561 0.805615
0.937392 0.289082 0.761593
0.954604 0.302037 0.733669
0.956191 0.302434 0.724163
0.0679179 0.575372 0.697337
0.0678874 0.575357 0.697292
0.0995651 0.616419 0.755352
0.369314 0.668666 0.839216
0.70808 0.659541 0.83978
0.905287 0.672908 0.823621
0.987198 0.692821 0.805966
1 0.702892 0.798001
1 0.705058 0.794736
0.184161 0.81767 0.770748
0.184146 0.81767 0.770718
0.1841 0.81767 0.770596
0.43006 0.876829 0.820874
0.735515 0.871015 0.816007
0.896208 0.873838 0.82707
0.957931 0.886275 0.838102
0.97821 0.893599 0.845319
0.982696 0.89543 0.846464
0.306996 0.92668 0.800809
0.306981 0.92668 0.800748
0.306905 0.926665 0.80058
0.385489 0.943938 0.813809
0.815198 0.944121 0.845853
0.932876 0.950988 0.882628
0.974212 0.960632 0.910536
0.988418 0.966537 0.920012
0.991989 0.968154 0.922332
0.384466 0.960006 0.790997
0.384436 0.960006 0.790921
0.384314 0.960006 0.790631
0.383932 0.960006 0.789654
0.854505 0.964157 0.857923
0.955383 0.974701 0.907103
0.98822 0.983871 0.936904
0.999527 0.9888 0.944656
1 0.990173 0.946273
0.398184 0.965774 0.7682
0.398154 0.965774 0.768078
0.398016 0.965774 0.767651
0.397543 0.965774 0.766155
0.857939 0.966613 0.84593
0.958984 0.977691 0.901762
0.990021 0.985809 0.931426
1 0.989212 0.93489
1 0.989456 0.932601
0 0 0.249958
0 0 0.249973
0.0354772 0 0.368841
0.160906 0 0.466972
0.292561 0 0.443412
0.358633 0.0319677 0.375769
0.358083 0.0720226 0.321019
0.342535 0.098909 0.293217
0.337972 0.10515 0.28719
0 0 0.25005
0 0 0.250065
0.0347601 0 0.367636
0.160693 0 0.466972
0.292546 0 0.443473
0.358663 0.0319371 0.375799
0.358129 0.0719921 0.321035
0.34258 0.0988785 0.293233
0.338003 0.105135 0.28719
0 0 0.250401
0 0 0.250416
0.0321813 0 0.363241
0.159884 0 0.466972
0.29247 0 0.443641
0.358785 0.0318151 0.375891
0.358328 0.0718853 0.32108
0.342763 0.0987869 0.293217
0.338109 0.105058 0.287175
0 0 0.251637
0 0 0.251652
0.0229496 0 0.346166
0.156542 0 0.467033
0.29218 0 0.444251
0.359213 0.0313573 0.376211
0.358999 0.0714885 0.321218
0.343374 0.0984512 0.293217
0.338537 0.104814 0.287144
0.100343 0.521126 0.738613
0.100313 0.521096 0.738598
0.101289 0.525002 0.745388
0.370504 0.615335 0.919112
0.708858 0.613397 0.933928
0.907057 0.626673 0.929717
0.986206 0.648539 0.921096
1 0.663355 0.911376
1 0.666041 0.908782
0.218006 0.806729 0.840162
0.21799 0.806729 0.840146
0.217945 0.806714 0.840101
0.428595 0.866072 0.904891
0.738964 0.864729 0.901656
0.891203 0.872389 0.903593
0.954513 0.88574 0.904585
0.976455 0.893248 0.906752
0.981384 0.895247 0.907012
0.348241 0.922469 0.884871
0.348241 0.922469 0.884855
0.348196 0.922454 0.88481
0.358557 0.926101 0.888045
0.825681 0.944793 0.915312
0.933394 0.956863 0.935683
0.976013 0.967956 0.952193
0.990097 0.974487 0.959472
0.993851 0.976516 0.961883
0.439841 0.956268 0.896452
0.439826 0.956268 0.896452
0.439796 0.956268 0.896406
0.439658 0.956268 0.896254
0.868666 0.968856 0.931289
0.961501 0.983825 0.960525
0.994797 0.995361 0.979522
1 1 0.987655
1 1 0.99028
0.468696 0.963272 0.89778
0.468696 0.963272 0.897765
0.46865 0.963272 0.897734
0.468528 0.963272 0.897581
0.877775 0.974456 0.935119
0.969116 0.990356 0.967224
1 1 0.985809
1 1 0.995163
1 1 0.99765
0 0 0.226596
0 0 0.226596
0.0181277 0 0.304616
0.147921 0 0.45098
0.279133 0.00590524 0.437568
0.344411 0.0387732 0.374044
0.344244 0.0796216 0.320256
0.328603 0.105287 0.294179
0.323476 0.111971 0.287633
0 0 0.226596
0 0 0.226596
0.0173953 0 0.302861
0.147631 0 0.450889
0.279057 0.00588998 0.437598
0.344396 0.0387732 0.374075
0.344244 0.0796216 0.320256
0.328618 0.105287 0.294194
0.323476 0.111971 0.287633
0 0 0.226596
0 0 0.226596
0.0147097 0 0.295491
0.146624 0 0.450568
0.278813 0.00584421 0.43772
0.344366 0.0387274 0.374136
0.344274 0.0795911 0.320287
0.328634 0.105257 0.294209
0.323476 0.111971 0.287633
0 0 0.226596
0 0 0.226596
0.00474556 0 0.267063
0.143206 0 0.449332
0.277958 0.00567636 0.438132
0.344289 0.0385748 0.374365
0.344305 0.0794995 0.320363
0.328695 0.10518 0.294301
0.323476 0.111971 0.287633
0.0999619 0.462562 0.726177
0.0999619 0.462547 0.726162
0.0999466 0.462486 0.726146
0.353674 0.554604 0.931579
0.706966 0.555673 0.955398
0.908934 0.571908 0.954772
0.990921 0.594858 0.949554
1 0.608042 0.945922
1 0.611765 0.943877
0.226413 0.795972 0.854093
0.226413 0.795972 0.854093
0.226413 0.795972 0.854093
0.409476 0.856535 0.924651
0.735119 0.857557 0.923644
0.890135 0.866148 0.923919
0.951995 0.880323 0.925383
0.973739 0.88893 0.926574
0.978607 0.891066 0.926955
0.36434 0.918853 0.908293
0.36434 0.918853 0.908293
0.36434 0.918853 0.908293
0.364309 0.918837 0.908278
0.827207 0.943755 0.935637
0.934478 0.957397 0.951553
0.975982 0.969345 0.96434
0.990158 0.976074 0.970657
0.993835 0.97818 0.972702
0.459495 0.95346 0.921569
0.459495 0.95346 0.921569
0.459464 0.95346 0.921538
0.459358 0.95346 0.921477
0.872312 0.969207 0.948974
0.963348 0.985794 0.972778
0.996185 0.997726 0.988434
1 1 0.996139
1 1 0.998489
0.495018 0.961791 0.924025
0.495003 0.961791 0.924025
0.494987 0.961791 0.92401
0.494911 0.961791 0.923934
0.884596 0.975906 0.953338
0.972457 0.993637 0.980133
1 1 0.996551
1 1 1
1 1 1
0 0 0.226596
0 0 0.226596
0.00900282 0 0.27985
0.144778 0 0.449897
0.27834 0.00575265 0.437934
0.34432 0.0386511 0.374258
0.344289 0.0795453 0.320317
0.328664 0.105211 0.294255
0.323476 0.111971 0.287633
0 0 0.226596
0 0 0.226596
0.00816358 0 0.277623
0.144549 0 0.449775
0.278279 0.00573739 0.43798
0.344305 0.0386358 0.374273
0.344289 0.07953 0.320333
0.328664 0.105211 0.294255
0.323476 0.111971 0.287633
0 0 0.226596
0 0 0.226596
0.00553903 0 0.269352
0.143511 0 0.449439
0.278035 0.00569162 0.438102
0.344289 0.0385901 0.37435
0.344305 0.0794995 0.320348
0.328679 0.10518 0.294286
0.323476 0.111971 0.287633
0 0 0.226596
0 0 0.226596
0 0 0.240757
0.139788 0 0.448096
0.277134 0.00552377 0.438499
0.344213 0.0384527 0.374578
0.34435 0.079408 0.320439
0.328756 0.105089 0.294377
0.323476 0.111971 0.287633
0.0933852 0.430533 0.714122
0.0933852 0.430503 0.714107
0.09337 0.430442 0.714076
0.341711 0.519387 0.929152
0.705745 0.521126 0.956893
0.909834 0.539055 0.956252
0.992203 0.56286 0.950774
1 0.57612 0.947341
1 0.57995 0.945342
0.223194 0.790753 0.851926
0.223194 0.790753 0.851926
0.223194 0.790738 0.851926
0.394827 0.85182 0.92372
0.73051 0.853834 0.923903
0.889189 0.862165 0.923934
0.951827 0.876554 0.924849
0.973617 0.885115 0.925521
0.978943 0.887465 0.926207
0.361532 0.917479 0.907652
0.361532 0.917464 0.907637
0.361532 0.917464 0.907637
0.361501 0.917464 0.907637
0.824125 0.942901 0.935271
0.933257 0.956268 0.950759
0.975402 0.968505 0.964111
0.989532 0.975341 0.970626
0.993393 0.977539 0.973007
0.460624 0.952651 0.924254
0.460624 0.952651 0.924254
0.460624 0.952651 0.924254
0.460594 0.952651 0.924254
0.871122 0.968811 0.950881
0.963287 0.985641 0.974426
0.996139 0.997848 0.990127
1 1 0.997787
1 1 1
0.500221 0.961273 0.928649
0.500221 0.961273 0.928649
0.500221 0.961273 0.928649
0.500221 0.961273 0.928649
0.885481 0.976211 0.956832
0.97351 0.994324 0.982895
1 1 0.999176
1 1 1
1 1 1
