luts/IWLTBAP Coronado - Standard.cube
# Copyright: (C) Copyright 2010-2017 by IWLTBAP SAS
# Cannot be resold, shared or otherwise redistributed
# Website: https://luts.iwltbap.com
TITLE "IWLTBAP Coronado (Rec.709, sRGB, DCI-P3)"
LUT_3D_SIZE 9
0.003174 0.000793 0.003174
0.113251 0.017334 0.012604
0.255341 0.029175 0.007904
0.409027 0.040985 0.000793
0.557037 0.050354 0.000000
0.688354 0.053650 0.000000
0.794861 0.053009 0.000000
0.885437 0.049683 0.000000
0.975281 0.044739 0.000000
0.013397 0.038635 0.014191
0.105652 0.058044 0.018127
0.244507 0.077148 0.008667
0.405090 0.101471 0.000793
0.562012 0.121735 0.000000
0.695007 0.131500 0.000000
0.798584 0.135071 0.000000
0.887634 0.135376 0.000000
0.977539 0.135071 0.000000
0.025238 0.093414 0.022858
0.101868 0.113251 0.028381
0.219086 0.140015 0.025238
0.382172 0.171478 0.011047
0.550568 0.199127 0.001556
0.690796 0.216217 0.000000
0.797272 0.224152 0.000000
0.888306 0.228241 0.000000
0.979980 0.231781 0.000000
0.032349 0.165588 0.025238
0.110413 0.183502 0.035492
0.203979 0.208344 0.040222
0.341309 0.248077 0.040985
0.510925 0.290070 0.022858
0.666840 0.315308 0.007080
0.787476 0.326782 0.001556
0.886292 0.333405 0.000000
0.981934 0.339630 0.000000
0.020508 0.250214 0.022095
0.108246 0.270142 0.035492
0.200897 0.289307 0.044739
0.311218 0.320129 0.054932
0.456573 0.376129 0.061646
0.615692 0.429626 0.048981
0.756958 0.452637 0.028381
0.873840 0.458252 0.013397
0.978760 0.462433 0.005524
0.005524 0.342590 0.041748
0.079102 0.366882 0.042511
0.175568 0.387024 0.051025
0.287476 0.406036 0.058655
0.417145 0.446381 0.067871
0.566162 0.518066 0.073669
0.714203 0.578094 0.065643
0.845764 0.600189 0.052979
0.962860 0.604431 0.040985
0.004730 0.452026 0.078125
0.070007 0.475372 0.083344
0.146973 0.497437 0.082397
0.247589 0.514832 0.081970
0.377441 0.534607 0.079102
0.527466 0.585541 0.071594
0.682037 0.664459 0.058655
0.826904 0.720306 0.044006
0.958191 0.740601 0.040222
0.001587 0.580444 0.110077
0.066193 0.598785 0.121399
0.146698 0.616730 0.131500
0.234406 0.633179 0.132721
0.337067 0.647247 0.120758
0.479004 0.670227 0.099121
0.647461 0.729279 0.065643
0.808655 0.807434 0.033142
0.959106 0.864624 0.015778
0.000000 0.715515 0.145081
0.052979 0.728424 0.151276
0.122040 0.741699 0.158234
0.223297 0.754517 0.167511
0.331421 0.765808 0.173096
0.433228 0.777771 0.147797
0.599640 0.801636 0.105682
0.784424 0.873474 0.057434
0.947510 0.976746 0.020508
0.001587 0.026794 0.051025
0.088715 0.035492 0.071564
0.226196 0.042511 0.065643
0.393402 0.037079 0.050354
0.555878 0.025238 0.038635
0.692657 0.019714 0.039429
0.799042 0.019714 0.047577
0.888672 0.018921 0.056824
0.977814 0.017365 0.066193
0.007874 0.056824 0.065643
0.087830 0.072601 0.076172
0.219971 0.089600 0.072601
0.387848 0.102631 0.057434
0.555664 0.111481 0.045441
0.695618 0.114655 0.041748
0.802429 0.116028 0.045441
0.891907 0.116730 0.053650
0.981079 0.117401 0.062225
0.020508 0.104523 0.071564
0.090881 0.124969 0.084259
0.202454 0.151245 0.086060
0.365417 0.176483 0.071045
0.542603 0.197357 0.051666
0.690369 0.210754 0.045441
0.801025 0.216949 0.049652
0.892914 0.219971 0.056824
0.983704 0.222595 0.064514
0.029175 0.172150 0.070526
0.097534 0.194153 0.089600
0.190674 0.223114 0.101074
0.326691 0.261627 0.102631
0.500397 0.296906 0.086945
0.664825 0.316803 0.065063
0.790436 0.325562 0.058655
0.890289 0.330780 0.063385
0.984924 0.335876 0.070007
0.023651 0.253845 0.076172
0.093414 0.277435 0.092590
0.182220 0.302582 0.109344
0.298889 0.337921 0.118744
0.447968 0.389923 0.126556
0.611450 0.436432 0.121735
0.756958 0.455231 0.103394
0.875427 0.458832 0.089600
0.979797 0.462341 0.086060
0.012634 0.349548 0.099518
0.079559 0.372650 0.112213
0.161194 0.396057 0.124634
0.270020 0.420898 0.133301
0.408264 0.462280 0.135681
0.563446 0.528442 0.142273
0.713409 0.582672 0.146423
0.844849 0.602386 0.142273
0.960876 0.606384 0.135376
0.003937 0.463531 0.133301
0.066742 0.482605 0.148041
0.143127 0.502777 0.160217
0.237335 0.522827 0.165588
0.364166 0.546509 0.160950
0.522125 0.596832 0.148041
0.682007 0.671204 0.138306
0.826202 0.722961 0.137421
0.955536 0.741943 0.142548
0.000000 0.592041 0.174225
0.053650 0.606476 0.185852
0.124969 0.622101 0.198547
0.216217 0.638031 0.207977
0.326691 0.653259 0.206268
0.471436 0.678589 0.187531
0.645874 0.736572 0.155151
0.808990 0.810730 0.131195
0.956757 0.864929 0.123993
0.000000 0.725098 0.219269
0.051666 0.734802 0.227386
0.110779 0.746216 0.235077
0.192719 0.759094 0.241516
0.300629 0.770630 0.245911
0.428375 0.782532 0.237823
0.596802 0.808990 0.200317
0.785156 0.878235 0.153870
0.945374 0.976349 0.126221
0.004730 0.067291 0.114319
0.053650 0.065063 0.135071
0.175812 0.066193 0.140015
0.355133 0.061646 0.124969
0.541229 0.037048 0.111847
0.693970 0.010254 0.110779
0.803223 0.001587 0.121735
0.890442 0.001587 0.137421
0.977112 0.001587 0.154114
0.002380 0.096313 0.131805
0.050354 0.103760 0.141998
0.173065 0.115356 0.152557
0.354034 0.122711 0.143127
0.540924 0.118408 0.126862
0.695648 0.107513 0.116730
0.808350 0.097107 0.113953
0.897705 0.091309 0.120422
0.984924 0.089600 0.132996
0.006317 0.129333 0.138306
0.054932 0.144775 0.151245
0.166779 0.167725 0.164612
0.339294 0.191284 0.160461
0.528778 0.203400 0.141449
0.689148 0.209076 0.126862
0.806519 0.208893 0.121063
0.899292 0.207581 0.124329
0.988586 0.207031 0.133301
0.012634 0.184357 0.129974
0.069458 0.207214 0.155151
0.162903 0.235565 0.175568
0.308350 0.274567 0.183289
0.489044 0.304016 0.170532
0.663055 0.318420 0.144501
0.795715 0.323547 0.128723
0.896790 0.325775 0.129974
0.989624 0.328552 0.139435
0.012634 0.266205 0.133911
0.074646 0.289948 0.159943
0.157959 0.315186 0.184570
0.280396 0.353333 0.200897
0.438324 0.403961 0.204376
0.607117 0.443695 0.200684
0.757385 0.458191 0.182220
0.878174 0.458771 0.165802
0.981873 0.460175 0.163391
0.005524 0.366302 0.160706
0.065063 0.386475 0.181549
0.140289 0.406281 0.202057
0.247772 0.432892 0.218719
0.394379 0.476898 0.221558
0.558472 0.539215 0.220673
0.711151 0.588196 0.228912
0.842529 0.605347 0.231598
0.957581 0.608246 0.228912
0.000793 0.481506 0.202240
0.051025 0.497437 0.218536
0.117401 0.512360 0.235077
0.211853 0.530243 0.248993
0.344788 0.556000 0.252472
0.511902 0.605774 0.237671
0.678925 0.676178 0.224823
0.823181 0.725342 0.231262
0.950043 0.743561 0.243408
0.000000 0.606689 0.251282
0.046173 0.618469 0.264496
0.102234 0.629578 0.277435
0.182220 0.642822 0.287750
0.299652 0.658203 0.292480
0.456879 0.684265 0.281860
0.639801 0.740784 0.250977
0.806213 0.812195 0.229248
0.951447 0.864868 0.229584
0.000000 0.734314 0.302338
0.050354 0.742310 0.313080
0.101868 0.749908 0.323425
0.166046 0.760620 0.330658
0.261230 0.772888 0.331329
0.406128 0.785889 0.326782
0.590179 0.813690 0.300232
0.782349 0.880524 0.253540
0.939941 0.974487 0.230255
0.011810 0.120087 0.191071
0.022858 0.112213 0.198944
0.099518 0.101868 0.220490
0.271393 0.095093 0.221893
0.486115 0.082886 0.201660
0.673187 0.048981 0.191284
0.801239 0.015778 0.197144
0.890289 0.002350 0.213135
0.972687 0.000000 0.233429
0.003937 0.155151 0.214233
0.014191 0.154907 0.217834
0.095490 0.154114 0.232758
0.278503 0.155396 0.244171
0.495758 0.149933 0.225708
0.680328 0.130280 0.209473
0.808472 0.106049 0.205505
0.900024 0.087402 0.209656
0.984192 0.075653 0.220490
0.000793 0.183502 0.226898
0.011810 0.193939 0.236359
0.088287 0.203979 0.245911
0.273468 0.221558 0.263214
0.495697 0.229919 0.255188
0.679108 0.222931 0.235229
0.808411 0.212402 0.225525
0.903015 0.202637 0.223297
0.990051 0.194946 0.227234
0.002380 0.213501 0.219604
0.018921 0.235229 0.240387
0.087830 0.256653 0.258575
0.257263 0.292877 0.284485
0.468719 0.322174 0.283295
0.658203 0.329132 0.261200
0.798065 0.327454 0.242615
0.901337 0.324219 0.235382
0.992645 0.321960 0.236847
0.003937 0.281586 0.226562
0.031525 0.305969 0.250061
0.093414 0.330994 0.273468
0.227051 0.365540 0.297028
0.419525 0.418030 0.309418
0.606140 0.453308 0.299622
0.760315 0.461975 0.280640
0.882385 0.459198 0.262634
0.984802 0.457001 0.255463
0.003937 0.389191 0.259735
0.039429 0.408234 0.278778
0.093414 0.426025 0.296783
0.197144 0.448273 0.315430
0.366333 0.491669 0.329132
0.552063 0.553009 0.322540
0.710419 0.596649 0.320038
0.840820 0.610199 0.323090
0.953979 0.610657 0.323425
0.002350 0.506989 0.302094
0.040985 0.520966 0.318542
0.087402 0.531952 0.332855
0.163147 0.543427 0.343964
0.304779 0.566925 0.353333
0.494232 0.615570 0.346039
0.673798 0.682831 0.324768
0.818481 0.729889 0.326691
0.941650 0.747681 0.341309
0.000793 0.625458 0.345825
0.044739 0.635925 0.360718
0.089142 0.643463 0.374146
0.146698 0.650299 0.383362
0.253235 0.663513 0.387299
0.429169 0.689880 0.383728
0.629242 0.744476 0.357544
0.800537 0.813599 0.330780
0.942535 0.865662 0.331421
0.000793 0.743774 0.388458
0.051025 0.751648 0.400787
0.099915 0.756836 0.413055
0.151001 0.761505 0.423126
0.225342 0.771729 0.426270
0.370270 0.788330 0.422638
0.578857 0.817902 0.407043
0.776306 0.881775 0.360626
0.930725 0.971252 0.330994
0.022064 0.175354 0.268768
0.015778 0.165344 0.266632
0.039429 0.153625 0.282379
0.154907 0.135406 0.318207
0.372162 0.122070 0.315186
0.597595 0.109344 0.285278
0.764954 0.077148 0.271393
0.876343 0.035492 0.276642
0.965149 0.006287 0.292999
0.008667 0.214417 0.293365
0.003174 0.210388 0.292999
0.034698 0.204163 0.302094
0.166534 0.192719 0.334381
0.392609 0.182648 0.340912
0.613800 0.172607 0.312164
0.775696 0.151001 0.295532
0.884918 0.121399 0.294891
0.974823 0.092987 0.303314
0.000793 0.248230 0.310852
0.000000 0.254578 0.318756
0.024445 0.258575 0.327362
0.167236 0.259460 0.350464
0.408173 0.263092 0.374146
0.629242 0.256653 0.352203
0.785736 0.239105 0.330322
0.892700 0.218536 0.323212
0.982361 0.200684 0.324890
0.000000 0.273193 0.310028
0.000000 0.290588 0.327576
0.018921 0.307526 0.346252
0.149139 0.322876 0.366119
0.395782 0.350983 0.399994
0.631989 0.362793 0.397980
0.789307 0.349640 0.371979
0.897156 0.333923 0.358032
0.988098 0.322296 0.354950
0.001587 0.313202 0.317841
0.000000 0.334381 0.338654
0.015778 0.357941 0.361816
0.121735 0.384277 0.386292
0.354736 0.431396 0.421173
0.600739 0.474365 0.432953
0.769653 0.476776 0.410797
0.887848 0.466614 0.391876
0.985352 0.458710 0.384644
0.007080 0.399933 0.358337
0.017334 0.418549 0.377441
0.038635 0.438690 0.396667
0.112213 0.462524 0.416718
0.295532 0.501801 0.439240
0.538483 0.567993 0.453369
0.721588 0.609222 0.441010
0.850403 0.616425 0.432648
0.957520 0.613037 0.431061
0.012604 0.519318 0.405701
0.041748 0.533539 0.423035
0.073639 0.546448 0.438385
0.123688 0.558716 0.450531
0.244354 0.579956 0.462219
0.462891 0.629395 0.470490
0.672424 0.696472 0.453308
0.819519 0.740265 0.440063
0.935730 0.756104 0.446991
0.012604 0.639191 0.444336
0.056824 0.649475 0.459656
0.098724 0.656982 0.473175
0.141449 0.661255 0.483307
0.214783 0.670135 0.489716
0.388916 0.698578 0.493835
0.618195 0.753815 0.481720
0.797058 0.820099 0.449249
0.933075 0.870117 0.438843
0.011810 0.751587 0.476288
0.065063 0.759399 0.489380
0.116028 0.764038 0.501587
0.162415 0.765198 0.512268
0.214233 0.769440 0.520020
0.338654 0.789490 0.524017
0.566162 0.825562 0.521393
0.772034 0.885834 0.483582
0.920959 0.967072 0.438690
0.033905 0.222443 0.330994
0.023651 0.212982 0.327820
0.022858 0.203796 0.334290
0.070007 0.188385 0.371033
0.233917 0.161224 0.419952
0.469299 0.146454 0.399994
0.664734 0.138885 0.361816
0.804199 0.115692 0.344696
0.918213 0.072601 0.348328
0.014984 0.260925 0.350891
0.007111 0.256958 0.351929
0.015778 0.251587 0.358643
0.082397 0.238800 0.388824
0.260925 0.215332 0.440247
0.492950 0.200684 0.427795
0.679901 0.194336 0.391266
0.812744 0.179352 0.374054
0.922546 0.152039 0.376984
0.000793 0.297394 0.368927
0.000000 0.302704 0.377747
0.000000 0.306335 0.388458
0.086517 0.302094 0.410187
0.287109 0.289948 0.463959
0.521210 0.279297 0.468903
0.700989 0.270020 0.433594
0.827148 0.255768 0.413879
0.931396 0.235870 0.413818
0.000000 0.327362 0.377167
0.000000 0.342163 0.394043
0.000000 0.357849 0.414398
0.075653 0.369110 0.437531
0.283813 0.376221 0.480194
0.544312 0.387939 0.517914
0.730225 0.380615 0.494019
0.850830 0.362396 0.470123
0.948364 0.342804 0.463654
0.000000 0.361023 0.385498
0.000000 0.379486 0.404510
0.000000 0.400848 0.427734
0.046173 0.425781 0.458496
0.243713 0.450531 0.493958
0.534668 0.495605 0.550140
0.751587 0.511383 0.555542
0.874512 0.495941 0.532715
0.967499 0.477966 0.521057
0.001587 0.415741 0.419281
0.000000 0.433624 0.437622
0.000000 0.453613 0.457825
0.024445 0.480133 0.484955
0.187134 0.513672 0.517883
0.485779 0.579071 0.571259
0.733124 0.631073 0.591644
0.871521 0.634094 0.577209
0.969421 0.624542 0.567657
0.010254 0.505005 0.472473
0.017334 0.521027 0.489777
0.027588 0.537750 0.506927
0.055573 0.557892 0.525879
0.158966 0.585876 0.550262
0.398956 0.635742 0.580444
0.672791 0.713501 0.602173
0.838379 0.755829 0.588287
0.946594 0.767334 0.580841
0.022095 0.621674 0.521332
0.050354 0.634857 0.536743
0.081482 0.647675 0.551147
0.118073 0.659760 0.564514
0.178711 0.674561 0.579803
0.339722 0.705536 0.598724
0.604950 0.768250 0.614960
0.805115 0.834961 0.596313
0.932678 0.880005 0.571289
0.028381 0.744263 0.557495
0.075653 0.754395 0.570404
0.123352 0.762451 0.582123
0.168915 0.767090 0.592773
0.213715 0.771484 0.604614
0.316589 0.790161 0.620422
0.552185 0.835083 0.635925
0.777008 0.895386 0.623596
0.920593 0.964172 0.573914
0.044739 0.260193 0.376801
0.033905 0.252960 0.374939
0.026825 0.245911 0.378204
0.039429 0.236877 0.400085
0.126221 0.213165 0.464966
0.329681 0.180054 0.507507
0.537872 0.167267 0.470062
0.681030 0.162933 0.428680
0.788971 0.154144 0.404175
0.019714 0.295654 0.389557
0.014191 0.293488 0.393585
0.018158 0.290192 0.400970
0.048981 0.281982 0.421997
0.156433 0.259155 0.484924
0.362610 0.227905 0.532623
0.559723 0.214417 0.498352
0.693939 0.211304 0.458282
0.794769 0.206085 0.435181
0.001587 0.330139 0.405365
0.000000 0.336304 0.416077
0.000000 0.341003 0.428223
0.051025 0.338867 0.447449
0.190460 0.322632 0.506226
0.401825 0.296906 0.565247
0.588226 0.280243 0.536743
0.714081 0.273193 0.496429
0.807495 0.267487 0.473633
0.000000 0.361145 0.419861
0.000000 0.375763 0.437134
0.000000 0.390900 0.457458
0.038635 0.402863 0.481934
0.196350 0.402161 0.523560
0.432892 0.395782 0.596375
0.629486 0.383453 0.593262
0.751160 0.369965 0.554901
0.837952 0.358429 0.531403
0.000000 0.394745 0.431793
0.000000 0.412994 0.450684
0.000000 0.433380 0.473267
0.014191 0.458344 0.505646
0.166290 0.478516 0.544495
0.428284 0.500153 0.610809
0.674194 0.519623 0.657043
0.806580 0.509521 0.635468
0.890228 0.493134 0.614044
0.000000 0.438324 0.455994
0.000000 0.456207 0.473969
0.000000 0.475861 0.493896
0.000000 0.502899 0.523132
0.111847 0.538239 0.565979
0.381439 0.580444 0.621948
0.685242 0.643738 0.699280
0.854889 0.658203 0.709229
0.945404 0.645660 0.694519
0.001587 0.494354 0.498291
0.000000 0.511322 0.515594
0.000000 0.529205 0.533478
0.000000 0.552002 0.556122
0.063385 0.588135 0.593048
0.305603 0.637482 0.641815
0.652679 0.728546 0.722961
0.858948 0.775513 0.742767
0.965607 0.780334 0.731323
0.009460 0.577881 0.551910
0.014191 0.593567 0.568237
0.022888 0.610046 0.584564
0.038635 0.629242 0.602600
0.090027 0.658020 0.629578
0.262054 0.701324 0.669250
0.568176 0.772705 0.719940
0.822632 0.852356 0.748810
0.951843 0.891235 0.728760
0.026031 0.694305 0.605652
0.053650 0.708008 0.620026
0.085175 0.722290 0.633942
0.124329 0.737854 0.648315
0.173309 0.757019 0.666840
0.279175 0.786682 0.696350
0.523193 0.837769 0.732727
0.785156 0.906616 0.758362
0.936951 0.967957 0.732117
0.053650 0.290833 0.410797
0.042511 0.285553 0.410126
0.033905 0.280121 0.411652
0.033905 0.274048 0.423523
0.067841 0.261505 0.466766
0.203979 0.226898 0.554260
0.417969 0.193542 0.574951
0.580933 0.181366 0.530914
0.677734 0.178284 0.489716
0.025238 0.321991 0.417297
0.022888 0.321198 0.423859
0.026031 0.319580 0.431549
0.041748 0.314972 0.446472
0.096313 0.301483 0.490936
0.247131 0.267639 0.580566
0.452026 0.235718 0.600525
0.602173 0.223450 0.557434
0.692352 0.220673 0.518188
0.002380 0.352234 0.428925
0.000000 0.358856 0.441101
0.000000 0.364166 0.453522
0.037048 0.364655 0.470154
0.130280 0.354034 0.515228
0.297150 0.324585 0.609070
0.489899 0.292114 0.632446
0.627930 0.275665 0.589905
0.711487 0.270294 0.551147
0.000000 0.381256 0.446167
0.000000 0.395630 0.464050
0.000000 0.409790 0.483246
0.016541 0.421509 0.505249
0.137726 0.422302 0.539856
0.334259 0.407166 0.628113
0.535706 0.380615 0.674713
0.666656 0.356934 0.637360
0.744141 0.343414 0.597382
0.000000 0.412476 0.460907
0.000000 0.430908 0.480682
0.000000 0.450470 0.502502
0.000000 0.473114 0.531769
0.113251 0.493500 0.569641
0.333832 0.501526 0.634338
0.581696 0.504272 0.716431
0.726929 0.485474 0.705811
0.801819 0.463806 0.669495
0.000000 0.451508 0.480072
0.000000 0.470428 0.499023
0.000000 0.490387 0.519257
0.000000 0.516174 0.547089
0.067841 0.551849 0.591644
0.297882 0.584961 0.647827
0.596100 0.627960 0.739990
0.794373 0.644684 0.781616
0.881042 0.627808 0.762329
0.000000 0.495911 0.509338
0.000000 0.513824 0.527283
0.000000 0.532318 0.545807
0.000000 0.555420 0.569061
0.018921 0.593079 0.609253
0.231598 0.643921 0.668091
0.562592 0.713684 0.753235
0.830078 0.779694 0.834198
0.949768 0.785828 0.840088
0.000793 0.547028 0.550568
0.000000 0.563995 0.567841
0.000000 0.581635 0.585388
0.000000 0.602173 0.605621
0.000000 0.634583 0.637817
0.165100 0.687897 0.692322
0.496765 0.764404 0.767517
0.874634 0.890808 0.890808
0.974609 0.901855 0.872681
0.007111 0.623352 0.605652
0.008667 0.639221 0.621826
0.014191 0.656189 0.638519
0.026031 0.675415 0.656616
0.055573 0.702240 0.681396
0.165588 0.748596 0.725525
0.444763 0.818054 0.788025
0.770447 0.908752 0.856201
0.963806 0.979919 0.879333
0.061066 0.315430 0.436432
0.050354 0.311340 0.437225
0.040222 0.306213 0.437225
0.034698 0.300873 0.442017
0.042511 0.295654 0.464264
0.105652 0.277435 0.539093
0.298126 0.229431 0.644135
0.508240 0.199341 0.630859
0.637238 0.186920 0.591064
0.032349 0.341339 0.438080
0.033142 0.341553 0.446533
0.036285 0.340607 0.454285
0.041748 0.338043 0.464691
0.063385 0.332428 0.490479
0.152039 0.311462 0.570923
0.347168 0.266510 0.670044
0.537872 0.238312 0.653809
0.656372 0.226562 0.615845
0.003937 0.367096 0.444489
0.000000 0.373779 0.457611
0.005524 0.378662 0.469849
0.031555 0.380432 0.483856
0.090881 0.376617 0.514465
0.207214 0.355957 0.602173
0.396942 0.313354 0.698364
0.568634 0.283173 0.680420
0.677368 0.269043 0.642487
0.000000 0.393768 0.462372
0.000000 0.407501 0.480621
0.000000 0.419769 0.498016
0.000000 0.429718 0.515900
0.092163 0.433289 0.542542
0.247925 0.420685 0.622223
0.446655 0.384766 0.727539
0.605469 0.347168 0.716003
0.704224 0.323212 0.675049
0.000000 0.421997 0.479156
0.000000 0.440247 0.499939
0.000000 0.457977 0.520813
0.000000 0.476990 0.545197
0.067841 0.495758 0.577759
0.251892 0.501465 0.635468
0.490509 0.488434 0.747437
0.660339 0.453430 0.765503
0.749634 0.415314 0.724670
0.000000 0.456635 0.496429
0.000000 0.476440 0.516937
0.000000 0.496429 0.537628
0.000000 0.519897 0.563110
0.029968 0.552246 0.603027
0.224823 0.583069 0.657928
0.506348 0.604370 0.752563
0.728271 0.605103 0.822510
0.824341 0.569305 0.801239
0.000000 0.496552 0.517181
0.000000 0.515594 0.536072
0.000000 0.535339 0.555542
0.000000 0.558472 0.578766
0.000000 0.594269 0.617004
0.175812 0.645447 0.679504
0.484467 0.699646 0.763367
0.770233 0.755066 0.867767
0.910889 0.756897 0.892029
0.000000 0.539612 0.548035
0.000000 0.557404 0.565918
0.000000 0.575775 0.584412
0.000000 0.596436 0.605103
0.000000 0.627380 0.636719
0.102234 0.681519 0.695007
0.422150 0.756653 0.779785
0.762207 0.852112 0.891968
0.970581 0.908813 0.962372
0.000000 0.585327 0.587769
0.000000 0.601990 0.604736
0.000000 0.619019 0.622009
0.000000 0.636658 0.639893
0.000000 0.659393 0.663147
0.026794 0.704529 0.709808
0.324432 0.785156 0.793243
0.721283 0.899719 0.905884
1.000000 1.000000 1.000000
