luts/IWLTBAP Coronado - LOG.cube
# Copyright: (C) Copyright 2010-2017 by IWLTBAP SAS
# Cannot be resold, shared or otherwise redistributed
# Website: https://luts.iwltbap.com
TITLE "IWLTBAP Coronado (Generic LOG)"
LUT_3D_SIZE 9
0.002869 0.000702 0.002869
0.109589 0.015076 0.011261
0.315216 0.030457 0.003723
0.548706 0.045288 0.000000
0.756104 0.048401 0.000000
0.916382 0.043091 0.000000
0.949677 0.041779 0.000000
0.963684 0.041138 0.000000
0.977692 0.040344 0.000000
0.009155 0.033630 0.009888
0.070862 0.040680 0.013092
0.269653 0.055267 0.005402
0.512665 0.067719 0.000000
0.730072 0.060944 0.000000
0.901947 0.057373 0.000000
0.949951 0.055542 0.000000
0.963989 0.054993 0.000000
0.977997 0.054291 0.000000
0.021545 0.101593 0.019714
0.032074 0.099304 0.020386
0.186371 0.121948 0.020325
0.444611 0.151215 0.001495
0.690369 0.163300 0.000000
0.868530 0.151459 0.000000
0.951599 0.132629 0.000000
0.965424 0.122009 0.000000
0.979370 0.117279 0.000000
0.028748 0.199463 0.022308
0.041046 0.196564 0.024200
0.127533 0.203827 0.032410
0.324493 0.241333 0.034149
0.610687 0.279144 0.004852
0.824280 0.279419 0.000000
0.953796 0.265533 0.000000
0.968018 0.253357 0.000000
0.982269 0.249176 0.000000
0.010040 0.320923 0.024841
0.023346 0.319031 0.024933
0.062378 0.316772 0.027344
0.234100 0.334259 0.043091
0.465759 0.394318 0.056305
0.741882 0.439606 0.022919
0.940063 0.424866 0.002869
0.968170 0.409515 0.001068
0.983398 0.404694 0.000824
0.004272 0.469238 0.067291
0.014557 0.466583 0.066650
0.024750 0.458038 0.063690
0.133698 0.472931 0.058655
0.340454 0.486877 0.061188
0.606934 0.572815 0.064972
0.868591 0.621826 0.047485
0.949554 0.604065 0.038086
0.967346 0.598297 0.034851
0.000427 0.656891 0.110168
0.009827 0.652496 0.109955
0.019806 0.642975 0.108734
0.071320 0.637665 0.112091
0.236176 0.648590 0.117676
0.460541 0.659790 0.087708
0.765900 0.760681 0.036682
0.943451 0.796143 0.024292
0.963562 0.794037 0.024994
0.000000 0.723419 0.125977
0.008728 0.725220 0.126923
0.017761 0.727051 0.127930
0.026794 0.728882 0.128845
0.164307 0.751617 0.141907
0.361938 0.772369 0.147949
0.627899 0.810577 0.088135
0.931641 0.950592 0.021027
0.955048 0.959900 0.016998
0.000000 0.743408 0.130859
0.008606 0.745148 0.131744
0.017334 0.746887 0.132629
0.026367 0.748596 0.133484
0.142487 0.768005 0.143372
0.343903 0.788391 0.156158
0.588562 0.816437 0.101013
0.908875 0.952789 0.026581
0.952667 0.979034 0.018494
0.001434 0.025024 0.059998
0.086151 0.029968 0.071472
0.293579 0.034882 0.051453
0.544006 0.030273 0.025787
0.754608 0.036530 0.019318
0.915558 0.039612 0.009247
0.950012 0.038147 0.009857
0.964050 0.037750 0.010162
0.978058 0.037079 0.010315
0.006165 0.044342 0.049988
0.060791 0.047821 0.051575
0.255402 0.057129 0.036438
0.507690 0.060059 0.012695
0.727875 0.056946 0.006897
0.900421 0.054199 0.009033
0.950348 0.052216 0.009857
0.964386 0.051880 0.010162
0.978394 0.051270 0.010315
0.021271 0.101624 0.029785
0.031616 0.099060 0.028656
0.181824 0.121429 0.029663
0.439819 0.148743 0.009094
0.687836 0.159729 0.006927
0.867279 0.147888 0.008698
0.951965 0.128601 0.009857
0.965790 0.117950 0.010162
0.979736 0.113342 0.010315
0.028412 0.198029 0.030518
0.040497 0.195679 0.032440
0.123749 0.203369 0.041626
0.320312 0.241119 0.043396
0.608154 0.277466 0.013794
0.823273 0.277222 0.009247
0.954224 0.263092 0.010712
0.968414 0.250732 0.010712
0.982666 0.246582 0.010712
0.011627 0.319580 0.034424
0.024078 0.317902 0.034485
0.060364 0.315521 0.036743
0.230103 0.334564 0.053589
0.462738 0.393799 0.066254
0.740448 0.437592 0.034271
0.939575 0.422852 0.014740
0.968536 0.407349 0.013123
0.983765 0.402466 0.012726
0.004364 0.468689 0.075958
0.014771 0.465790 0.075500
0.025269 0.457367 0.072784
0.132660 0.471588 0.070557
0.337006 0.486694 0.072662
0.604919 0.571777 0.076355
0.867004 0.619965 0.061829
0.949646 0.602020 0.051880
0.967407 0.596222 0.048706
0.000305 0.656067 0.120331
0.009613 0.651398 0.119965
0.019470 0.642029 0.118683
0.068359 0.636292 0.121826
0.232697 0.647125 0.128937
0.457855 0.659027 0.100494
0.763824 0.758911 0.051147
0.943268 0.794342 0.040710
0.963287 0.792084 0.041443
0.000000 0.724731 0.137299
0.008606 0.726349 0.138275
0.017639 0.728180 0.139313
0.026642 0.729919 0.140289
0.159607 0.752075 0.153015
0.357300 0.772858 0.160309
0.624084 0.810822 0.103241
0.930817 0.949738 0.037018
0.955048 0.958313 0.032959
0.000000 0.744720 0.142273
0.008606 0.746307 0.143158
0.017334 0.747986 0.144073
0.026367 0.749603 0.144958
0.138489 0.768463 0.154755
0.338257 0.788879 0.167542
0.584442 0.816833 0.116272
0.906403 0.951538 0.042877
0.952454 0.979065 0.034485
0.007416 0.086060 0.171692
0.039124 0.077362 0.176025
0.214203 0.068237 0.176910
0.516144 0.042175 0.140717
0.756409 0.003052 0.128448
0.916229 0.002441 0.134552
0.952576 0.004608 0.121368
0.966431 0.005768 0.114014
0.980286 0.006653 0.110870
0.002411 0.098419 0.158630
0.025604 0.092224 0.156799
0.187744 0.085876 0.160461
0.479980 0.059326 0.123932
0.729919 0.019043 0.103882
0.900757 0.018768 0.107422
0.953308 0.022614 0.096954
0.967010 0.024567 0.090302
0.980865 0.025452 0.088043
0.006195 0.126648 0.135193
0.014099 0.122986 0.131409
0.143036 0.136993 0.135620
0.413086 0.149353 0.106018
0.683350 0.143372 0.072510
0.867889 0.127838 0.066528
0.954468 0.111481 0.060486
0.967773 0.102173 0.053986
0.981445 0.098206 0.052002
0.022919 0.202423 0.093567
0.033905 0.199951 0.092712
0.108337 0.209442 0.102692
0.304108 0.245880 0.097992
0.600952 0.273376 0.051392
0.821289 0.271545 0.035126
0.954437 0.257751 0.023590
0.968811 0.245667 0.021118
0.983032 0.241638 0.021423
0.016052 0.317780 0.069458
0.027069 0.316071 0.066254
0.055084 0.312134 0.058685
0.223724 0.332794 0.064911
0.457764 0.391083 0.075928
0.737579 0.433136 0.045044
0.938477 0.418610 0.026245
0.968933 0.402893 0.024750
0.984100 0.398468 0.024414
0.005127 0.465698 0.084106
0.015411 0.463074 0.083710
0.025848 0.454773 0.081390
0.130249 0.468201 0.081482
0.331757 0.484802 0.084076
0.601379 0.568909 0.087799
0.863922 0.616364 0.075592
0.949921 0.598328 0.065125
0.967651 0.592377 0.062103
0.000000 0.653381 0.129913
0.009277 0.648926 0.129578
0.018860 0.639648 0.128235
0.064758 0.633057 0.131073
0.228424 0.644073 0.139801
0.454071 0.656830 0.113220
0.760925 0.756287 0.065582
0.943054 0.791565 0.057098
0.962921 0.788971 0.058105
0.000000 0.726074 0.148590
0.008606 0.727661 0.149597
0.017334 0.729309 0.150665
0.026367 0.731049 0.151703
0.153992 0.752380 0.164124
0.351410 0.773224 0.172516
0.618774 0.810669 0.118652
0.928558 0.946960 0.053009
0.955048 0.956543 0.048920
0.000000 0.746033 0.153748
0.008606 0.747559 0.154663
0.017334 0.749115 0.155609
0.026367 0.750702 0.156525
0.134033 0.768799 0.166290
0.331299 0.789307 0.178894
0.579620 0.817047 0.131775
0.903290 0.949890 0.059052
0.952240 0.979095 0.050476
0.022522 0.168518 0.308441
0.025391 0.157013 0.299225
0.080231 0.134857 0.312531
0.369629 0.106812 0.319397
0.716919 0.065460 0.268555
0.909943 0.006989 0.268890
0.948181 0.001221 0.263702
0.961517 0.000336 0.259705
0.974609 0.000000 0.258972
0.012970 0.184235 0.300720
0.015930 0.173248 0.291595
0.069397 0.147491 0.293457
0.345795 0.111023 0.298279
0.695618 0.070618 0.250458
0.896362 0.016479 0.249237
0.950806 0.010925 0.246277
0.964142 0.010010 0.241821
0.977356 0.009857 0.241089
0.000702 0.213562 0.288513
0.002228 0.207794 0.282806
0.043671 0.200134 0.277557
0.312897 0.190247 0.286407
0.660339 0.156219 0.236969
0.871155 0.101776 0.213013
0.958801 0.070068 0.204742
0.971283 0.058136 0.198029
0.984283 0.054047 0.196960
0.002014 0.233490 0.238953
0.004791 0.231110 0.236542
0.036560 0.237610 0.242523
0.239655 0.263824 0.255096
0.581879 0.276917 0.219818
0.826416 0.257874 0.177185
0.962524 0.234375 0.162079
0.976288 0.220886 0.151764
0.989960 0.216064 0.148895
0.004913 0.336212 0.198212
0.013428 0.333344 0.195465
0.031525 0.326324 0.188354
0.178925 0.350128 0.213074
0.437347 0.406799 0.211212
0.733856 0.430328 0.166626
0.940613 0.410217 0.130157
0.972473 0.394196 0.117828
0.987213 0.389465 0.114777
0.001556 0.481903 0.190155
0.010345 0.477448 0.186523
0.020813 0.466553 0.176849
0.116943 0.470886 0.182190
0.310455 0.492493 0.180084
0.594208 0.570496 0.160400
0.858917 0.611542 0.143799
0.949890 0.592743 0.115997
0.967590 0.586853 0.108124
0.000000 0.656982 0.196594
0.008179 0.651550 0.191986
0.017029 0.641174 0.182343
0.055115 0.631348 0.172119
0.218201 0.640289 0.171204
0.447266 0.653198 0.134186
0.755554 0.751007 0.079987
0.942932 0.786591 0.073883
0.962494 0.783783 0.075043
0.000000 0.728851 0.173340
0.008606 0.729919 0.170471
0.017334 0.730804 0.164520
0.026367 0.732117 0.163177
0.146851 0.752380 0.175293
0.343079 0.773438 0.184662
0.610382 0.809784 0.134705
0.925720 0.943329 0.069183
0.955109 0.954285 0.065002
0.000000 0.747284 0.165527
0.008606 0.748779 0.166321
0.017334 0.750305 0.167236
0.026367 0.751770 0.168304
0.128357 0.768829 0.177826
0.321930 0.789581 0.190216
0.571198 0.816559 0.147949
0.898865 0.947479 0.075409
0.952026 0.979034 0.066406
0.040466 0.235077 0.414001
0.041290 0.227264 0.408173
0.050690 0.213196 0.407349
0.159546 0.181213 0.468323
0.524658 0.141785 0.460175
0.806610 0.116760 0.395111
0.880829 0.088318 0.381165
0.906921 0.074249 0.375946
0.927887 0.063477 0.374054
0.027435 0.250519 0.407837
0.030914 0.241821 0.402893
0.044342 0.221039 0.398041
0.144562 0.184204 0.445984
0.509094 0.145447 0.445435
0.806915 0.118469 0.382416
0.901001 0.081818 0.370544
0.924591 0.068237 0.365509
0.943939 0.058167 0.364166
0.003235 0.291321 0.405975
0.004150 0.286743 0.402832
0.018677 0.277374 0.401855
0.134491 0.250458 0.426392
0.497955 0.205902 0.441803
0.804565 0.167999 0.375366
0.929993 0.110596 0.358185
0.948914 0.088348 0.349060
0.964630 0.076538 0.346619
0.000000 0.325958 0.392700
0.001831 0.323456 0.391235
0.012360 0.324890 0.395844
0.087891 0.328217 0.411377
0.472687 0.322296 0.447174
0.798615 0.280670 0.383759
0.955170 0.229553 0.351959
0.971436 0.210449 0.336670
0.985352 0.202515 0.331848
0.001434 0.368073 0.371765
0.002411 0.365601 0.369385
0.004395 0.357635 0.361603
0.045807 0.380005 0.383484
0.356293 0.422607 0.412933
0.735229 0.438568 0.378418
0.944305 0.400818 0.325897
0.978424 0.380615 0.304871
0.992737 0.374298 0.298706
0.008698 0.511200 0.382782
0.013947 0.507263 0.378632
0.018616 0.496887 0.367126
0.068542 0.497955 0.367188
0.230469 0.509827 0.369904
0.578979 0.584381 0.348938
0.850311 0.611389 0.327118
0.946594 0.588745 0.302795
0.964264 0.581909 0.295227
0.001556 0.677643 0.372314
0.009186 0.672516 0.367462
0.016571 0.662781 0.357666
0.043976 0.650787 0.346466
0.155182 0.646149 0.345825
0.406982 0.659729 0.327972
0.745422 0.750153 0.265625
0.935699 0.782532 0.256775
0.954865 0.779327 0.254395
0.000244 0.746948 0.343506
0.008606 0.747620 0.339691
0.017212 0.747894 0.332886
0.025543 0.747620 0.320435
0.121674 0.757690 0.320740
0.291534 0.777405 0.309753
0.594818 0.814026 0.261017
0.920258 0.939209 0.179565
0.952423 0.950806 0.170746
0.000000 0.763763 0.333221
0.008606 0.764374 0.329224
0.017212 0.764771 0.322815
0.025818 0.764618 0.310608
0.112000 0.773438 0.308289
0.273224 0.792938 0.297333
0.557159 0.820435 0.254791
0.892517 0.945038 0.161255
0.950043 0.978485 0.145294
0.052002 0.274628 0.475647
0.053284 0.271393 0.475220
0.058716 0.263580 0.474670
0.086639 0.252625 0.498688
0.296692 0.202576 0.619049
0.619202 0.165192 0.576599
0.682037 0.161377 0.539215
0.702209 0.160004 0.524078
0.719055 0.159180 0.514099
0.040985 0.290955 0.475586
0.045685 0.286102 0.475464
0.056274 0.272156 0.474426
0.081421 0.258209 0.490936
0.274536 0.210358 0.604309
0.611176 0.170563 0.566254
0.699066 0.166321 0.520905
0.720184 0.164917 0.506378
0.737946 0.163940 0.497284
0.007202 0.332123 0.474060
0.009308 0.329041 0.472961
0.027039 0.324554 0.479065
0.080170 0.310028 0.493805
0.276062 0.258759 0.592896
0.608246 0.208038 0.561279
0.737762 0.191956 0.499756
0.761383 0.182922 0.482666
0.779877 0.178864 0.474060
0.000000 0.374329 0.479523
0.001831 0.373108 0.479248
0.011566 0.375885 0.485718
0.038239 0.382538 0.505524
0.274292 0.355042 0.573639
0.621307 0.302246 0.579590
0.801483 0.275330 0.508667
0.828461 0.262207 0.491821
0.847931 0.256805 0.485718
0.000000 0.423401 0.478241
0.001831 0.422577 0.477783
0.003662 0.417816 0.473999
0.025513 0.440308 0.500519
0.183502 0.462463 0.546265
0.637756 0.474854 0.620270
0.877228 0.428436 0.556213
0.920105 0.401154 0.531403
0.937103 0.392273 0.524200
0.001434 0.496674 0.500092
0.002411 0.495148 0.498596
0.003662 0.489960 0.493469
0.018097 0.497772 0.501526
0.069061 0.525787 0.530243
0.516235 0.600159 0.593231
0.872406 0.623932 0.571686
0.960297 0.590942 0.536835
0.975311 0.582092 0.527985
0.020538 0.662384 0.543427
0.026337 0.659851 0.540741
0.031830 0.654266 0.534637
0.049286 0.648163 0.528137
0.128906 0.654968 0.537079
0.311737 0.669495 0.540802
0.735962 0.760529 0.507507
0.923615 0.788147 0.471771
0.940979 0.784454 0.467560
0.020020 0.758514 0.524414
0.028046 0.760284 0.521210
0.035492 0.761871 0.515350
0.041992 0.763336 0.504669
0.130737 0.771576 0.507782
0.235809 0.775879 0.506622
0.558838 0.820007 0.485046
0.902740 0.931793 0.397614
0.936798 0.943695 0.387695
0.017120 0.776459 0.512787
0.025146 0.777740 0.509216
0.032745 0.778931 0.503632
0.039368 0.779633 0.492645
0.119507 0.786377 0.493591
0.223511 0.790070 0.493408
0.514771 0.827209 0.472626
0.874573 0.939087 0.381622
0.934845 0.973083 0.364136
0.053131 0.278320 0.481628
0.054504 0.275879 0.481995
0.059631 0.269226 0.482483
0.081268 0.261017 0.501923
0.242889 0.222168 0.623138
0.581512 0.173096 0.632080
0.650269 0.168030 0.610748
0.665527 0.167175 0.605499
0.680450 0.166351 0.600281
0.044312 0.292816 0.483093
0.048676 0.288666 0.483704
0.058197 0.277008 0.484589
0.076782 0.269379 0.499023
0.208191 0.238220 0.604828
0.552795 0.182892 0.643860
0.652924 0.175262 0.614075
0.668030 0.174316 0.608856
0.682892 0.173492 0.603668
0.010254 0.336731 0.486938
0.013336 0.334839 0.487823
0.034180 0.332458 0.498230
0.075409 0.323303 0.513733
0.188354 0.293182 0.591461
0.511566 0.224091 0.672668
0.662140 0.199677 0.625549
0.674408 0.192322 0.617371
0.688080 0.188873 0.611023
0.000000 0.383942 0.505463
0.001831 0.383759 0.506958
0.010712 0.387207 0.515869
0.031342 0.394592 0.536316
0.181091 0.380371 0.585083
0.482666 0.313416 0.714783
0.688110 0.271637 0.658569
0.702545 0.262634 0.644684
0.714935 0.259216 0.637054
0.000000 0.436646 0.525391
0.001831 0.437164 0.527466
0.003662 0.435150 0.528381
0.024719 0.457336 0.558105
0.101013 0.478424 0.598969
0.456940 0.457855 0.721497
0.723663 0.390869 0.702332
0.755737 0.370636 0.670166
0.766113 0.364868 0.660095
0.000000 0.502991 0.547455
0.001831 0.503021 0.548157
0.003662 0.500732 0.547272
0.017273 0.513031 0.561279
0.039459 0.544861 0.596771
0.335175 0.595001 0.677429
0.792358 0.626831 0.780182
0.874725 0.593048 0.741882
0.885620 0.585327 0.732361
0.000702 0.584351 0.587402
0.002136 0.584106 0.587250
0.003662 0.582153 0.585419
0.008514 0.581543 0.585022
0.031982 0.605072 0.608612
0.140198 0.656616 0.660767
0.739471 0.789856 0.786865
0.955109 0.804871 0.765320
0.969727 0.799438 0.757324
0.011536 0.671265 0.623444
0.015930 0.677094 0.625183
0.020935 0.684082 0.626129
0.028381 0.694458 0.625977
0.083527 0.724121 0.642609
0.187469 0.763275 0.664917
0.500275 0.827637 0.705902
0.905792 0.935089 0.679718
0.938660 0.944183 0.660919
0.016876 0.699524 0.629333
0.022003 0.705353 0.630341
0.028687 0.712555 0.630890
0.036499 0.722809 0.628906
0.094147 0.749023 0.640594
0.199799 0.782013 0.657379
0.454926 0.833710 0.687225
0.872833 0.941437 0.660736
0.931671 0.967957 0.628540
0.054108 0.281433 0.486694
0.055481 0.279205 0.487183
0.060272 0.272675 0.487457
0.079346 0.264954 0.503876
0.221497 0.230255 0.621948
0.569153 0.175659 0.648315
0.644958 0.169586 0.626068
0.661285 0.168365 0.620911
0.676514 0.167450 0.615753
0.046173 0.294434 0.487762
0.050171 0.290527 0.488403
0.059052 0.280304 0.489655
0.075684 0.273010 0.501923
0.189697 0.246033 0.601562
0.538116 0.186066 0.659790
0.647675 0.176666 0.629333
0.663849 0.175507 0.624207
0.679016 0.174561 0.619080
0.011353 0.337738 0.490662
0.014709 0.335876 0.491699
0.035980 0.333313 0.502045
0.074310 0.324524 0.516693
0.173035 0.297607 0.586670
0.493011 0.225952 0.686401
0.656342 0.198853 0.639587
0.669495 0.190826 0.631348
0.683441 0.187256 0.625000
0.000000 0.384308 0.508667
0.001831 0.383972 0.510101
0.010223 0.386841 0.518341
0.030884 0.393555 0.537903
0.168457 0.380798 0.582336
0.461609 0.314484 0.724121
0.680206 0.269684 0.674530
0.695648 0.260254 0.664429
0.708405 0.256897 0.658508
0.000000 0.436005 0.528900
0.001831 0.436584 0.530975
0.003662 0.434601 0.532135
0.024170 0.455811 0.561493
0.088654 0.475464 0.600555
0.420044 0.453461 0.723785
0.698395 0.377502 0.733368
0.733398 0.353149 0.709595
0.744080 0.346527 0.702301
0.000000 0.501160 0.552887
0.001831 0.501343 0.554565
0.003662 0.499420 0.555389
0.016602 0.511749 0.571838
0.038849 0.542603 0.609467
0.275116 0.588318 0.689240
0.726227 0.588623 0.823761
0.812714 0.532898 0.793304
0.820770 0.520935 0.785004
0.000000 0.575592 0.592438
0.001831 0.575439 0.593170
0.003662 0.573517 0.592773
0.007812 0.572296 0.594086
0.031281 0.597778 0.622498
0.082794 0.649658 0.680511
0.608429 0.753510 0.820862
0.918793 0.786896 0.905762
0.932068 0.778961 0.903076
0.000000 0.619843 0.622101
0.001831 0.622040 0.624359
0.003662 0.624298 0.626648
0.005493 0.626587 0.628937
0.023224 0.648865 0.651489
0.046509 0.683685 0.686584
0.308502 0.780273 0.785553
0.968994 0.968994 0.969696
0.987946 0.964691 0.953796
0.000427 0.628723 0.628113
0.002136 0.630920 0.630371
0.003662 0.633148 0.632629
0.005493 0.635376 0.634888
0.020905 0.655426 0.654297
0.044312 0.690460 0.687622
0.253571 0.780090 0.774536
0.884430 0.955139 0.920898
0.978546 0.987793 0.930206
0.055084 0.284515 0.491699
0.056458 0.282471 0.492310
0.061035 0.276031 0.492462
0.078278 0.268616 0.506500
0.204132 0.237854 0.619965
0.557434 0.178497 0.663818
0.639771 0.171143 0.641327
0.656525 0.169830 0.636200
0.672821 0.168579 0.631165
0.047546 0.296783 0.492645
0.051422 0.292847 0.493195
0.059906 0.283630 0.494720
0.075134 0.276459 0.505280
0.175385 0.253143 0.598358
0.524963 0.189240 0.674805
0.642548 0.178192 0.644562
0.659149 0.176910 0.639465
0.675354 0.175690 0.634430
0.012512 0.339264 0.494598
0.015991 0.337433 0.495758
0.037903 0.334961 0.506256
0.074158 0.326569 0.520325
0.161682 0.302490 0.584076
0.477722 0.229095 0.699707
0.651184 0.199524 0.654266
0.664612 0.191254 0.646057
0.679504 0.187317 0.639832
0.000000 0.385284 0.512085
0.001831 0.384979 0.513519
0.010071 0.387665 0.521515
0.030701 0.393982 0.540588
0.160095 0.382599 0.581970
0.446014 0.316833 0.732910
0.674652 0.269318 0.688171
0.691223 0.260071 0.678284
0.704834 0.256409 0.672363
0.000000 0.436462 0.532745
0.001831 0.437012 0.534729
0.003662 0.435120 0.536041
0.024017 0.455841 0.564911
0.082642 0.474640 0.602386
0.403748 0.452545 0.724426
0.689758 0.373779 0.744659
0.727539 0.348938 0.720673
0.739075 0.342255 0.713531
0.000000 0.500702 0.556061
0.001831 0.500916 0.557800
0.003662 0.499084 0.558807
0.016449 0.511322 0.575226
0.038666 0.541809 0.612549
0.262451 0.586334 0.690796
0.713837 0.581512 0.829865
0.804291 0.522797 0.799835
0.812744 0.510284 0.791443
0.000000 0.574432 0.593597
0.001831 0.574188 0.594299
0.003662 0.572357 0.594086
0.007629 0.571045 0.595337
0.031097 0.596954 0.624176
0.078613 0.648254 0.681793
0.594299 0.748962 0.821960
0.912292 0.780121 0.912170
0.925629 0.771393 0.909332
0.000000 0.617920 0.622650
0.001831 0.620148 0.624939
0.003662 0.622375 0.627258
0.005493 0.624664 0.629547
0.022980 0.646637 0.651825
0.046295 0.680420 0.686249
0.284424 0.774261 0.785614
0.926941 0.953522 0.971008
0.992706 0.972107 0.991516
0.000000 0.625977 0.628174
0.001831 0.628174 0.630432
0.003662 0.630402 0.632721
0.005493 0.632690 0.634979
0.020630 0.651520 0.654083
0.044037 0.683289 0.686493
0.202118 0.766510 0.772675
0.870300 0.955078 0.958038
1.000000 1.000000 1.000000
