luts/IWLTBAP Coronado - Standard.cube
# Copyright: (C) Copyright 2010-2017 by IWLTBAP SAS
# Cannot be resold, shared or otherwise redistributed
# Website: https://luts.iwltbap.com
TITLE "IWLTBAP Coronado (Rec.709, sRGB, DCI-P3)"
LUT_3D_SIZE 33
0.003174 0.000793 0.003174
0.028381 0.004730 0.006287
0.054291 0.009460 0.009460
0.082886 0.013397 0.011810
0.113251 0.017334 0.012604
0.146149 0.020508 0.013397
0.181122 0.023651 0.011841
0.217651 0.026794 0.010254
0.255341 0.029175 0.007904
0.293640 0.032318 0.005524
0.332184 0.034698 0.003174
0.370728 0.037842 0.001587
0.409027 0.040985 0.000793
0.446899 0.044006 0.000000
0.484314 0.046173 0.000000
0.521118 0.048309 0.000000
0.557037 0.050354 0.000000
0.591919 0.051697 0.000000
0.625549 0.052368 0.000000
0.657776 0.053650 0.000000
0.688354 0.053650 0.000000
0.717285 0.053650 0.000000
0.744568 0.053650 0.000000
0.770386 0.053650 0.000000
0.794861 0.053009 0.000000
0.818298 0.052368 0.000000
0.841003 0.051697 0.000000
0.863251 0.050354 0.000000
0.885437 0.049683 0.000000
0.907623 0.048309 0.000000
0.930054 0.046906 0.000000
0.952576 0.046173 0.000000
0.975281 0.044739 0.000000
0.005524 0.009460 0.005524
0.029175 0.013397 0.008667
0.054291 0.018127 0.011047
0.081940 0.022064 0.012604
0.111847 0.026001 0.013397
0.144501 0.029968 0.013397
0.179352 0.033112 0.011841
0.215881 0.037048 0.010254
0.253693 0.040222 0.007904
0.292236 0.044006 0.005524
0.331085 0.047577 0.003174
0.370056 0.051666 0.001587
0.408844 0.055573 0.000793
0.447266 0.059265 0.000000
0.485352 0.062805 0.000000
0.522614 0.065643 0.000000
0.558929 0.067841 0.000000
0.594116 0.070007 0.000000
0.627869 0.071045 0.000000
0.660034 0.072083 0.000000
0.690491 0.073120 0.000000
0.719177 0.073639 0.000000
0.746216 0.073639 0.000000
0.771729 0.073639 0.000000
0.796021 0.073120 0.000000
0.819275 0.072601 0.000000
0.841797 0.072083 0.000000
0.864014 0.071564 0.000000
0.886047 0.071045 0.000000
0.908203 0.070007 0.000000
0.930573 0.068939 0.000000
0.953125 0.068390 0.000000
0.975830 0.067291 0.000000
0.007874 0.018127 0.008667
0.029968 0.022858 0.011047
0.054291 0.027588 0.012604
0.080536 0.031525 0.014191
0.110077 0.035492 0.014191
0.142273 0.039429 0.013428
0.177155 0.043243 0.011841
0.213684 0.047577 0.010254
0.251587 0.051666 0.007111
0.290436 0.056183 0.004730
0.329559 0.061035 0.003174
0.369019 0.066193 0.001587
0.408325 0.071045 0.000793
0.447418 0.075165 0.000000
0.486023 0.079559 0.000000
0.523865 0.082886 0.000000
0.560577 0.085602 0.000000
0.596069 0.088287 0.000000
0.629944 0.090027 0.000000
0.662018 0.091309 0.000000
0.692352 0.092163 0.000000
0.720947 0.092987 0.000000
0.747711 0.093414 0.000000
0.773010 0.093414 0.000000
0.797058 0.093414 0.000000
0.820099 0.093414 0.000000
0.842529 0.092987 0.000000
0.864624 0.092590 0.000000
0.886658 0.092163 0.000000
0.908752 0.091736 0.000000
0.931152 0.090881 0.000000
0.953674 0.090454 0.000000
0.976349 0.089600 0.000000
0.010254 0.027588 0.011047
0.031525 0.032318 0.013397
0.054291 0.037048 0.014984
0.079559 0.041748 0.015778
0.107880 0.046173 0.015778
0.139740 0.050354 0.014984
0.173981 0.054291 0.013428
0.210571 0.059265 0.010254
0.248688 0.063934 0.007904
0.287750 0.068939 0.004730
0.327362 0.074646 0.003174
0.367279 0.080536 0.001587
0.407135 0.086060 0.000793
0.446960 0.091309 0.000000
0.486115 0.095886 0.000000
0.524536 0.099915 0.000000
0.561707 0.103394 0.000000
0.597473 0.106415 0.000000
0.631500 0.108612 0.000000
0.663696 0.110413 0.000000
0.693970 0.111847 0.000000
0.722351 0.112549 0.000000
0.749023 0.113251 0.000000
0.774109 0.113953 0.000000
0.797974 0.113953 0.000000
0.820831 0.113953 0.000000
0.843201 0.113953 0.000000
0.865204 0.113953 0.000000
0.887207 0.113617 0.000000
0.909302 0.113251 0.000000
0.931641 0.112915 0.000000
0.954193 0.112549 0.000000
0.976959 0.112213 0.000000
0.013397 0.038635 0.014191
0.033112 0.044006 0.015778
0.054932 0.048279 0.017334
0.078613 0.052979 0.018127
0.105652 0.058044 0.018127
0.136566 0.062225 0.016541
0.170319 0.066742 0.014984
0.206451 0.071564 0.011841
0.244507 0.077148 0.008667
0.283813 0.082886 0.006317
0.323883 0.089142 0.003174
0.364471 0.095490 0.001587
0.405090 0.101471 0.000793
0.445465 0.107513 0.000000
0.485352 0.112915 0.000000
0.524353 0.117401 0.000000
0.562012 0.121735 0.000000
0.598175 0.124969 0.000000
0.632385 0.127472 0.000000
0.664734 0.129669 0.000000
0.695007 0.131500 0.000000
0.723328 0.132690 0.000000
0.749786 0.133606 0.000000
0.774841 0.134491 0.000000
0.798584 0.135071 0.000000
0.821411 0.135376 0.000000
0.843689 0.135376 0.000000
0.865662 0.135376 0.000000
0.887634 0.135376 0.000000
0.909729 0.135376 0.000000
0.932129 0.135376 0.000000
0.954773 0.135376 0.000000
0.977539 0.135071 0.000000
0.016541 0.050354 0.016541
0.035492 0.055573 0.018127
0.055573 0.060455 0.019714
0.078125 0.065643 0.020508
0.103760 0.070526 0.020508
0.132996 0.075653 0.019714
0.165588 0.080536 0.017334
0.201294 0.086060 0.014984
0.239105 0.091736 0.011841
0.278625 0.097931 0.007904
0.319214 0.104523 0.005524
0.360321 0.111145 0.003143
0.401642 0.117737 0.001556
0.442780 0.124329 0.000793
0.483368 0.130280 0.000000
0.523010 0.135376 0.000000
0.561218 0.140015 0.000000
0.597778 0.143951 0.000000
0.632385 0.146973 0.000000
0.664917 0.149658 0.000000
0.695312 0.151764 0.000000
0.723602 0.153351 0.000000
0.750183 0.154633 0.000000
0.775146 0.155396 0.000000
0.798828 0.156189 0.000000
0.821655 0.156677 0.000000
0.843903 0.157196 0.000000
0.865967 0.157440 0.000000
0.887970 0.157715 0.000000
0.910156 0.157959 0.000000
0.932617 0.158203 0.000000
0.955322 0.158203 0.000000
0.978119 0.158447 0.000000
0.018921 0.063934 0.018921
0.037048 0.068939 0.020508
0.056824 0.073639 0.022064
0.078125 0.079102 0.022858
0.102234 0.084259 0.023651
0.129974 0.089600 0.022858
0.160950 0.095093 0.021271
0.195343 0.101074 0.018921
0.232605 0.107147 0.015778
0.272095 0.113617 0.011841
0.312988 0.120728 0.008667
0.354736 0.127808 0.005524
0.396759 0.134796 0.003143
0.438690 0.141724 0.001556
0.480042 0.148041 0.000793
0.520294 0.153870 0.000793
0.559235 0.158966 0.000000
0.596252 0.163391 0.000000
0.631317 0.167023 0.000000
0.664093 0.170074 0.000000
0.694763 0.172607 0.000000
0.723328 0.174438 0.000000
0.749908 0.176025 0.000000
0.774963 0.177155 0.000000
0.798767 0.178253 0.000000
0.821655 0.178925 0.000000
0.843994 0.179596 0.000000
0.866089 0.180023 0.000000
0.888184 0.180450 0.000000
0.910461 0.180908 0.000000
0.933014 0.181335 0.000000
0.955811 0.181763 0.000000
0.978729 0.182220 0.000000
0.022064 0.078125 0.020508
0.040222 0.082886 0.022858
0.058655 0.087830 0.024445
0.078613 0.092987 0.026001
0.101471 0.098328 0.026001
0.127472 0.104156 0.026001
0.156677 0.110077 0.025238
0.189636 0.116730 0.022858
0.225708 0.123352 0.020508
0.264648 0.130280 0.016541
0.305481 0.137726 0.012604
0.347595 0.145325 0.009460
0.390259 0.152832 0.006287
0.432953 0.159943 0.003937
0.475098 0.166779 0.002350
0.516083 0.173065 0.000793
0.555725 0.178711 0.000793
0.593475 0.183502 0.000000
0.628937 0.187744 0.000000
0.662323 0.191071 0.000000
0.693268 0.193939 0.000000
0.722168 0.196350 0.000000
0.749023 0.198151 0.000000
0.774292 0.199524 0.000000
0.798248 0.200684 0.000000
0.821320 0.201660 0.000000
0.843811 0.202637 0.000000
0.866089 0.203217 0.000000
0.888306 0.203979 0.000000
0.910767 0.204559 0.000000
0.933411 0.205322 0.000000
0.956299 0.205902 0.000000
0.979370 0.206635 0.000000
0.025238 0.093414 0.022858
0.042511 0.097931 0.025238
0.061035 0.102631 0.026794
0.080536 0.107880 0.027588
0.101868 0.113251 0.028381
0.126221 0.119415 0.028381
0.153595 0.125916 0.028381
0.184570 0.132690 0.027588
0.219086 0.140015 0.025238
0.256805 0.147522 0.022858
0.297150 0.155396 0.018921
0.339203 0.163635 0.014984
0.382172 0.171478 0.011047
0.425476 0.179138 0.007080
0.468353 0.186493 0.004730
0.510162 0.193115 0.003143
0.550568 0.199127 0.001556
0.589050 0.204376 0.000793
0.625305 0.209076 0.000793
0.659271 0.212952 0.000000
0.690796 0.216217 0.000000
0.720154 0.218719 0.000000
0.747437 0.221008 0.000000
0.773071 0.222778 0.000000
0.797272 0.224152 0.000000
0.820679 0.225342 0.000000
0.843384 0.226379 0.000000
0.865845 0.227234 0.000000
0.888306 0.228241 0.000000
0.910889 0.229095 0.000000
0.933716 0.229919 0.000000
0.956757 0.230774 0.000000
0.979980 0.231781 0.000000
0.027588 0.109711 0.023651
0.045441 0.114319 0.026794
0.063385 0.118744 0.028381
0.082397 0.123688 0.029968
0.103394 0.129333 0.030731
0.126221 0.135071 0.031525
0.151764 0.141724 0.031525
0.180695 0.148865 0.031525
0.213135 0.156677 0.030731
0.249298 0.164856 0.028381
0.288269 0.173523 0.025238
0.329773 0.182220 0.021271
0.372650 0.190857 0.017334
0.416229 0.198944 0.012604
0.459717 0.206848 0.008667
0.502289 0.214050 0.005524
0.543488 0.220490 0.003937
0.582886 0.226379 0.002350
0.620056 0.231262 0.001556
0.654785 0.235565 0.000793
0.687134 0.239105 0.000000
0.717163 0.242126 0.000000
0.745026 0.244659 0.000000
0.771179 0.246674 0.000000
0.795898 0.248230 0.000000
0.819580 0.249756 0.000000
0.842651 0.250977 0.000000
0.865417 0.252014 0.000000
0.888123 0.253235 0.000000
0.910950 0.254272 0.000000
0.933960 0.255341 0.000000
0.957184 0.256500 0.000000
0.980591 0.257538 0.000000
0.029968 0.127472 0.025238
0.047577 0.131805 0.027588
0.066193 0.135956 0.029968
0.085175 0.140869 0.031525
0.105286 0.146149 0.032318
0.127167 0.151764 0.033112
0.151245 0.158447 0.033905
0.178253 0.165588 0.034698
0.208710 0.173523 0.034698
0.242615 0.182220 0.033905
0.279968 0.191284 0.032318
0.320038 0.200897 0.029175
0.362305 0.210205 0.024445
0.405609 0.219421 0.019714
0.449310 0.227905 0.014984
0.492462 0.235870 0.011047
0.534546 0.242920 0.007874
0.574860 0.249298 0.004730
0.613037 0.254730 0.003143
0.648834 0.259308 0.001556
0.682037 0.263214 0.000793
0.713013 0.266510 0.000793
0.741699 0.269318 0.000000
0.768555 0.271393 0.000000
0.793884 0.273346 0.000000
0.818115 0.274994 0.000000
0.841583 0.276489 0.000000
0.864716 0.277710 0.000000
0.887756 0.279053 0.000000
0.910889 0.280243 0.000000
0.934143 0.281586 0.000000
0.957581 0.282776 0.000000
0.981140 0.284088 0.000000
0.031525 0.146149 0.025238
0.049652 0.150208 0.028381
0.068939 0.154633 0.030731
0.087830 0.159210 0.033112
0.107880 0.164124 0.033905
0.129028 0.169617 0.034698
0.152039 0.175812 0.035492
0.177155 0.182861 0.037048
0.205505 0.190674 0.037842
0.237335 0.199310 0.038635
0.272522 0.208893 0.037842
0.310730 0.219086 0.036255
0.351593 0.229431 0.033112
0.394196 0.239594 0.028381
0.437500 0.249451 0.023651
0.480957 0.258270 0.018127
0.523560 0.266205 0.014191
0.564728 0.273193 0.010254
0.604004 0.279175 0.007080
0.640900 0.284363 0.004730
0.675415 0.288513 0.003143
0.707458 0.292114 0.002350
0.737244 0.295013 0.001556
0.765015 0.297394 0.000793
0.791168 0.299500 0.000793
0.816101 0.301239 0.000000
0.840210 0.302826 0.000000
0.863831 0.304260 0.000000
0.887207 0.305725 0.000000
0.910645 0.307159 0.000000
0.934143 0.308472 0.000000
0.957825 0.310028 0.000000
0.981537 0.311432 0.000000
0.032349 0.165588 0.025238
0.051025 0.169830 0.028381
0.070526 0.174225 0.031525
0.090454 0.178711 0.033905
0.110413 0.183502 0.035492
0.131195 0.188599 0.036255
0.153351 0.194336 0.037048
0.177368 0.200897 0.038635
0.203979 0.208344 0.040222
0.233429 0.216766 0.041748
0.266205 0.226379 0.042511
0.302338 0.237030 0.042511
0.341309 0.248077 0.040985
0.382446 0.259460 0.037048
0.424988 0.270447 0.033112
0.468048 0.280792 0.027588
0.510925 0.290070 0.022858
0.552704 0.298126 0.018127
0.592896 0.304871 0.013397
0.631073 0.310608 0.010254
0.666840 0.315308 0.007080
0.700256 0.319122 0.004730
0.731323 0.322174 0.003143
0.760254 0.324677 0.002350
0.787476 0.326782 0.001556
0.813293 0.328674 0.000793
0.838196 0.330322 0.000793
0.862427 0.331879 0.000793
0.886292 0.333405 0.000000
0.910095 0.334900 0.000000
0.933960 0.336426 0.000000
0.957886 0.338013 0.000000
0.981934 0.339630 0.000000
0.031555 0.186066 0.024445
0.051025 0.190460 0.027588
0.071564 0.194733 0.031525
0.091736 0.199127 0.033905
0.112213 0.203796 0.036255
0.132996 0.208710 0.037842
0.154907 0.214050 0.038635
0.178040 0.220154 0.040222
0.203217 0.227051 0.041748
0.230774 0.234894 0.044006
0.261505 0.244171 0.045441
0.295258 0.254578 0.046875
0.331970 0.266205 0.046875
0.371216 0.278381 0.045441
0.412292 0.290710 0.042511
0.454559 0.302582 0.037842
0.497162 0.313568 0.033112
0.539154 0.323212 0.027588
0.580017 0.331329 0.022858
0.619171 0.338013 0.018127
0.656250 0.343414 0.014191
0.691071 0.347687 0.011047
0.723572 0.350983 0.007874
0.753967 0.353638 0.005524
0.782471 0.355743 0.003937
0.809448 0.357544 0.003143
0.835266 0.359131 0.002350
0.860291 0.360626 0.001556
0.884796 0.362213 0.000793
0.909180 0.363678 0.000793
0.933411 0.365234 0.000793
0.957703 0.366882 0.000000
0.981995 0.368622 0.000000
0.029175 0.207031 0.022888
0.049652 0.211487 0.026794
0.070526 0.216034 0.030731
0.091736 0.220490 0.033905
0.112549 0.225189 0.036255
0.134186 0.229767 0.038635
0.155914 0.234894 0.039429
0.178711 0.240387 0.040985
0.203033 0.246521 0.042511
0.229095 0.253845 0.044739
0.257843 0.262512 0.047577
0.289307 0.272522 0.049652
0.323883 0.283966 0.051666
0.361023 0.296509 0.051666
0.400330 0.309906 0.051025
0.441223 0.323334 0.048279
0.482971 0.335999 0.044006
0.524689 0.347595 0.039429
0.565796 0.357544 0.033905
0.605652 0.365906 0.029175
0.643738 0.372559 0.023651
0.679871 0.377625 0.019714
0.713867 0.381439 0.015778
0.745789 0.384277 0.011810
0.775757 0.386475 0.009460
0.804077 0.388184 0.007080
0.831085 0.389740 0.005524
0.857117 0.391083 0.003937
0.882507 0.392426 0.002350
0.907501 0.393829 0.002350
0.932281 0.395355 0.001556
0.957031 0.396942 0.000793
0.981689 0.398499 0.000793
0.026031 0.228424 0.022095
0.046875 0.233246 0.026001
0.067841 0.237976 0.029175
0.089600 0.242615 0.033112
0.111481 0.247284 0.036255
0.133606 0.251892 0.038635
0.155914 0.256653 0.040222
0.178711 0.261780 0.041748
0.202454 0.267365 0.044006
0.227753 0.273895 0.045441
0.255035 0.281586 0.048279
0.284607 0.290833 0.051025
0.317047 0.301727 0.054291
0.351990 0.314270 0.056183
0.389465 0.328003 0.056824
0.428741 0.342468 0.056183
0.469208 0.356934 0.054291
0.510223 0.370544 0.050354
0.551086 0.382721 0.046173
0.591187 0.393219 0.041748
0.629944 0.401550 0.036255
0.667114 0.408173 0.030731
0.702393 0.412964 0.026001
0.735718 0.416565 0.021271
0.767151 0.419037 0.017334
0.796936 0.420746 0.014191
0.825317 0.422150 0.011047
0.852509 0.423279 0.008667
0.878967 0.424408 0.006287
0.904785 0.425629 0.005524
0.930237 0.426910 0.003937
0.955475 0.428284 0.003143
0.980682 0.429718 0.002350
0.020508 0.250214 0.022095
0.041748 0.255341 0.025238
0.063934 0.260468 0.029175
0.085602 0.265381 0.032318
0.108246 0.270142 0.035492
0.130890 0.274719 0.038635
0.153870 0.279449 0.040985
0.177155 0.284210 0.043243
0.200897 0.289307 0.044739
0.225861 0.295013 0.046875
0.252319 0.301849 0.048981
0.280640 0.310150 0.051666
0.311218 0.320129 0.054932
0.344360 0.331970 0.058044
0.379852 0.345612 0.060455
0.417450 0.360626 0.061646
0.456573 0.376129 0.061646
0.496490 0.391602 0.059845
0.536743 0.406036 0.057434
0.576660 0.418793 0.052979
0.615692 0.429626 0.048981
0.653442 0.438202 0.044006
0.689606 0.444763 0.038635
0.724182 0.449463 0.033112
0.756958 0.452637 0.028381
0.788147 0.454773 0.023651
0.817871 0.456177 0.019714
0.846375 0.457214 0.016541
0.873840 0.458252 0.013397
0.900635 0.459137 0.011047
0.926941 0.460175 0.008667
0.952911 0.461273 0.007080
0.978760 0.462433 0.005524
0.015778 0.272369 0.023651
0.036255 0.277954 0.026001
0.058044 0.283295 0.029175
0.080048 0.288513 0.032318
0.102631 0.293488 0.035492
0.125916 0.298401 0.038635
0.149384 0.302948 0.041748
0.173309 0.307526 0.044006
0.197754 0.312256 0.046173
0.222931 0.317383 0.047577
0.248993 0.323334 0.049652
0.276611 0.330536 0.052338
0.306091 0.339417 0.055573
0.337708 0.350250 0.058655
0.371490 0.363190 0.062225
0.407471 0.378021 0.064514
0.445160 0.394012 0.066193
0.483917 0.410706 0.066193
0.523315 0.427002 0.065063
0.562805 0.442169 0.062805
0.601776 0.455536 0.059845
0.639771 0.466705 0.055573
0.676575 0.475372 0.051025
0.711945 0.481903 0.046173
0.745819 0.486450 0.040985
0.778168 0.489502 0.036255
0.809082 0.491394 0.031525
0.838715 0.492676 0.026794
0.867371 0.493561 0.022858
0.895142 0.494202 0.019714
0.922302 0.495026 0.016541
0.949066 0.495819 0.014191
0.975647 0.496674 0.011810
0.011047 0.295135 0.027588
0.030731 0.300842 0.029175
0.051025 0.306671 0.030731
0.072601 0.312164 0.033112
0.095093 0.317383 0.035492
0.118744 0.322418 0.038635
0.142853 0.327240 0.041748
0.167480 0.331757 0.044739
0.192505 0.336212 0.046875
0.218201 0.340912 0.048981
0.244507 0.346130 0.051025
0.271973 0.352417 0.052979
0.300842 0.360138 0.055573
0.331421 0.369598 0.058655
0.364075 0.381439 0.062225
0.398590 0.395355 0.065094
0.434937 0.411194 0.067871
0.472626 0.428345 0.069489
0.511200 0.445923 0.070007
0.550018 0.463074 0.069489
0.588715 0.478851 0.067841
0.626831 0.492615 0.065063
0.664001 0.503937 0.061035
0.699951 0.512787 0.056824
0.734558 0.519257 0.052338
0.767822 0.523773 0.047577
0.799744 0.526611 0.043243
0.830444 0.528442 0.038635
0.860016 0.529633 0.034698
0.888733 0.530426 0.030731
0.916687 0.531036 0.026794
0.944275 0.531647 0.023651
0.971558 0.532257 0.020508
0.007904 0.318329 0.033112
0.026001 0.324432 0.033905
0.044739 0.330444 0.034698
0.065063 0.336304 0.036255
0.086945 0.341949 0.037842
0.110077 0.347168 0.040222
0.134186 0.352112 0.043243
0.159210 0.356750 0.046173
0.184998 0.361206 0.048279
0.211304 0.365631 0.051025
0.238159 0.370361 0.052979
0.265930 0.375763 0.054932
0.294891 0.382263 0.056824
0.325012 0.390442 0.059265
0.356934 0.400787 0.062225
0.390442 0.413391 0.065094
0.425781 0.428345 0.067871
0.462433 0.445221 0.070526
0.500275 0.463379 0.072113
0.538544 0.481781 0.072632
0.576904 0.499481 0.072113
0.614960 0.515717 0.070526
0.652344 0.529816 0.067871
0.688690 0.541168 0.065063
0.723938 0.550018 0.061035
0.757935 0.556458 0.057434
0.790619 0.560760 0.052979
0.822144 0.563660 0.048981
0.852509 0.565430 0.045441
0.882019 0.566528 0.041748
0.910828 0.567322 0.037842
0.939026 0.567902 0.034698
0.967041 0.568390 0.030731
0.005524 0.342590 0.041748
0.022064 0.348816 0.040985
0.039429 0.355042 0.040985
0.058655 0.361115 0.041748
0.079102 0.366882 0.042511
0.101074 0.372437 0.044006
0.124634 0.377625 0.046173
0.149658 0.382446 0.048279
0.175568 0.387024 0.051025
0.202454 0.391357 0.053650
0.229919 0.395691 0.055573
0.258270 0.400421 0.057434
0.287476 0.406036 0.058655
0.317841 0.412872 0.060486
0.349457 0.421661 0.062805
0.382446 0.432739 0.065094
0.417145 0.446381 0.067871
0.453156 0.462280 0.070007
0.490265 0.480133 0.072113
0.528076 0.499023 0.073669
0.566162 0.518066 0.073669
0.604156 0.536255 0.072632
0.641724 0.552643 0.071075
0.678436 0.566772 0.068939
0.714203 0.578094 0.065643
0.748901 0.586853 0.062805
0.782349 0.593140 0.059265
0.814575 0.597412 0.056183
0.845764 0.600189 0.052979
0.875916 0.601929 0.049652
0.905396 0.603058 0.046875
0.934265 0.603790 0.044006
0.962860 0.604431 0.040985
0.004730 0.367950 0.051025
0.020508 0.374146 0.050354
0.036255 0.380524 0.049652
0.053650 0.386749 0.049652
0.072601 0.392670 0.049652
0.093414 0.398499 0.050354
0.116028 0.403900 0.051666
0.140289 0.408936 0.052979
0.165588 0.413666 0.054932
0.192322 0.418060 0.056824
0.220154 0.422241 0.059265
0.248840 0.426514 0.060455
0.278503 0.431305 0.062225
0.309204 0.437073 0.063385
0.341003 0.444397 0.064514
0.374146 0.453827 0.066223
0.408417 0.465637 0.067871
0.444092 0.480194 0.069489
0.480743 0.497040 0.071594
0.518311 0.515594 0.072632
0.556305 0.535217 0.073151
0.594299 0.554688 0.072632
0.631989 0.573090 0.071594
0.669159 0.589478 0.069489
0.705505 0.603424 0.066772
0.740784 0.614563 0.063965
0.774963 0.623047 0.061066
0.807983 0.629150 0.058655
0.839905 0.633301 0.056213
0.870850 0.635986 0.053650
0.900970 0.637726 0.051697
0.930450 0.638885 0.048981
0.959717 0.639801 0.046875
0.004730 0.394562 0.060455
0.019714 0.400787 0.060455
0.035492 0.406982 0.060455
0.051666 0.413208 0.059845
0.069458 0.419281 0.059845
0.088715 0.425232 0.059265
0.109711 0.430847 0.059845
0.132385 0.436127 0.060455
0.156677 0.440948 0.061646
0.182434 0.445465 0.062805
0.209656 0.449707 0.064514
0.238312 0.453827 0.065643
0.268188 0.458038 0.066742
0.299133 0.462952 0.067322
0.331329 0.468933 0.068390
0.364655 0.476715 0.068939
0.399109 0.486664 0.069489
0.434784 0.499420 0.070007
0.471344 0.514709 0.071075
0.508881 0.532379 0.071594
0.546753 0.551727 0.071594
0.584961 0.571686 0.071075
0.622955 0.591400 0.070007
0.660522 0.609711 0.067871
0.697418 0.626038 0.065094
0.733459 0.639648 0.062225
0.768433 0.650421 0.059265
0.802277 0.658569 0.056824
0.835052 0.664429 0.054932
0.866791 0.668396 0.053009
0.897766 0.671021 0.051697
0.928040 0.672821 0.050354
0.958008 0.674225 0.048981
0.004730 0.422546 0.069458
0.020508 0.428589 0.070526
0.035492 0.434723 0.071045
0.051666 0.440796 0.071045
0.068939 0.446838 0.071045
0.086945 0.452789 0.071045
0.106415 0.458405 0.070526
0.127472 0.463898 0.070526
0.149933 0.468933 0.071045
0.174225 0.473633 0.071045
0.200317 0.477966 0.072083
0.228088 0.482056 0.072601
0.257385 0.486053 0.073151
0.288269 0.490265 0.073669
0.320496 0.495178 0.073669
0.354034 0.501465 0.073669
0.388824 0.509705 0.073151
0.424652 0.520386 0.072632
0.461578 0.533844 0.072632
0.499146 0.549927 0.071594
0.537292 0.568237 0.071075
0.575745 0.588074 0.069489
0.614105 0.608337 0.067871
0.652222 0.628052 0.065094
0.689697 0.646210 0.061646
0.726440 0.662109 0.058075
0.762329 0.675323 0.054932
0.797119 0.685669 0.052368
0.830872 0.693420 0.050354
0.863647 0.698975 0.048981
0.895508 0.702881 0.047607
0.926758 0.705627 0.046906
0.957611 0.707825 0.046173
0.004730 0.452026 0.078125
0.020508 0.457825 0.080048
0.036255 0.463684 0.081482
0.052979 0.469574 0.082397
0.070007 0.475372 0.083344
0.087402 0.481171 0.083344
0.106049 0.486877 0.083344
0.125916 0.492279 0.082886
0.146973 0.497437 0.082397
0.169373 0.502319 0.082397
0.193542 0.506744 0.081970
0.219604 0.510925 0.081970
0.247589 0.514832 0.081970
0.277435 0.518677 0.081482
0.309082 0.522949 0.081024
0.342468 0.528015 0.080078
0.377441 0.534607 0.079102
0.413544 0.543365 0.077667
0.450836 0.554688 0.075684
0.488831 0.568848 0.074158
0.527466 0.585541 0.071594
0.566315 0.604462 0.069489
0.605255 0.624542 0.066223
0.643921 0.644989 0.062805
0.682037 0.664459 0.058655
0.719604 0.682312 0.054291
0.756256 0.697784 0.049683
0.792114 0.710449 0.046173
0.826904 0.720306 0.044006
0.860779 0.727783 0.042511
0.893799 0.733215 0.041016
0.926208 0.737305 0.041016
0.958191 0.740601 0.040222
0.004730 0.482758 0.086090
0.020508 0.488220 0.088715
0.037048 0.493835 0.090881
0.053650 0.499420 0.092987
0.071045 0.505005 0.094666
0.089142 0.510559 0.095490
0.107513 0.516052 0.096313
0.126556 0.521393 0.096313
0.146698 0.526489 0.095917
0.167480 0.531403 0.095490
0.190033 0.535950 0.094696
0.214050 0.540161 0.093842
0.240082 0.544159 0.092590
0.268188 0.547852 0.091736
0.298523 0.551727 0.090454
0.330994 0.555939 0.088745
0.365417 0.561218 0.086975
0.401550 0.568237 0.084717
0.438995 0.577454 0.081970
0.477539 0.589417 0.078613
0.516724 0.604156 0.075165
0.556366 0.621521 0.071075
0.595947 0.640808 0.066772
0.635315 0.661072 0.061646
0.674225 0.681396 0.056213
0.712585 0.700592 0.051025
0.750183 0.718018 0.045471
0.786987 0.732910 0.041016
0.822845 0.745117 0.037872
0.857910 0.754669 0.035492
0.892151 0.762024 0.033905
0.925842 0.767822 0.033142
0.959106 0.772705 0.032349
0.003174 0.514526 0.093842
0.019714 0.519745 0.097107
0.036255 0.524994 0.099915
0.053650 0.530304 0.102234
0.071564 0.535583 0.104919
0.089600 0.540802 0.106781
0.108612 0.546051 0.108276
0.127808 0.551086 0.108978
0.147797 0.556000 0.109344
0.168182 0.560883 0.108978
0.189423 0.565369 0.108276
0.211853 0.569641 0.107147
0.235870 0.573700 0.105682
0.261780 0.577393 0.103790
0.290070 0.581055 0.101868
0.320831 0.584839 0.099518
0.353821 0.589142 0.096741
0.389191 0.594727 0.093445
0.426422 0.602020 0.090027
0.465179 0.611877 0.085632
0.504913 0.624390 0.081024
0.545319 0.639771 0.075684
0.585876 0.657593 0.070007
