luts/IWLTBAP Coronado - Standard.cube
# Copyright: (C) Copyright 2010-2017 by IWLTBAP SAS
# Cannot be resold, shared or otherwise redistributed
# Website: https://luts.iwltbap.com
TITLE "IWLTBAP Coronado (Rec.709, sRGB, DCI-P3)"
LUT_3D_SIZE 5
0.003174 0.000793 0.003174
0.255341 0.029175 0.007904
0.557037 0.050354 0.000000
0.794861 0.053009 0.000000
0.975281 0.044739 0.000000
0.025238 0.093414 0.022858
0.219086 0.140015 0.025238
0.550568 0.199127 0.001556
0.797272 0.224152 0.000000
0.979980 0.231781 0.000000
0.020508 0.250214 0.022095
0.200897 0.289307 0.044739
0.456573 0.376129 0.061646
0.756958 0.452637 0.028381
0.978760 0.462433 0.005524
0.004730 0.452026 0.078125
0.146973 0.497437 0.082397
0.377441 0.534607 0.079102
0.682037 0.664459 0.058655
0.958191 0.740601 0.040222
0.000000 0.715515 0.145081
0.122040 0.741699 0.158234
0.331421 0.765808 0.173096
0.599640 0.801636 0.105682
0.947510 0.976746 0.020508
0.004730 0.067291 0.114319
0.175812 0.066193 0.140015
0.541229 0.037048 0.111847
0.803223 0.001587 0.121735
0.977112 0.001587 0.154114
0.006317 0.129333 0.138306
0.166779 0.167725 0.164612
0.528778 0.203400 0.141449
0.806519 0.208893 0.121063
0.988586 0.207031 0.133301
0.012634 0.266205 0.133911
0.157959 0.315186 0.184570
0.438324 0.403961 0.204376
0.757385 0.458191 0.182220
0.981873 0.460175 0.163391
0.000793 0.481506 0.202240
0.117401 0.512360 0.235077
0.344788 0.556000 0.252472
0.678925 0.676178 0.224823
0.950043 0.743561 0.243408
0.000000 0.734314 0.302338
0.101868 0.749908 0.323425
0.261230 0.772888 0.331329
0.590179 0.813690 0.300232
0.939941 0.974487 0.230255
0.022064 0.175354 0.268768
0.039429 0.153625 0.282379
0.372162 0.122070 0.315186
0.764954 0.077148 0.271393
0.965149 0.006287 0.292999
0.000793 0.248230 0.310852
0.024445 0.258575 0.327362
0.408173 0.263092 0.374146
0.785736 0.239105 0.330322
0.982361 0.200684 0.324890
0.001587 0.313202 0.317841
0.015778 0.357941 0.361816
0.354736 0.431396 0.421173
0.769653 0.476776 0.410797
0.985352 0.458710 0.384644
0.012604 0.519318 0.405701
0.073639 0.546448 0.438385
0.244354 0.579956 0.462219
0.672424 0.696472 0.453308
0.935730 0.756104 0.446991
0.011810 0.751587 0.476288
0.116028 0.764038 0.501587
0.214233 0.769440 0.520020
0.566162 0.825562 0.521393
0.920959 0.967072 0.438690
0.044739 0.260193 0.376801
0.026825 0.245911 0.378204
0.126221 0.213165 0.464966
0.537872 0.167267 0.470062
0.788971 0.154144 0.404175
0.001587 0.330139 0.405365
0.000000 0.341003 0.428223
0.190460 0.322632 0.506226
0.588226 0.280243 0.536743
0.807495 0.267487 0.473633
0.000000 0.394745 0.431793
0.000000 0.433380 0.473267
0.166290 0.478516 0.544495
0.674194 0.519623 0.657043
0.890228 0.493134 0.614044
0.001587 0.494354 0.498291
0.000000 0.529205 0.533478
0.063385 0.588135 0.593048
0.652679 0.728546 0.722961
0.965607 0.780334 0.731323
0.026031 0.694305 0.605652
0.085175 0.722290 0.633942
0.173309 0.757019 0.666840
0.523193 0.837769 0.732727
0.936951 0.967957 0.732117
0.061066 0.315430 0.436432
0.040222 0.306213 0.437225
0.042511 0.295654 0.464264
0.298126 0.229431 0.644135
0.637238 0.186920 0.591064
0.003937 0.367096 0.444489
0.005524 0.378662 0.469849
0.090881 0.376617 0.514465
0.396942 0.313354 0.698364
0.677368 0.269043 0.642487
0.000000 0.421997 0.479156
0.000000 0.457977 0.520813
0.067841 0.495758 0.577759
0.490509 0.488434 0.747437
0.749634 0.415314 0.724670
0.000000 0.496552 0.517181
0.000000 0.535339 0.555542
0.000000 0.594269 0.617004
0.484467 0.699646 0.763367
0.910889 0.756897 0.892029
0.000000 0.585327 0.587769
0.000000 0.619019 0.622009
0.000000 0.659393 0.663147
0.324432 0.785156 0.793243
1.000000 1.000000 1.000000
