luts/IWLTBAP Coronado - LOG.cube
# Copyright: (C) Copyright 2010-2017 by IWLTBAP SAS
# Cannot be resold, shared or otherwise redistributed
# Website: https://luts.iwltbap.com
TITLE "IWLTBAP Coronado (Generic LOG)"
LUT_3D_SIZE 5
0.002869 0.000702 0.002869
0.315216 0.030457 0.003723
0.756104 0.048401 0.000000
0.949677 0.041779 0.000000
0.977692 0.040344 0.000000
0.021545 0.101593 0.019714
0.186371 0.121948 0.020325
0.690369 0.163300 0.000000
0.951599 0.132629 0.000000
0.979370 0.117279 0.000000
0.010040 0.320923 0.024841
0.062378 0.316772 0.027344
0.465759 0.394318 0.056305
0.940063 0.424866 0.002869
0.983398 0.404694 0.000824
0.000427 0.656891 0.110168
0.019806 0.642975 0.108734
0.236176 0.648590 0.117676
0.765900 0.760681 0.036682
0.963562 0.794037 0.024994
0.000000 0.743408 0.130859
0.017334 0.746887 0.132629
0.142487 0.768005 0.143372
0.588562 0.816437 0.101013
0.952667 0.979034 0.018494
0.007416 0.086060 0.171692
0.214203 0.068237 0.176910
0.756409 0.003052 0.128448
0.952576 0.004608 0.121368
0.980286 0.006653 0.110870
0.006195 0.126648 0.135193
0.143036 0.136993 0.135620
0.683350 0.143372 0.072510
0.954468 0.111481 0.060486
0.981445 0.098206 0.052002
0.016052 0.317780 0.069458
0.055084 0.312134 0.058685
0.457764 0.391083 0.075928
0.938477 0.418610 0.026245
0.984100 0.398468 0.024414
0.000000 0.653381 0.129913
0.018860 0.639648 0.128235
0.228424 0.644073 0.139801
0.760925 0.756287 0.065582
0.962921 0.788971 0.058105
0.000000 0.746033 0.153748
0.017334 0.749115 0.155609
0.134033 0.768799 0.166290
0.579620 0.817047 0.131775
0.952240 0.979095 0.050476
0.040466 0.235077 0.414001
0.050690 0.213196 0.407349
0.524658 0.141785 0.460175
0.880829 0.088318 0.381165
0.927887 0.063477 0.374054
0.003235 0.291321 0.405975
0.018677 0.277374 0.401855
0.497955 0.205902 0.441803
0.929993 0.110596 0.358185
0.964630 0.076538 0.346619
0.001434 0.368073 0.371765
0.004395 0.357635 0.361603
0.356293 0.422607 0.412933
0.944305 0.400818 0.325897
0.992737 0.374298 0.298706
0.001556 0.677643 0.372314
0.016571 0.662781 0.357666
0.155182 0.646149 0.345825
0.745422 0.750153 0.265625
0.954865 0.779327 0.254395
0.000000 0.763763 0.333221
0.017212 0.764771 0.322815
0.112000 0.773438 0.308289
0.557159 0.820435 0.254791
0.950043 0.978485 0.145294
0.053131 0.278320 0.481628
0.059631 0.269226 0.482483
0.242889 0.222168 0.623138
0.650269 0.168030 0.610748
0.680450 0.166351 0.600281
0.010254 0.336731 0.486938
0.034180 0.332458 0.498230
0.188354 0.293182 0.591461
0.662140 0.199677 0.625549
0.688080 0.188873 0.611023
0.000000 0.436646 0.525391
0.003662 0.435150 0.528381
0.101013 0.478424 0.598969
0.723663 0.390869 0.702332
0.766113 0.364868 0.660095
0.000702 0.584351 0.587402
0.003662 0.582153 0.585419
0.031982 0.605072 0.608612
0.739471 0.789856 0.786865
0.969727 0.799438 0.757324
0.016876 0.699524 0.629333
0.028687 0.712555 0.630890
0.094147 0.749023 0.640594
0.454926 0.833710 0.687225
0.931671 0.967957 0.628540
0.055084 0.284515 0.491699
0.061035 0.276031 0.492462
0.204132 0.237854 0.619965
0.639771 0.171143 0.641327
0.672821 0.168579 0.631165
0.012512 0.339264 0.494598
0.037903 0.334961 0.506256
0.161682 0.302490 0.584076
0.651184 0.199524 0.654266
0.679504 0.187317 0.639832
0.000000 0.436462 0.532745
0.003662 0.435120 0.536041
0.082642 0.474640 0.602386
0.689758 0.373779 0.744659
0.739075 0.342255 0.713531
0.000000 0.574432 0.593597
0.003662 0.572357 0.594086
0.031097 0.596954 0.624176
0.594299 0.748962 0.821960
0.925629 0.771393 0.909332
0.000000 0.625977 0.628174
0.003662 0.630402 0.632721
0.020630 0.651520 0.654083
0.202118 0.766510 0.772675
1.000000 1.000000 1.000000
