luts/IWLTBAP Coronado - LOG.cube
# Copyright: (C) Copyright 2010-2017 by IWLTBAP SAS
# Cannot be resold, shared or otherwise redistributed
# Website: https://luts.iwltbap.com
TITLE "IWLTBAP Coronado (Generic LOG)"
LUT_3D_SIZE 33
0.002869 0.000702 0.002869
0.008301 0.001465 0.003479
0.036224 0.005463 0.006500
0.071350 0.010529 0.009705
0.109589 0.015076 0.011261
0.155640 0.019196 0.011749
0.204346 0.023132 0.009766
0.259491 0.026672 0.006866
0.315216 0.030457 0.003723
0.373779 0.034576 0.001312
0.432037 0.038879 0.000214
0.490784 0.042236 0.000000
0.548706 0.045288 0.000000
0.605286 0.046997 0.000000
0.658752 0.048401 0.000000
0.709625 0.048401 0.000000
0.756104 0.048401 0.000000
0.799957 0.047577 0.000000
0.841370 0.046448 0.000000
0.882660 0.044861 0.000000
0.916382 0.043091 0.000000
0.939209 0.042053 0.000000
0.942688 0.041962 0.000000
0.946167 0.041870 0.000000
0.949677 0.041779 0.000000
0.953156 0.041687 0.000000
0.956635 0.041504 0.000000
0.960175 0.041321 0.000000
0.963684 0.041138 0.000000
0.967163 0.040924 0.000000
0.970673 0.040741 0.000000
0.974182 0.040558 0.000000
0.977692 0.040344 0.000000
0.003204 0.002319 0.003204
0.006805 0.002869 0.003601
0.029022 0.005920 0.006012
0.063721 0.011261 0.009277
0.101776 0.015808 0.011169
0.146942 0.020233 0.012085
0.195923 0.024292 0.010101
0.250732 0.028046 0.007355
0.306366 0.032135 0.004181
0.365540 0.036255 0.001526
0.423950 0.040802 0.000366
0.483551 0.044617 0.000000
0.541656 0.047729 0.000000
0.599121 0.049835 0.000000
0.652924 0.051392 0.000000
0.704376 0.051544 0.000000
0.751282 0.051544 0.000000
0.795807 0.050873 0.000000
0.837402 0.049866 0.000000
0.878754 0.048309 0.000000
0.914581 0.046631 0.000000
0.937805 0.045563 0.000000
0.942780 0.045441 0.000000
0.946259 0.045319 0.000000
0.949738 0.045227 0.000000
0.953217 0.045135 0.000000
0.956726 0.044983 0.000000
0.960236 0.044800 0.000000
0.963745 0.044617 0.000000
0.967255 0.044403 0.000000
0.970764 0.044220 0.000000
0.974274 0.044037 0.000000
0.977783 0.043823 0.000000
0.004730 0.010376 0.004730
0.008209 0.010040 0.005005
0.022186 0.011230 0.006470
0.055695 0.015656 0.009491
0.093903 0.018921 0.011261
0.138458 0.022461 0.011932
0.187103 0.025360 0.010468
0.241913 0.029480 0.007843
0.297394 0.033661 0.004669
0.356934 0.037933 0.001831
0.416107 0.042725 0.000519
0.475830 0.046783 0.000000
0.534546 0.050140 0.000000
0.592499 0.052643 0.000000
0.647156 0.054077 0.000000
0.699066 0.054657 0.000000
0.746613 0.054657 0.000000
0.791321 0.054108 0.000000
0.833313 0.053162 0.000000
0.874786 0.051727 0.000000
0.912720 0.050110 0.000000
0.935974 0.049042 0.000000
0.942871 0.048859 0.000000
0.946350 0.048737 0.000000
0.949799 0.048645 0.000000
0.953308 0.048553 0.000000
0.956787 0.048431 0.000000
0.960297 0.048279 0.000000
0.963837 0.048096 0.000000
0.967346 0.047913 0.000000
0.970856 0.047699 0.000000
0.974335 0.047516 0.000000
0.977844 0.047333 0.000000
0.006866 0.021423 0.007538
0.010162 0.021301 0.007690
0.017517 0.021759 0.008118
0.045715 0.025238 0.010071
0.082397 0.028870 0.012085
0.125732 0.032257 0.012085
0.174072 0.035004 0.010895
0.228516 0.038330 0.008484
0.284760 0.041107 0.005341
0.344696 0.043854 0.002289
0.403992 0.046631 0.000732
0.464447 0.048889 0.000000
0.523560 0.052307 0.000000
0.582123 0.055206 0.000000
0.637482 0.056671 0.000000
0.690277 0.057739 0.000000
0.738678 0.057831 0.000000
0.783813 0.057465 0.000000
0.826141 0.056519 0.000000
0.867767 0.055206 0.000000
0.907959 0.053711 0.000000
0.933502 0.052521 0.000000
0.942902 0.052307 0.000000
0.946442 0.052216 0.000000
0.949890 0.052094 0.000000
0.953369 0.052002 0.000000
0.956848 0.051880 0.000000
0.960388 0.051727 0.000000
0.963898 0.051575 0.000000
0.967377 0.051422 0.000000
0.970917 0.051208 0.000000
0.974426 0.051025 0.000000
0.977936 0.050842 0.000000
0.009155 0.033630 0.009888
0.012360 0.033508 0.010071
0.015533 0.033386 0.010254
0.035828 0.035980 0.011780
0.070862 0.040680 0.013092
0.111481 0.044342 0.013458
0.158966 0.047729 0.011932
0.212738 0.051544 0.009277
0.269653 0.055267 0.005402
0.330109 0.059387 0.002777
0.390503 0.063599 0.000977
0.452362 0.066406 0.000000
0.512665 0.067719 0.000000
0.571869 0.067291 0.000000
0.627991 0.064667 0.000000
0.681183 0.060669 0.000000
0.730072 0.060944 0.000000
0.776154 0.060760 0.000000
0.819000 0.059845 0.000000
0.860779 0.058685 0.000000
0.901947 0.057373 0.000000
0.929993 0.056030 0.000000
0.942993 0.055725 0.000000
0.946472 0.055634 0.000000
0.949951 0.055542 0.000000
0.953461 0.055450 0.000000
0.956940 0.055298 0.000000
0.960449 0.055176 0.000000
0.963989 0.054993 0.000000
0.967468 0.054871 0.000000
0.970978 0.054688 0.000000
0.974487 0.054474 0.000000
0.977997 0.054291 0.000000
0.012268 0.048004 0.012939
0.015198 0.047974 0.013062
0.018158 0.047852 0.013062
0.028931 0.049103 0.013550
0.059662 0.052917 0.015167
0.097107 0.057617 0.015533
0.142242 0.061493 0.014099
0.194733 0.065491 0.010956
0.251312 0.070251 0.007080
0.312469 0.075500 0.003326
0.374023 0.081116 0.001251
0.437683 0.086029 0.000122
0.499573 0.089417 0.000000
0.560547 0.090698 0.000000
0.618195 0.090607 0.000000
0.672272 0.088379 0.000000
0.721680 0.085449 0.000000
0.768066 0.080963 0.000000
0.810883 0.075745 0.000000
0.852539 0.070099 0.000000
0.893799 0.064941 0.000000
0.926361 0.059631 0.000000
0.943054 0.059143 0.000000
0.946564 0.059082 0.000000
0.950012 0.058990 0.000000
0.953522 0.058899 0.000000
0.957031 0.058777 0.000000
0.960541 0.058594 0.000000
0.964050 0.058472 0.000000
0.967560 0.058319 0.000000
0.971069 0.058167 0.000000
0.974548 0.057983 0.000000
0.978058 0.057800 0.000000
0.015350 0.063873 0.015350
0.018127 0.063629 0.015442
0.021057 0.063507 0.015564
0.023926 0.062775 0.015564
0.049469 0.067047 0.017120
0.084351 0.071991 0.018005
0.125336 0.076752 0.017273
0.175293 0.081085 0.014252
0.231323 0.086060 0.009766
0.292694 0.092041 0.005432
0.355469 0.098419 0.001770
0.420898 0.104462 0.000397
0.484497 0.109436 0.000000
0.547607 0.112457 0.000000
0.606628 0.113495 0.000000
0.662292 0.112823 0.000000
0.712891 0.110321 0.000000
0.759827 0.107330 0.000000
0.803040 0.102905 0.000000
0.844757 0.098175 0.000000
0.886078 0.092651 0.000000
0.921051 0.087341 0.000000
0.943573 0.082275 0.000000
0.946960 0.077606 0.000000
0.950317 0.072388 0.000000
0.953796 0.070435 0.000000
0.957214 0.068451 0.000000
0.960693 0.066711 0.000000
0.964172 0.064819 0.000000
0.967621 0.062775 0.000000
0.971130 0.061615 0.000000
0.974640 0.061493 0.000000
0.978149 0.061279 0.000000
0.018127 0.082062 0.017609
0.020905 0.081970 0.017853
0.023651 0.081757 0.018097
0.026276 0.080933 0.018097
0.039490 0.082306 0.018860
0.072998 0.087616 0.020325
0.109711 0.092743 0.020752
0.155243 0.098114 0.018768
0.208801 0.103668 0.014832
0.269379 0.109955 0.009277
0.333405 0.116943 0.004700
0.400208 0.123932 0.001526
0.465973 0.130371 0.000214
0.531250 0.134888 0.000000
0.592773 0.137665 0.000000
0.650177 0.138031 0.000000
0.702118 0.137115 0.000000
0.750153 0.134521 0.000000
0.794037 0.131531 0.000000
0.836151 0.127258 0.000000
0.877380 0.122742 0.000000
0.916626 0.117706 0.000000
0.944183 0.112274 0.000000
0.947571 0.107086 0.000000
0.950928 0.101776 0.000000
0.954346 0.097809 0.000000
0.957794 0.095306 0.000000
0.961273 0.093079 0.000000
0.964722 0.090729 0.000000
0.968201 0.088318 0.000000
0.971649 0.085876 0.000000
0.975128 0.085663 0.000000
0.978638 0.085419 0.000000
0.021545 0.101593 0.019714
0.024200 0.101471 0.019928
0.026855 0.101318 0.020172
0.029419 0.100342 0.020294
0.032074 0.099304 0.020386
0.063446 0.104492 0.022583
0.096558 0.109589 0.023560
0.137604 0.115387 0.023071
0.186371 0.121948 0.020325
0.244446 0.128784 0.015656
0.308380 0.136200 0.009674
0.376587 0.144135 0.004639
0.444611 0.151215 0.001495
0.512512 0.157196 0.000702
0.576294 0.161163 0.000000
0.636047 0.163147 0.000000
0.690369 0.163300 0.000000
0.739655 0.161652 0.000000
0.784332 0.158905 0.000000
0.826996 0.155365 0.000000
0.868530 0.151459 0.000000
0.908478 0.147034 0.000000
0.944794 0.142456 0.000000
0.948181 0.137451 0.000000
0.951599 0.132629 0.000000
0.954987 0.128296 0.000000
0.958435 0.126129 0.000000
0.961945 0.124084 0.000000
0.965424 0.122009 0.000000
0.968872 0.119720 0.000000
0.972321 0.117554 0.000000
0.975830 0.117401 0.000000
0.979370 0.117279 0.000000
0.024475 0.123138 0.021179
0.027252 0.122986 0.021576
0.029999 0.122803 0.021973
0.032684 0.121918 0.022339
0.035278 0.120728 0.022644
0.054840 0.122894 0.024261
0.086060 0.127930 0.025665
0.123016 0.133728 0.026062
0.166290 0.140625 0.025513
0.219208 0.148438 0.022552
0.280945 0.156586 0.017426
0.348755 0.165436 0.011047
0.418518 0.173492 0.005280
0.489166 0.180786 0.002075
0.555878 0.186127 0.000702
0.618805 0.189575 0.000000
0.675385 0.190857 0.000000
0.726868 0.190308 0.000000
0.773224 0.188477 0.000000
0.816895 0.185547 0.000000
0.858765 0.182159 0.000000
0.900909 0.178192 0.000000
0.940430 0.174194 0.000000
0.948822 0.169312 0.000000
0.952209 0.164429 0.000000
0.955658 0.159729 0.000000
0.959106 0.157562 0.000000
0.962585 0.155579 0.000000
0.966095 0.153381 0.000000
0.969574 0.151367 0.000000
0.973053 0.149292 0.000000
0.976532 0.149170 0.000000
0.980072 0.149017 0.000000
0.027100 0.146667 0.022766
0.029877 0.146393 0.023102
0.032593 0.146179 0.023346
0.035248 0.145081 0.023529
0.037842 0.143921 0.023712
0.046539 0.143738 0.024780
0.077026 0.147919 0.027283
0.111816 0.153381 0.028503
0.149902 0.159760 0.029083
0.197113 0.167877 0.028748
0.253174 0.176880 0.025696
0.318726 0.186951 0.019684
0.389130 0.196411 0.012665
0.461639 0.204956 0.006226
0.531494 0.211670 0.002686
0.598206 0.216217 0.000885
0.658325 0.218781 0.000000
0.712646 0.219177 0.000000
0.760834 0.218292 0.000000
0.805878 0.215881 0.000000
0.848419 0.213013 0.000000
0.891052 0.209381 0.000000
0.933960 0.205780 0.000000
0.949341 0.201141 0.000000
0.952759 0.196442 0.000000
0.956238 0.191467 0.000000
0.959717 0.189423 0.000000
0.963257 0.187408 0.000000
0.966736 0.185211 0.000000
0.970215 0.183197 0.000000
0.973694 0.181213 0.000000
0.977234 0.181183 0.000000
0.980774 0.181091 0.000000
0.028687 0.172363 0.022766
0.031616 0.172089 0.023163
0.034515 0.171753 0.023621
0.037323 0.170685 0.024017
0.040100 0.169434 0.024445
0.042847 0.167664 0.024872
0.069366 0.170624 0.027771
0.102386 0.175140 0.029968
0.137482 0.180573 0.030914
0.179321 0.188080 0.032196
0.228943 0.197174 0.032288
0.288544 0.208069 0.029785
0.356567 0.219452 0.022949
0.429779 0.229889 0.014648
0.502197 0.238403 0.007874
0.572723 0.244629 0.003326
0.636658 0.248383 0.001190
0.694794 0.249878 0.000153
0.746155 0.249817 0.000000
0.793152 0.248138 0.000000
0.836975 0.245850 0.000000
0.880157 0.242798 0.000000
0.923645 0.239655 0.000000
0.948792 0.235382 0.000000
0.953339 0.230621 0.000000
0.956818 0.225525 0.000000
0.960327 0.223114 0.000000
0.963867 0.221039 0.000000
0.967407 0.219086 0.000000
0.970917 0.216827 0.000000
0.974426 0.214752 0.000000
0.977966 0.214722 0.000000
0.981537 0.214722 0.000000
0.028748 0.199463 0.022308
0.031830 0.199158 0.022766
0.034943 0.198700 0.023224
0.038086 0.197662 0.023712
0.041046 0.196564 0.024200
0.044006 0.194916 0.024689
0.059143 0.195221 0.026978
0.093414 0.199249 0.030762
0.127533 0.203827 0.032410
0.166016 0.209839 0.033661
0.209137 0.217804 0.035522
0.262451 0.228516 0.036407
0.324493 0.241333 0.034149
0.395294 0.254303 0.026917
0.468597 0.265350 0.017883
0.542267 0.273834 0.010315
0.610687 0.279144 0.004852
0.673309 0.282013 0.001831
0.728668 0.282532 0.000671
0.778687 0.281525 0.000153
0.824280 0.279419 0.000000
0.868713 0.276917 0.000000
0.912628 0.273956 0.000000
0.944611 0.270386 0.000000
0.953796 0.265533 0.000000
0.957306 0.260559 0.000000
0.960846 0.257416 0.000000
0.964417 0.255402 0.000000
0.968018 0.253357 0.000000
0.971558 0.251160 0.000000
0.975098 0.249146 0.000000
0.978668 0.249176 0.000000
0.982269 0.249176 0.000000
0.026459 0.228363 0.020721
0.029755 0.228027 0.021301
0.033020 0.227692 0.021881
0.036407 0.226776 0.022522
0.039795 0.225525 0.023163
0.043060 0.223969 0.023712
0.048492 0.222534 0.024536
0.081390 0.225739 0.029510
0.117126 0.229797 0.033020
0.154419 0.234589 0.034821
0.194031 0.240723 0.036896
0.240753 0.249664 0.039551
0.295746 0.261688 0.041016
0.360535 0.276611 0.039093
0.431915 0.291351 0.032043
0.506653 0.303436 0.022614
0.578552 0.311554 0.013702
0.646423 0.315979 0.007202
0.706970 0.317749 0.003235
0.761078 0.317139 0.001404
0.809570 0.315613 0.000336
0.855927 0.313080 0.000153
0.900848 0.310486 0.000000
0.939301 0.307312 0.000000
0.953522 0.303040 0.000000
0.957733 0.297791 0.000000
0.961304 0.294373 0.000000
0.964966 0.292023 0.000000
0.968567 0.289917 0.000000
0.972137 0.287781 0.000000
0.975739 0.285675 0.000000
0.979340 0.285736 0.000000
0.982971 0.285828 0.000000
0.022156 0.257965 0.019928
0.025696 0.257690 0.020355
0.029205 0.257263 0.020874
0.032776 0.256317 0.021454
0.036316 0.255463 0.022003
0.039948 0.253876 0.022583
0.043518 0.251953 0.023193
0.064270 0.253204 0.026123
0.103882 0.257690 0.031799
0.142426 0.261627 0.035217
0.180725 0.266449 0.037079
0.223846 0.272949 0.039703
0.272369 0.282928 0.043488
0.329926 0.296844 0.046112
0.395996 0.313843 0.044647
0.468506 0.330658 0.037689
0.541992 0.343567 0.028137
0.614105 0.351746 0.018738
0.679840 0.354919 0.011139
0.739197 0.355164 0.005432
0.792236 0.353485 0.002655
0.841248 0.351135 0.001282
0.887787 0.348419 0.000275
0.932495 0.345581 0.000153
0.950867 0.341156 0.000000
0.957886 0.336060 0.000000
0.961517 0.332123 0.000000
0.965240 0.329895 0.000000
0.968933 0.327698 0.000000
0.972565 0.325378 0.000000
0.976196 0.323181 0.000000
0.979797 0.323242 0.000000
0.983459 0.323334 0.000000
0.015869 0.289001 0.020813
0.019257 0.288788 0.021057
0.022644 0.288574 0.021301
0.026093 0.287994 0.021545
0.029694 0.287079 0.021912
0.033539 0.285370 0.022247
0.037384 0.283539 0.022583
0.041290 0.281525 0.022949
0.085114 0.287079 0.028961
0.126129 0.291351 0.034027
0.166046 0.295349 0.037476
0.207794 0.299957 0.040161
0.252472 0.306885 0.043121
0.304291 0.317993 0.047577
0.363647 0.333893 0.051147
0.431152 0.353149 0.050415
0.502899 0.371887 0.044525
0.576538 0.386078 0.035522
0.646362 0.394012 0.025146
0.711609 0.396210 0.016418
0.769897 0.395050 0.009521
0.823334 0.392151 0.005066
0.872528 0.389099 0.002136
0.920624 0.385986 0.001190
0.946625 0.382050 0.000641
0.957581 0.376923 0.000183
0.961395 0.372284 0.000031
0.965149 0.369843 0.000000
0.968903 0.367645 0.000000
0.972626 0.365479 0.000000
0.976379 0.363342 0.000000
0.980042 0.363464 0.000000
0.983734 0.363525 0.000000
0.010040 0.320923 0.024841
0.013336 0.320648 0.024872
0.016602 0.320435 0.024933
0.019989 0.319763 0.024933
0.023346 0.319031 0.024933
0.026917 0.317413 0.024841
0.030640 0.315735 0.024841
0.034454 0.313599 0.024811
0.062378 0.316772 0.027344
0.104767 0.321930 0.032135
0.147125 0.325928 0.036987
0.190369 0.329712 0.040588
0.234100 0.334259 0.043091
0.282349 0.341827 0.046783
0.336060 0.354309 0.051636
0.397797 0.372559 0.055817
0.465759 0.394318 0.056305
0.538025 0.415131 0.051941
0.609375 0.430298 0.043549
0.678375 0.438019 0.033020
0.741882 0.439606 0.022919
0.800446 0.437042 0.014740
0.853851 0.433197 0.008636
0.904694 0.429108 0.004913
0.940063 0.424866 0.002869
0.956238 0.419922 0.002045
0.960297 0.414429 0.001556
0.964264 0.411957 0.001251
0.968170 0.409515 0.001068
0.972015 0.407135 0.000977
0.975891 0.404541 0.000824
0.979645 0.404633 0.000824
0.983398 0.404694 0.000824
0.006317 0.354523 0.032715
0.009094 0.354340 0.032318
0.011902 0.354095 0.031891
0.014954 0.353607 0.031647
0.018097 0.352814 0.031342
0.021332 0.351227 0.030853
0.024536 0.349579 0.030365
0.028015 0.347443 0.029968
0.039001 0.347412 0.029846
0.079407 0.353790 0.032135
0.122467 0.358612 0.035919
0.167267 0.362549 0.040497
0.212738 0.365814 0.043762
0.260925 0.370514 0.046753
0.311340 0.378479 0.050385
0.368225 0.392548 0.055664
0.431427 0.412933 0.060028
0.500336 0.437378 0.061157
0.571075 0.459686 0.057892
0.641907 0.475983 0.050781
0.709198 0.483673 0.041321
0.772217 0.484528 0.031036
0.830200 0.481110 0.021423
0.884888 0.476532 0.014191
0.926941 0.471436 0.009338
0.953217 0.466095 0.006653
0.957611 0.460022 0.005676
0.961761 0.457123 0.005157
0.965912 0.454498 0.004639
0.970032 0.451813 0.004089
0.974030 0.449310 0.003754
0.977875 0.449371 0.003632
0.981720 0.449432 0.003510
0.004425 0.390045 0.044037
0.007050 0.389771 0.043579
0.009644 0.389496 0.043121
0.012268 0.388885 0.042572
0.014893 0.388214 0.041992
0.017731 0.386597 0.041107
0.020538 0.385010 0.040192
0.023346 0.382721 0.039093
0.026184 0.380554 0.038025
0.056793 0.385864 0.037537
0.096252 0.391632 0.038513
0.140167 0.396393 0.041473
0.186859 0.399841 0.045074
0.236084 0.403107 0.048462
0.286865 0.407654 0.050964
0.341461 0.416473 0.054321
0.400757 0.431976 0.058899
0.466064 0.454865 0.063293
0.534882 0.481201 0.064728
0.605957 0.505615 0.062439
0.674927 0.522156 0.056274
0.741150 0.529877 0.047852
0.802765 0.530060 0.038727
0.861084 0.526489 0.029602
0.911499 0.521088 0.021759
0.947845 0.515594 0.016846
0.952728 0.509064 0.014832
0.957275 0.505280 0.013550
0.961639 0.502197 0.012482
0.965973 0.499359 0.011566
0.970306 0.496735 0.010712
0.974335 0.496674 0.010345
0.978302 0.496674 0.010071
0.004272 0.428253 0.055969
0.006836 0.427887 0.055725
0.009277 0.427490 0.055359
0.011719 0.426819 0.054871
0.014130 0.425964 0.054321
0.016632 0.424530 0.053589
0.019165 0.422791 0.052734
0.021820 0.420471 0.051605
0.024475 0.418213 0.050568
0.040283 0.420013 0.049011
0.073822 0.426025 0.047607
0.113678 0.431671 0.047485
0.158295 0.435852 0.048706
0.207092 0.439148 0.051331
0.258392 0.441925 0.053711
0.313599 0.446716 0.055664
0.371460 0.456329 0.058136
0.434082 0.473755 0.061676
0.500732 0.498505 0.065094
0.570679 0.526917 0.066406
0.640350 0.551941 0.063995
0.708832 0.569061 0.058899
0.773529 0.576355 0.052277
0.834900 0.576508 0.044739
0.891754 0.572540 0.037445
0.937653 0.567139 0.030884
0.946228 0.560577 0.028168
0.951050 0.556152 0.026367
0.955719 0.552948 0.024933
0.960266 0.550018 0.023682
0.964722 0.547150 0.022491
0.968842 0.547150 0.022034
0.972992 0.547089 0.021576
0.004272 0.469238 0.067291
0.006836 0.468781 0.067230
0.009430 0.468292 0.067169
0.011993 0.467529 0.066986
0.014557 0.466583 0.066650
0.017151 0.464844 0.066071
0.019714 0.463165 0.065460
0.022308 0.460754 0.064697
0.024750 0.458038 0.063690
0.028870 0.455963 0.062683
0.058350 0.461578 0.061462
0.094269 0.467987 0.059937
0.133698 0.472931 0.058655
0.178528 0.476807 0.058624
0.227814 0.479584 0.059692
0.282745 0.481995 0.060455
0.340454 0.486877 0.061188
0.402496 0.497406 0.061890
0.467865 0.516571 0.063477
0.536987 0.543457 0.065155
0.606934 0.572815 0.064972
0.677063 0.598663 0.062347
0.744507 0.615143 0.057678
0.808563 0.622192 0.052643
0.868591 0.621826 0.047485
0.923706 0.618011 0.042419
0.940155 0.612030 0.040283
0.944885 0.607208 0.039154
0.949554 0.604065 0.038086
0.954193 0.601227 0.037018
0.958832 0.598450 0.035919
0.963135 0.598389 0.035431
0.967346 0.598297 0.034851
0.004211 0.513306 0.077911
0.006836 0.512665 0.077972
0.009430 0.512085 0.078033
0.011993 0.511169 0.078003
0.014557 0.510193 0.077942
0.017151 0.508392 0.077698
0.019714 0.506592 0.077332
0.022339 0.504120 0.076752
0.025024 0.501221 0.076111
0.027679 0.498199 0.075409
0.045624 0.499847 0.075745
0.081543 0.505890 0.075897
0.116974 0.511353 0.074310
0.156250 0.515747 0.072083
0.200287 0.519165 0.070496
0.250885 0.521423 0.069641
0.306885 0.523773 0.068726
0.368683 0.528656 0.067383
0.433838 0.540192 0.065643
0.502808 0.561005 0.064545
0.573303 0.589417 0.063293
0.644928 0.620026 0.060791
0.714569 0.645477 0.056305
0.781708 0.661377 0.052063
0.844910 0.667847 0.049164
0.905029 0.667328 0.046509
0.935364 0.662628 0.044861
0.940796 0.657562 0.044495
0.945496 0.654907 0.044189
0.949982 0.651978 0.043732
0.954529 0.649261 0.043304
0.958923 0.649231 0.042999
0.963318 0.649200 0.042725
0.002502 0.559540 0.088165
0.005127 0.558563 0.088226
0.007721 0.557861 0.088318
0.010437 0.556854 0.088348
0.013153 0.555786 0.088409
0.015961 0.554077 0.088318
0.018768 0.552124 0.088196
0.021576 0.549469 0.087891
0.024384 0.546570 0.087433
0.027130 0.543304 0.086853
0.029877 0.540192 0.086304
0.069214 0.546265 0.089691
0.105255 0.551239 0.090729
0.142151 0.555817 0.089874
0.181091 0.559540 0.087372
0.225067 0.562378 0.084259
0.275116 0.564117 0.081116
0.333557 0.566345 0.077789
0.397736 0.571564 0.074066
0.467133 0.584320 0.069458
0.538605 0.606354 0.064819
0.611725 0.636078 0.059875
0.683716 0.666870 0.053864
0.754150 0.691742 0.047180
0.821014 0.706573 0.043304
0.885010 0.712158 0.041687
0.928284 0.710785 0.041687
0.938812 0.705841 0.042267
0.943512 0.703278 0.042480
0.948212 0.700653 0.042633
0.952911 0.698242 0.042816
0.957367 0.698303 0.042603
0.961884 0.698334 0.042450
0.001465 0.607849 0.098938
0.003967 0.607025 0.098999
0.006439 0.606262 0.099091
0.008972 0.604889 0.099030
0.011444 0.603699 0.098999
0.014038 0.602081 0.098907
0.016724 0.600281 0.098755
0.019409 0.597382 0.098389
0.022034 0.594330 0.097961
0.024780 0.591034 0.097473
0.027832 0.587524 0.096985
0.052704 0.589264 0.099579
0.090363 0.593536 0.103149
0.129333 0.597626 0.105377
0.168060 0.600922 0.105347
0.208405 0.604034 0.102875
0.251770 0.606171 0.098694
0.302399 0.607727 0.093597
0.361115 0.609589 0.087616
0.428467 0.615479 0.080933
0.500885 0.629120 0.072998
0.575989 0.652802 0.064240
0.650604 0.683105 0.054626
0.724182 0.713989 0.044952
0.794556 0.737762 0.036926
0.862610 0.751862 0.033264
0.918304 0.756348 0.032562
0.938049 0.753082 0.033691
0.943573 0.750854 0.034241
0.948242 0.748627 0.034729
0.952942 0.746429 0.035217
0.957672 0.746765 0.035126
0.962433 0.747040 0.035065
0.000427 0.656891 0.110168
0.002716 0.655914 0.110138
0.004974 0.654999 0.110077
0.007385 0.653809 0.110016
0.009827 0.652496 0.109955
0.012299 0.650635 0.109772
0.014771 0.648926 0.109619
0.017303 0.646118 0.109222
0.019806 0.642975 0.108734
0.022339 0.639557 0.108215
0.024872 0.636047 0.107635
0.033600 0.633698 0.107910
0.071320 0.637665 0.112091
0.111176 0.640839 0.116089
0.152191 0.643768 0.118896
0.194122 0.646240 0.119812
0.236176 0.648590 0.117676
0.280945 0.650177 0.112579
0.331329 0.651428 0.105682
0.391541 0.653412 0.097260
0.460541 0.659790 0.087708
0.536865 0.674744 0.075897
0.614288 0.699341 0.062714
0.691589 0.730408 0.048828
0.765900 0.760681 0.036682
0.837555 0.783691 0.028107
0.904938 0.797150 0.023987
0.933746 0.797821 0.023743
0.943451 0.796143 0.024292
0.948578 0.794586 0.024719
0.953705 0.792938 0.025146
0.958618 0.793518 0.025085
0.963562 0.794037 0.024994
0.000000 0.706940 0.121979
0.002289 0.706055 0.121948
0.004517 0.705078 0.121857
0.006775 0.703522 0.121674
0.009033 0.702240 0.121490
0.011292 0.700745 0.121338
0.013550 0.698975 0.121094
0.015808 0.695923 0.120544
0.018036 0.692810 0.119934
0.020386 0.689453 0.119263
0.022858 0.685791 0.118591
0.025269 0.682068 0.117950
0.052399 0.683441 0.120453
0.089661 0.686188 0.124146
0.129852 0.688263 0.127594
0.174133 0.690430 0.130829
0.219482 0.692078 0.132385
0.264709 0.693512 0.130920
0.310547 0.694519 0.125732
0.362274 0.695526 0.117249
0.422668 0.697632 0.106476
0.494476 0.704773 0.093323
0.573303 0.720398 0.078094
0.654999 0.746277 0.060699
0.733551 0.777466 0.044403
0.809265 0.807709 0.030670
0.881775 0.830933 0.022308
0.923767 0.838776 0.018860
0.942505 0.840576 0.017395
0.947784 0.839325 0.017303
0.953186 0.837891 0.017273
0.958405 0.838989 0.016968
0.963715 0.840118 0.016663
0.000000 0.713196 0.123474
0.002197 0.713593 0.123688
0.004425 0.714081 0.123962
0.006714 0.714539 0.124237
0.008942 0.714996 0.124512
0.011230 0.715485 0.124786
0.013489 0.715912 0.125061
0.015747 0.716095 0.125244
0.018036 0.715576 0.125244
0.020294 0.714874 0.125183
0.022583 0.714417 0.125214
0.024841 0.712769 0.124939
0.039551 0.714203 0.126221
0.071259 0.718842 0.129333
0.108459 0.722778 0.132843
0.151184 0.726624 0.136536
0.197601 0.730072 0.139923
0.245972 0.733063 0.142212
0.293854 0.735352 0.141846
0.342590 0.737366 0.137329
0.393982 0.739319 0.127716
0.455505 0.741730 0.113800
0.529602 0.749359 0.097565
